NCOLS 93 
NROWS 76 
XLLCORNER 70.2380069022052 
YLLCORNER 41.0259377152345 
CELLSIZE 0.005892565925393 
NODATA_value -9999 
-9999.000000000000000 -9999 -9999 -9999 -9999 -9999 -9999 -9999 -9999 -9999 -9999 -9999 -9999 -9999 -9999 -9999 -9999 -9999 -9999 -9999 -9999 -9999 -9999 -9999 -9999 -9999 -9999 -9999 -9999 -9999 -9999 -9999 -9999 -9999 -9999 -9999 -9999 -9999 -9999 -9999 -9999 -9999 -9999 -9999 -9999 -9999 -9999 -9999 -9999 -9999 -9999 -9999 -9999 -9999 -9999 -9999 -9999 -9999 -9999 -9999 -9999 -9999 -9999 -9999 -9999 -9999 -9999 -9999 -9999 -9999 -9999 -9999 -9999 -9999 -9999 3162 -9999 -9999 -9999 -9999 -9999 -9999 -9999 -9999 -9999 -9999 -9999 -9999 -9999 -9999 -9999 -9999 -9999
-9999 -9999 -9999 -9999 -9999 -9999 -9999 -9999 -9999 -9999 -9999 -9999 -9999 -9999 -9999 -9999 -9999 -9999 -9999 -9999 -9999 -9999 -9999 -9999 -9999 -9999 -9999 -9999 -9999 -9999 -9999 -9999 -9999 -9999 -9999 -9999 -9999 -9999 -9999 -9999 -9999 -9999 -9999 -9999 -9999 -9999 -9999 -9999 -9999 -9999 -9999 -9999 -9999 -9999 -9999 -9999 -9999 -9999 -9999 -9999 -9999 -9999 -9999 -9999 -9999 -9999 -9999 -9999 -9999 -9999 -9999 3299 3252 3152 3148 3117 3194 3190 3205 3198 3185 3182 -9999 -9999 -9999 -9999 -9999 -9999 -9999 -9999 -9999 -9999 -9999
-9999 -9999 -9999 -9999 -9999 -9999 -9999 -9999 -9999 -9999 -9999 -9999 -9999 -9999 -9999 -9999 -9999 -9999 -9999 -9999 -9999 -9999 -9999 -9999 -9999 -9999 -9999 -9999 -9999 -9999 -9999 -9999 -9999 -9999 -9999 -9999 -9999 -9999 -9999 -9999 -9999 -9999 -9999 -9999 -9999 -9999 -9999 -9999 -9999 -9999 -9999 -9999 -9999 -9999 -9999 -9999 -9999 -9999 -9999 -9999 -9999 -9999 -9999 -9999 -9999 -9999 3767 -9999 -9999 -9999 3461 3316 3210 3151 3110 3094 3104 3074 3149 3127 3148 -9999 -9999 -9999 -9999 -9999 -9999 -9999 -9999 -9999 -9999 -9999 -9999
-9999 -9999 -9999 -9999 -9999 -9999 -9999 -9999 -9999 -9999 -9999 -9999 -9999 -9999 -9999 -9999 -9999 -9999 -9999 -9999 -9999 -9999 -9999 -9999 -9999 -9999 -9999 -9999 -9999 -9999 -9999 -9999 -9999 -9999 -9999 -9999 -9999 -9999 -9999 -9999 -9999 -9999 -9999 -9999 -9999 -9999 -9999 -9999 -9999 -9999 -9999 -9999 -9999 -9999 -9999 -9999 -9999 -9999 -9999 -9999 3916 3884 -9999 3565 3776 3695 3709 3614 3550 3443 3415 3339 3223 3110 3088 3103 3055 3065 3155 3127 3133 -9999 -9999 -9999 -9999 -9999 -9999 -9999 -9999 -9999 -9999 -9999 -9999
-9999 -9999 -9999 -9999 -9999 -9999 -9999 -9999 -9999 -9999 -9999 -9999 -9999 -9999 -9999 -9999 -9999 -9999 -9999 -9999 -9999 -9999 -9999 -9999 -9999 -9999 -9999 -9999 -9999 -9999 -9999 -9999 -9999 -9999 -9999 -9999 -9999 -9999 -9999 -9999 -9999 -9999 -9999 -9999 -9999 -9999 -9999 -9999 -9999 -9999 -9999 -9999 -9999 -9999 -9999 -9999 -9999 -9999 -9999 -9999 3696 3610 3643 3763 3542 3440 3510 3364 3289 3229 3211 3259 3227 3208 3198 3139 3047 3026 3124 3141 3089 -9999 -9999 -9999 -9999 -9999 -9999 -9999 -9999 -9999 -9999 -9999 -9999
-9999 -9999 -9999 -9999 -9999 -9999 -9999 -9999 -9999 -9999 -9999 -9999 -9999 -9999 -9999 -9999 -9999 -9999 -9999 -9999 -9999 -9999 -9999 -9999 -9999 -9999 -9999 -9999 -9999 -9999 -9999 -9999 -9999 -9999 -9999 -9999 -9999 -9999 -9999 -9999 -9999 -9999 -9999 -9999 -9999 -9999 -9999 -9999 -9999 -9999 -9999 -9999 -9999 -9999 -9999 -9999 3951 3959 3885 3978 3738 3819 3557 3471 3422 3364 3318 3242 3169 3123 3151 3230 3201 3212 3155 3185 3137 3105 2998 3043 3069 3149 -9999 -9999 -9999 -9999 -9999 -9999 -9999 -9999 -9999 -9999 -9999
-9999 -9999 -9999 -9999 -9999 -9999 -9999 -9999 -9999 -9999 -9999 -9999 -9999 -9999 -9999 -9999 -9999 -9999 -9999 -9999 -9999 -9999 -9999 -9999 -9999 -9999 -9999 -9999 -9999 -9999 -9999 -9999 -9999 -9999 -9999 -9999 -9999 -9999 -9999 -9999 -9999 -9999 -9999 -9999 -9999 -9999 -9999 -9999 -9999 -9999 -9999 -9999 -9999 -9999 -9999 -9999 3872 3699 3679 3681 3722 3616 3513 3524 3415 3314 3258 3221 3152 3055 3133 3187 3044 3146 3066 3050 3153 3116 2976 3009 3061 3076 3107 3145 -9999 -9999 -9999 -9999 -9999 -9999 -9999 -9999 -9999
-9999 -9999 -9999 -9999 -9999 -9999 -9999 -9999 -9999 -9999 -9999 -9999 -9999 -9999 -9999 -9999 -9999 -9999 -9999 -9999 -9999 -9999 -9999 -9999 -9999 -9999 -9999 -9999 -9999 -9999 -9999 -9999 -9999 -9999 -9999 -9999 -9999 -9999 -9999 -9999 -9999 -9999 -9999 -9999 -9999 -9999 -9999 -9999 -9999 -9999 -9999 -9999 -9999 -9999 -9999 -9999 3746 3682 3546 3525 3534 3539 3562 3391 3291 3251 3142 3051 3004 3094 3134 3132 3030 2944 2871 2918 3106 3091 3102 2992 3072 3022 3081 2990 -9999 -9999 -9999 -9999 -9999 -9999 -9999 -9999 -9999
-9999 -9999 -9999 -9999 -9999 -9999 -9999 -9999 -9999 -9999 -9999 -9999 -9999 -9999 -9999 -9999 -9999 -9999 -9999 -9999 -9999 -9999 -9999 -9999 -9999 -9999 -9999 -9999 -9999 -9999 -9999 -9999 -9999 -9999 -9999 -9999 -9999 -9999 -9999 -9999 -9999 -9999 -9999 -9999 -9999 -9999 -9999 -9999 -9999 -9999 -9999 -9999 -9999 -9999 3686 3898 3990 3939 3749 3496 3413 3384 3438 3348 3269 3175 3087 2961 2950 3076 3098 3147 3040 2943 2879 2890 2970 3036 3081 2965 3060 3081 2969 2975 3146 -9999 -9999 -9999 -9999 -9999 -9999 -9999 -9999
-9999 -9999 -9999 -9999 -9999 -9999 -9999 -9999 -9999 -9999 -9999 -9999 -9999 -9999 -9999 -9999 -9999 -9999 -9999 -9999 -9999 -9999 -9999 -9999 -9999 -9999 -9999 -9999 -9999 -9999 -9999 -9999 -9999 -9999 -9999 -9999 -9999 -9999 -9999 -9999 -9999 -9999 -9999 -9999 -9999 -9999 -9999 -9999 -9999 -9999 -9999 -9999 -9999 3782 3679 3657 3685 3725 3785 3579 3492 3417 3289 3178 3102 3151 3101 2964 3024 3101 3017 3119 3058 3017 2968 2808 2892 2948 3056 2996 3079 3092 3111 3010 2945 3149 -9999 -9999 -9999 -9999 -9999 -9999 -9999
-9999 -9999 -9999 -9999 -9999 -9999 -9999 -9999 -9999 -9999 -9999 -9999 -9999 -9999 -9999 -9999 -9999 -9999 -9999 -9999 -9999 -9999 -9999 -9999 -9999 -9999 -9999 -9999 -9999 -9999 -9999 -9999 -9999 -9999 -9999 -9999 -9999 -9999 -9999 -9999 -9999 -9999 -9999 -9999 -9999 -9999 -9999 -9999 -9999 -9999 -9999 -9999 -9999 3744 3729 3592 3478 3383 3384 3474 3406 3338 3277 3110 3130 3069 3084 2921 2947 2965 2998 2922 2941 2875 2807 2776 2860 2945 2997 2907 2958 3004 3068 2995 2965 3052 3103 3097 -9999 -9999 -9999 -9999 -9999
-9999 -9999 -9999 -9999 -9999 -9999 -9999 -9999 -9999 -9999 -9999 -9999 -9999 -9999 -9999 -9999 -9999 -9999 -9999 -9999 -9999 -9999 -9999 -9999 -9999 -9999 -9999 -9999 -9999 -9999 -9999 -9999 -9999 -9999 -9999 -9999 -9999 -9999 -9999 -9999 -9999 -9999 -9999 -9999 -9999 -9999 -9999 -9999 -9999 3630 3698 3668 3900 3964 3740 3611 3532 3490 3371 3171 3146 3201 3087 2994 3003 3045 2992 2936 2794 3005 3024 2930 2826 2942 2910 2689 2842 2874 3010 2898 3007 3014 3040 3055 2855 2942 3041 3045 -9999 -9999 -9999 -9999 -9999
-9999 -9999 -9999 -9999 -9999 -9999 -9999 -9999 -9999 -9999 -9999 -9999 -9999 -9999 -9999 -9999 -9999 -9999 -9999 -9999 -9999 -9999 -9999 -9999 -9999 -9999 -9999 -9999 -9999 -9999 -9999 -9999 -9999 -9999 -9999 -9999 -9999 -9999 -9999 -9999 -9999 -9999 -9999 -9999 3386 3606 -9999 3501 3646 3674 3517 3539 3774 3779 3834 3638 3485 3429 3370 3259 3087 3035 3070 3012 2913 2942 2978 2946 2749 2943 2995 2957 2796 2844 2817 2644 2900 2856 2999 2942 2972 2975 3016 3015 2847 2867 3063 3034 3127 3068 -9999 -9999 -9999
-9999 -9999 -9999 -9999 -9999 -9999 -9999 -9999 -9999 -9999 -9999 -9999 -9999 -9999 -9999 -9999 -9999 -9999 -9999 -9999 -9999 -9999 -9999 -9999 -9999 -9999 -9999 -9999 -9999 -9999 -9999 -9999 -9999 -9999 -9999 -9999 -9999 -9999 -9999 -9999 -9999 -9999 -9999 -9999 3507 3371 3591 3572 3453 3525 3629 3402 3384 3474 3641 3548 3452 3406 3294 3244 3157 3116 3031 2934 2839 2797 2813 2881 2754 2826 2837 2919 2794 2652 2714 2694 2913 2855 2994 2982 2917 2994 2814 2894 2993 2910 3018 3036 3079 3069 -9999 -9999 -9999
-9999 -9999 -9999 -9999 -9999 -9999 -9999 -9999 -9999 -9999 -9999 -9999 -9999 -9999 -9999 -9999 -9999 -9999 -9999 -9999 -9999 -9999 -9999 -9999 -9999 -9999 -9999 -9999 -9999 -9999 -9999 -9999 -9999 -9999 -9999 -9999 -9999 -9999 -9999 -9999 -9999 -9999 -9999 3291 3271 3131 3157 3276 3300 3357 3328 3449 3237 3238 3329 3506 3313 3204 3048 2983 2962 2924 2878 2898 2833 2737 2762 2830 2716 2770 2874 2876 2876 2684 2572 2745 2866 2890 2928 2936 2801 2987 2786 2934 2984 3078 3027 2969 3044 3011 3103 3152 -9999
-9999 -9999 -9999 -9999 -9999 -9999 -9999 -9999 -9999 -9999 -9999 -9999 -9999 -9999 -9999 -9999 -9999 -9999 -9999 -9999 -9999 -9999 -9999 -9999 -9999 -9999 -9999 -9999 -9999 -9999 -9999 -9999 -9999 -9999 -9999 -9999 -9999 -9999 -9999 -9999 -9999 -9999 -9999 3181 3059 2965 2933 2956 3105 3250 3137 3306 3270 3206 3155 3209 3181 3043 2898 2862 2836 2869 2780 2780 2747 2729 2792 2814 2739 2693 2789 2786 2663 2596 2719 2852 2761 2848 2967 2954 2773 2911 2739 2860 3064 3021 3026 2925 3068 3077 3047 3153 -9999
-9999 -9999 -9999 -9999 -9999 -9999 -9999 -9999 -9999 -9999 -9999 -9999 -9999 -9999 -9999 -9999 -9999 -9999 -9999 -9999 -9999 -9999 -9999 -9999 -9999 -9999 -9999 -9999 -9999 -9999 -9999 -9999 -9999 -9999 -9999 -9999 -9999 -9999 -9999 -9999 -9999 -9999 3304 3200 3071 3025 2937 2897 3130 3231 3061 3188 3095 3149 3059 3026 2993 2954 2837 2813 2784 2800 2722 2723 2664 2740 2747 2797 2767 2573 2693 2758 2553 2660 2711 2882 2752 2847 2934 2960 2874 2804 2792 2972 3061 3015 3032 2911 3041 3088 3035 3134 -9999
-9999 -9999 -9999 -9999 -9999 -9999 -9999 -9999 -9999 -9999 -9999 -9999 -9999 -9999 -9999 -9999 -9999 -9999 -9999 -9999 -9999 -9999 -9999 -9999 -9999 -9999 -9999 -9999 -9999 -9999 -9999 -9999 -9999 -9999 -9999 -9999 -9999 -9999 -9999 -9999 -9999 3354 3352 3234 3185 3192 2991 2794 2896 2988 2949 2891 2896 3030 3075 2857 2734 2791 2768 2706 2724 2703 2670 2636 2630 2722 2744 2763 2783 2609 2509 2659 2544 2778 2754 2687 2857 2903 2941 2896 2809 2702 2792 2925 3039 2954 2878 2968 3069 3099 3012 -9999 -9999
-9999 -9999 -9999 -9999 -9999 -9999 -9999 -9999 -9999 -9999 -9999 -9999 -9999 -9999 -9999 -9999 -9999 -9999 -9999 -9999 -9999 -9999 -9999 -9999 -9999 -9999 -9999 -9999 -9999 -9999 -9999 -9999 -9999 -9999 -9999 -9999 -9999 -9999 -9999 -9999 3663 3460 3455 3424 3384 3123 2925 2771 2909 2907 3125 2876 2775 2871 2883 2761 2673 2632 2661 2659 2672 2646 2646 2692 2659 2621 2707 2766 2636 2625 2505 2634 2533 2690 2637 2824 2874 2828 2931 2870 2676 2822 2815 2794 2964 2980 2916 2992 3031 3036 3013 3066 -9999
-9999 -9999 -9999 -9999 -9999 -9999 -9999 -9999 -9999 -9999 -9999 -9999 -9999 -9999 -9999 -9999 -9999 -9999 -9999 -9999 -9999 -9999 -9999 -9999 -9999 -9999 -9999 -9999 -9999 -9999 -9999 -9999 -9999 -9999 -9999 -9999 -9999 -9999 -9999 -9999 3580 3572 3602 3267 3074 2874 2897 2841 2777 2794 2823 2828 2741 2656 2668 2589 2592 2568 2642 2553 2582 2619 2614 2584 2565 2719 2710 2655 2595 2460 2423 2510 2575 2689 2773 2810 2877 2853 2813 2835 2612 2676 2762 2809 2856 2928 2930 2885 2989 2932 3020 3092 -9999
-9999 -9999 -9999 -9999 -9999 -9999 -9999 -9999 -9999 -9999 -9999 -9999 -9999 -9999 -9999 -9999 -9999 -9999 -9999 -9999 -9999 -9999 -9999 -9999 -9999 -9999 -9999 -9999 -9999 -9999 -9999 -9999 -9999 -9999 -9999 -9999 -9999 -9999 -9999 -9999 3693 3587 3494 3143 3028 2875 2900 2875 2757 2726 2676 2729 2628 2624 2698 2629 2549 2538 2551 2537 2582 2584 2633 2619 2498 2686 2665 2591 2556 2471 2551 2648 2640 2737 2799 2808 2785 2869 2661 2746 2591 2704 2738 2880 2823 2755 2852 2935 2828 3041 3095 3069 3082
-9999 -9999 -9999 -9999 -9999 -9999 -9999 -9999 -9999 -9999 -9999 -9999 -9999 -9999 -9999 -9999 -9999 -9999 -9999 -9999 -9999 -9999 -9999 -9999 -9999 -9999 -9999 -9999 -9999 -9999 -9999 -9999 -9999 -9999 -9999 -9999 -9999 -9999 -9999 3629 3649 3434 3232 3018 3036 2920 2798 2761 2694 2676 2625 2595 2614 2640 2618 2668 2522 2484 2472 2495 2547 2588 2613 2452 2598 2588 2544 2547 2476 2620 2657 2562 2695 2769 2714 2744 2839 2848 2818 2708 2655 2822 2913 2922 2709 2771 2785 2871 3006 2982 3026 3045 -9999
-9999 -9999 -9999 -9999 -9999 -9999 -9999 -9999 -9999 -9999 -9999 -9999 -9999 -9999 -9999 -9999 -9999 -9999 -9999 -9999 -9999 -9999 -9999 -9999 -9999 -9999 -9999 -9999 -9999 -9999 -9999 -9999 -9999 -9999 -9999 -9999 -9999 3549 3542 3381 3310 3168 3095 2976 2904 2822 2738 2706 2649 2642 2577 2542 2524 2529 2485 2516 2568 2526 2429 2461 2563 2581 2548 2493 2459 2473 2543 2506 2488 2588 2559 2544 2679 2636 2725 2819 2791 2736 2563 2541 2727 2805 2659 2707 2663 2817 2921 2944 3004 3050 2997 3063 -9999
-9999 -9999 -9999 -9999 -9999 -9999 -9999 -9999 -9999 -9999 -9999 -9999 -9999 -9999 -9999 -9999 -9999 -9999 -9999 -9999 -9999 -9999 -9999 -9999 -9999 -9999 -9999 -9999 -9999 -9999 -9999 -9999 -9999 -9999 -9999 -9999 3617 3563 3452 3139 3043 2920 2979 2877 2819 2760 2758 2641 2606 2594 2544 2516 2463 2456 2470 2452 2426 2413 2396 2407 2412 2426 2417 2445 2342 2494 2524 2382 2492 2523 2583 2667 2606 2729 2738 2713 2810 2741 2534 2641 2905 2768 2690 2768 2899 2944 2978 3040 3070 2969 3018 3063 -9999
-9999 -9999 -9999 -9999 -9999 -9999 -9999 -9999 -9999 -9999 -9999 -9999 -9999 -9999 -9999 -9999 -9999 -9999 -9999 -9999 -9999 -9999 -9999 -9999 -9999 -9999 -9999 -9999 -9999 -9999 -9999 -9999 -9999 -9999 -9999 3574 3428 3438 3101 3098 2924 2737 2769 2783 2843 2713 2660 2705 2637 2592 2568 2518 2445 2451 2401 2401 2406 2408 2386 2378 2363 2355 2399 2442 2436 2306 2437 2399 2520 2569 2603 2605 2631 2689 2713 2746 2795 2559 2710 2808 2707 2663 2956 2885 2973 2984 3052 3058 2972 3010 3096 3105 3096
-9999 -9999 -9999 -9999 -9999 -9999 -9999 -9999 -9999 -9999 -9999 -9999 -9999 -9999 -9999 -9999 -9999 -9999 -9999 -9999 -9999 -9999 -9999 -9999 -9999 -9999 -9999 -9999 -9999 -9999 -9999 -9999 -9999 3385 3571 3383 3276 3264 3061 2903 2828 2708 2637 2723 2782 2703 2592 2720 2606 2585 2585 2552 2468 2437 2387 2360 2403 2381 2352 2355 2350 2352 2396 2442 2476 2399 2267 2513 2558 2601 2626 2516 2668 2664 2715 2735 2782 2490 2803 2864 2662 2773 2730 2767 2887 2983 2970 3059 2980 2975 3070 3046 3079
-9999 -9999 -9999 -9999 -9999 -9999 -9999 -9999 -9999 -9999 -9999 -9999 -9999 -9999 -9999 -9999 -9999 -9999 -9999 -9999 -9999 -9999 -9999 -9999 -9999 -9999 -9999 -9999 -9999 -9999 -9999 -9999 -9999 3570 3271 3146 2991 2966 2816 2695 2585 2607 2479 2668 2630 2667 2501 2665 2624 2636 2521 2584 2552 2518 2402 2348 2325 2334 2309 2378 2339 2366 2399 2448 2484 2289 2321 2497 2558 2603 2582 2624 2610 2696 2727 2612 2576 2519 2789 2779 2540 2596 2678 2742 2864 2799 2795 2841 2811 2876 3018 3063 -9999
-9999 -9999 -9999 -9999 -9999 -9999 -9999 -9999 -9999 -9999 -9999 -9999 -9999 -9999 -9999 -9999 -9999 -9999 -9999 -9999 -9999 -9999 -9999 -9999 -9999 -9999 -9999 -9999 -9999 -9999 -9999 3637 3515 3334 3194 2983 2825 2698 2530 2598 2541 2426 2396 2412 2481 2661 2557 2547 2562 2635 2538 2509 2533 2479 2453 2339 2323 2302 2298 2338 2356 2385 2443 2479 2409 2351 2223 2524 2589 2584 2419 2624 2435 2507 2453 2458 2616 2736 2504 2564 2773 2798 2943 2962 2963 2721 2887 2983 3015 3061 2999 -9999 -9999
-9999 -9999 -9999 -9999 -9999 -9999 -9999 -9999 -9999 -9999 -9999 -9999 -9999 -9999 -9999 -9999 -9999 -9999 -9999 -9999 -9999 -9999 -9999 -9999 -9999 -9999 -9999 3696 3599 3680 3687 3643 3505 3176 2916 2684 2593 2553 2481 2374 2429 2387 2306 2365 2354 2578 2544 2398 2402 2507 2417 2521 2459 2428 2369 2326 2306 2305 2293 2318 2385 2408 2432 2479 2404 2193 2352 2522 2448 2449 2361 2302 2438 2535 2525 2476 2500 2496 2559 2571 2758 2860 2758 2717 2723 2852 3013 3029 3081 3089 -9999 -9999 -9999
-9999 -9999 -9999 -9999 -9999 -9999 -9999 -9999 -9999 -9999 -9999 -9999 -9999 -9999 -9999 -9999 -9999 -9999 -9999 -9999 -9999 -9999 -9999 -9999 -9999 -9999 3731 3626 3546 3535 3482 3435 3441 3277 3029 2696 2600 2469 2469 2369 2329 2397 2260 2310 2404 2470 2543 2466 2302 2401 2321 2393 2403 2431 2376 2305 2282 2292 2297 2301 2371 2410 2449 2457 2366 2202 2302 2350 2281 2309 2269 2488 2664 2678 2635 2558 2519 2694 2560 2534 2644 2677 2680 2646 2861 2836 2989 3050 3079 3085 3104 -9999 -9999
-9999 -9999 -9999 -9999 -9999 -9999 -9999 -9999 -9999 -9999 -9999 -9999 -9999 -9999 -9999 -9999 -9999 -9999 -9999 -9999 -9999 -9999 -9999 -9999 -9999 -9999 3748 3705 3521 3461 3383 3309 3152 2918 2838 2679 2602 2461 2339 2295 2341 2233 2214 2220 2304 2319 2369 2346 2185 2198 2344 2308 2268 2339 2368 2323 2280 2260 2303 2343 2394 2403 2444 2418 2234 2212 2280 2385 2506 2661 2673 2579 2696 2740 2760 2786 2722 2796 2876 2754 2764 2702 2825 2895 2927 3024 3034 3009 3053 3021 3052 3099 -9999
-9999 -9999 -9999 -9999 -9999 -9999 -9999 -9999 -9999 -9999 -9999 -9999 -9999 -9999 -9999 -9999 -9999 -9999 -9999 -9999 -9999 -9999 -9999 -9999 -9999 3649 3563 3520 3432 3338 3160 3138 2989 2775 2574 2600 2622 2510 2434 2312 2227 2184 2192 2098 2149 2220 2151 2155 2088 2138 2195 2192 2219 2267 2251 2264 2215 2246 2303 2350 2412 2402 2359 2235 2370 2557 2512 2429 2601 2682 2715 2682 2721 2749 2764 2799 2826 2865 2863 2895 2923 2943 2922 2931 3018 3041 2964 3015 3071 3072 3083 3108 -9999
-9999 -9999 -9999 -9999 -9999 -9999 -9999 -9999 -9999 -9999 -9999 -9999 -9999 -9999 -9999 -9999 -9999 -9999 -9999 -9999 -9999 -9999 -9999 -9999 -9999 -9999 3615 3563 3551 3366 3128 2970 2878 2621 2503 2397 2370 2425 2350 2336 2307 2253 2174 2035 2032 2050 2058 2012 2034 2138 2152 2136 2209 2200 2184 2190 2243 2252 2314 2365 2414 2437 2352 2149 2441 2592 2619 2654 2697 2696 2725 2732 2707 2771 2764 2814 2858 2822 2901 2915 2943 2950 3008 2985 2931 2952 3037 3035 3072 3103 3081 -9999 -9999
-9999 -9999 -9999 -9999 -9999 -9999 -9999 -9999 -9999 -9999 -9999 -9999 -9999 -9999 -9999 -9999 -9999 -9999 -9999 -9999 -9999 -9999 -9999 -9999 -9999 3641 3553 3493 3451 3294 3048 3039 2951 2653 2481 2375 2338 2294 2370 2280 2300 2240 2174 2021 1969 1994 2027 1982 2031 2112 2107 2156 2170 2168 2144 2207 2259 2287 2317 2373 2421 2431 2371 2207 2534 2531 2612 2639 2681 2699 2738 2696 2765 2766 2776 2846 2872 2815 2892 2930 2968 2996 2939 2900 2988 3015 3023 3025 3097 3143 3115 -9999 -9999
-9999 -9999 -9999 -9999 -9999 -9999 -9999 -9999 -9999 -9999 -9999 -9999 -9999 -9999 -9999 -9999 -9999 -9999 -9999 -9999 -9999 -9999 -9999 -9999 -9999 3588 3480 3418 3306 3229 3242 3117 2848 2695 2623 2434 2344 2239 2193 2274 2213 2213 2167 2128 2067 1907 1907 1960 2029 2073 2083 2125 2110 2145 2173 2235 2291 2298 2313 2386 2420 2435 2248 2228 2558 2583 2616 2665 2722 2679 2633 2719 2768 2794 2780 2780 2746 2796 2901 2885 2864 2852 2948 3016 3014 3046 3095 3107 3084 3112 -9999 -9999 -9999
-9999 -9999 -9999 -9999 -9999 -9999 -9999 -9999 -9999 -9999 -9999 -9999 -9999 -9999 -9999 -9999 -9999 -9999 -9999 -9999 -9999 -9999 -9999 -9999 -9999 3613 3481 3416 3533 3409 3280 3189 2911 2759 2703 2473 2439 2339 2207 2099 2139 2178 2075 2052 2067 1913 1949 2007 2049 2065 2115 2058 2107 2084 2213 2264 2304 2325 2161 2403 2337 2167 2419 2550 2381 2464 2567 2620 2619 2758 2758 2778 2746 2692 2708 2786 2863 2807 2770 2815 2949 3007 3025 3034 3051 3014 3009 3045 3110 3150 -9999 -9999 -9999
-9999 -9999 -9999 -9999 -9999 -9999 -9999 -9999 -9999 -9999 -9999 -9999 -9999 -9999 -9999 -9999 -9999 -9999 -9999 -9999 -9999 -9999 -9999 -9999 -9999 3630 3544 3486 3563 3309 3008 2886 2740 2683 2607 2450 2365 2294 2281 2215 2116 1996 1967 2009 2020 1940 1878 2040 2080 2101 2108 2037 2022 2102 2205 2280 2329 2350 2210 2043 2047 2229 2535 2596 2627 2662 2656 2698 2744 2782 2777 2806 2795 2833 2855 2835 2792 2963 2924 2918 2866 2907 2892 2917 2963 3054 3035 3007 3080 3146 3152 -9999 -9999
-9999 -9999 -9999 -9999 -9999 -9999 -9999 -9999 -9999 -9999 -9999 -9999 -9999 -9999 -9999 -9999 -9999 -9999 -9999 -9999 3589 3627 3634 3612 3420 3419 3273 3161 3292 3236 3019 2976 2749 2562 2461 2364 2321 2263 2208 2171 2149 2139 2060 1961 1857 1782 1983 2030 2066 2089 1913 1902 1987 1989 2215 2228 2278 2180 1895 2384 2472 2501 2562 2622 2598 2646 2625 2678 2736 2782 2796 2853 2834 2889 2913 2941 2954 2916 2871 2953 2963 2911 3058 3073 3110 3131 3085 3104 3121 3064 3151 -9999 -9999
-9999 -9999 -9999 -9999 -9999 -9999 -9999 -9999 -9999 -9999 -9999 -9999 -9999 -9999 -9999 -9999 -9999 3677 3594 3509 3582 3440 3454 3417 3326 3328 3012 2968 3100 3022 2814 2803 2853 2590 2423 2339 2301 2239 2234 2151 2166 2161 2104 1982 1934 1733 1976 2054 2092 2108 1945 1796 1798 1743 1970 2036 1979 1867 2113 2284 2509 2529 2550 2521 2647 2704 2667 2689 2760 2804 2814 2822 2877 2911 2934 2944 2938 2970 2906 2889 3045 3061 2970 2996 3029 3075 3138 3127 3146 3082 3165 -9999 -9999
-9999 -9999 -9999 -9999 -9999 -9999 -9999 -9999 -9999 -9999 -9999 -9999 3273 3510 3407 3467 3620 3681 3628 3510 3410 3325 3101 3033 2906 3028 2840 2666 2763 2614 2497 2513 2560 2491 2430 2302 2239 2270 2196 2133 2112 2070 2123 2009 1888 1799 2041 2057 2045 2056 1803 1936 1987 1995 2029 1881 1946 2180 2399 2496 2521 2536 2549 2641 2688 2717 2728 2753 2719 2725 2777 2778 2809 2848 2858 2947 2969 3009 3060 3059 3037 3052 -9999 -9999 3138 3184 3175 3194 3133 3119 3167 -9999 -9999
-9999 -9999 -9999 -9999 -9999 -9999 -9999 -9999 -9999 3235 3411 3312 3272 3065 3032 3270 3303 3487 3538 3400 3194 3067 2869 2785 2656 2535 2568 2538 2415 2377 2379 2398 2452 2474 2358 2259 2224 2227 2101 2114 2107 2045 2078 1963 1816 1592 1791 1771 1631 1656 1915 2199 2312 2321 2219 2391 2370 2441 2466 2533 2560 2585 2591 2576 2669 2638 2716 2736 2774 2824 2836 2887 2893 2922 2958 2950 2949 2994 3014 3044 -9999 -9999 -9999 -9999 -9999 -9999 3204 3213 3189 3173 3189 -9999 -9999
-9999 -9999 -9999 -9999 -9999 -9999 -9999 -9999 3257 3099 2983 2889 2868 2721 2701 3015 2932 3198 3171 3030 3142 2994 2905 2791 2744 2619 2299 2268 2214 2202 2307 2263 2323 2265 2308 2312 2250 2134 2167 2045 2035 2018 2024 1952 1814 1658 1621 1871 2131 2109 2237 2295 2337 2372 2442 2385 2382 2435 2512 2543 2589 2573 2646 2682 2694 2739 2750 2715 2823 2820 2832 2898 2915 2915 2953 2997 2996 -9999 -9999 -9999 -9999 -9999 -9999 -9999 -9999 -9999 -9999 3225 3214 3222 -9999 -9999 -9999
-9999 -9999 -9999 -9999 3253 3288 3308 3239 3186 3080 2920 2744 2755 2571 2572 2765 2785 3013 2941 2917 2930 2796 2704 2673 2525 2567 2336 2233 2153 2180 2207 2235 2256 2239 2301 2191 2226 2156 2074 2092 2033 1987 2052 1926 1737 1571 1722 2089 2210 2259 2281 2335 2363 2387 2433 2412 2447 2455 2541 2567 2601 2616 2635 2692 2733 2761 2764 2780 2748 2861 2881 2882 2921 2921 2953 -9999 -9999 -9999 -9999 -9999 -9999 -9999 -9999 -9999 -9999 -9999 -9999 -9999 3213 3241 -9999 -9999 -9999
-9999 -9999 2766 2969 2914 2935 3035 3170 3039 2797 2668 2530 2391 2427 2358 2417 2550 2614 2547 2655 2504 2492 2459 2433 2273 2182 2144 2045 2038 2167 2171 2187 2224 2150 2169 2192 2184 2112 2027 2033 2080 1941 1974 1751 1602 1516 1855 2071 2243 2313 2383 2412 2425 2370 2393 2424 2446 2487 2459 2558 2606 2618 2668 2710 2732 2768 2788 2803 2842 2861 2881 2889 2924 -9999 -9999 -9999 -9999 -9999 -9999 -9999 -9999 -9999 -9999 -9999 -9999 -9999 -9999 -9999 -9999 3233 -9999 -9999 -9999
-9999 -9999 2849 2620 2566 2580 2799 2840 2990 3001 2949 2829 2607 2279 2129 2232 2292 2251 2369 2262 2183 2187 2337 2320 2088 2166 1966 1937 1997 2115 2130 2141 2162 2203 2120 2111 2172 2054 2007 1962 1959 1912 1692 1557 1425 1725 2012 2243 2318 2299 2282 2241 2283 2302 2351 2390 2380 2382 2518 2597 2614 2618 2674 2717 2724 2774 2770 2824 2872 2896 -9999 -9999 -9999 -9999 -9999 -9999 -9999 -9999 -9999 -9999 -9999 -9999 -9999 -9999 -9999 -9999 -9999 -9999 -9999 -9999 -9999 -9999 -9999
-9999 -9999 2880 2644 2499 2380 2631 2523 2650 2721 2597 2515 2527 2343 2199 1929 1972 2117 2041 2148 2034 2071 2144 2195 2018 2017 1886 1846 1915 2026 2019 2054 2076 2184 2051 2040 2064 2099 2073 2081 2095 1960 1593 1403 1549 1839 1994 2196 2165 2150 2278 2290 2374 2405 2449 2408 2495 2425 2408 2526 2498 2535 2598 2669 2750 2797 2823 2860 2869 -9999 -9999 -9999 -9999 -9999 -9999 -9999 -9999 -9999 -9999 -9999 -9999 -9999 -9999 -9999 -9999 -9999 -9999 -9999 -9999 -9999 -9999 -9999 -9999
-9999 2932 2847 2549 2367 2369 2466 2398 2470 2560 2578 2274 2283 2197 2109 1883 1992 1962 1975 2086 2021 2072 2017 2070 1936 1959 1847 1820 1914 1973 2004 2003 2074 2115 2076 2003 2052 2077 2071 2103 2118 1975 1560 1490 1727 1984 2039 2062 2021 2185 2318 2324 2392 2380 2449 2476 2495 2503 2425 2454 2452 2493 2521 2639 2769 2810 2842 -9999 -9999 -9999 -9999 -9999 -9999 -9999 -9999 -9999 -9999 -9999 -9999 -9999 -9999 -9999 -9999 -9999 -9999 -9999 -9999 -9999 -9999 -9999 -9999 -9999 -9999
-9999 2994 2717 2561 2248 2156 2150 2091 2296 2172 2080 2124 1903 1998 1907 1774 1875 1787 1860 1820 1843 1891 1891 1915 1906 1904 1753 1783 1909 1911 1951 1986 2095 2003 2067 2029 2049 2050 2062 2111 2114 1976 1645 1365 1519 1780 1827 2211 2260 2150 2393 2431 2400 2480 2496 2518 2544 2591 2522 2574 2557 2512 2583 2547 2666 2729 2809 -9999 -9999 -9999 -9999 -9999 -9999 -9999 -9999 -9999 -9999 -9999 -9999 -9999 -9999 -9999 -9999 -9999 -9999 -9999 -9999 -9999 -9999 -9999 -9999 -9999 -9999
3145 3049 2778 2586 2309 2161 2013 1928 1960 1940 1852 1853 1825 1784 1832 1727 1841 1702 1839 1744 1742 1825 1817 1751 1764 1833 1683 1735 1845 1925 2023 2016 2062 1991 2052 2001 1988 2027 2055 2098 2023 1819 1774 1381 1466 1699 1877 2177 2370 2382 2419 2452 2497 2523 2541 2549 2552 2582 2601 2592 2647 2571 2670 2637 2611 2710 2783 -9999 -9999 -9999 -9999 -9999 -9999 -9999 -9999 -9999 -9999 -9999 -9999 -9999 -9999 -9999 -9999 -9999 -9999 -9999 -9999 -9999 -9999 -9999 -9999 -9999 -9999
3351 3172 2866 2579 2594 2598 2402 2256 2059 1870 1776 1700 1674 1640 1690 1707 1659 1756 1701 1643 1716 1742 1748 1665 1771 1678 1767 1896 1867 2006 1964 2052 2045 1969 1974 1785 1928 1923 1889 1678 1805 1792 1470 1385 1482 1805 1922 2244 2362 2423 2466 2499 2525 2540 2537 2536 2549 2585 2602 2607 2678 2671 2697 2633 2735 -9999 -9999 -9999 -9999 -9999 -9999 -9999 -9999 -9999 -9999 -9999 -9999 -9999 -9999 -9999 -9999 -9999 -9999 -9999 -9999 -9999 -9999 -9999 -9999 -9999 -9999 -9999 -9999
3345 3196 3067 3013 2823 2665 2338 2172 2094 2091 1971 1863 1712 1648 1567 1610 1527 1636 1586 1657 1709 1648 1745 1594 1776 1564 1716 1759 1930 1925 1815 1928 2001 2007 1795 1577 1738 1690 1555 1563 1441 1382 1381 1540 1651 1957 2066 2192 2369 2350 2412 2512 2541 2531 2555 2560 2534 2558 2616 2621 2701 2731 2709 2737 2756 -9999 -9999 -9999 -9999 -9999 -9999 -9999 -9999 -9999 -9999 -9999 -9999 -9999 -9999 -9999 -9999 -9999 -9999 -9999 -9999 -9999 -9999 -9999 -9999 -9999 -9999 -9999 -9999
-9999 3363 3155 2901 2708 2583 2414 2393 2219 2188 2067 1858 1802 1631 1567 1529 1500 1570 1557 1581 1710 1643 1764 1636 1755 1578 1684 1776 1877 1813 1678 1824 1888 1987 1888 1467 1522 1620 1449 1433 1412 1309 1454 1670 1771 1974 2195 2373 2437 2426 2464 2405 2529 2420 2576 2624 2575 2579 2585 2658 2722 2756 2741 2729 2793 2836 -9999 -9999 -9999 -9999 -9999 -9999 -9999 -9999 -9999 -9999 -9999 -9999 -9999 -9999 -9999 -9999 -9999 -9999 -9999 -9999 -9999 -9999 -9999 -9999 -9999 -9999 -9999
-9999 3333 3251 3132 2913 2903 2765 2607 2439 2348 2299 2139 1825 1695 1607 1664 1586 1433 1450 1527 1595 1591 1711 1650 1635 1508 1711 1800 1575 1540 1485 1608 1594 1677 1674 1487 1322 1359 1345 1336 1280 1399 1559 1899 1946 2010 2160 2399 2413 2332 2320 2084 2084 2156 2403 2543 2633 2649 2685 2697 2720 2770 2775 2726 2734 2817 -9999 -9999 -9999 -9999 -9999 -9999 -9999 -9999 -9999 -9999 -9999 -9999 -9999 -9999 -9999 -9999 -9999 -9999 -9999 -9999 -9999 -9999 -9999 -9999 -9999 -9999 -9999
3466 3331 3173 3285 3102 2995 2852 2791 2728 2476 2349 2146 1894 1767 1693 1632 1628 1575 1513 1424 1452 1447 1558 1523 1467 1577 1611 1738 1538 1456 1391 1414 1637 1601 1359 1267 1253 1293 1333 1384 1483 1669 1697 1762 1823 1926 1982 2176 2071 2088 2032 1988 2248 2457 2477 2504 2578 2623 2696 2712 2747 2777 2774 2794 2769 -9999 -9999 -9999 -9999 -9999 -9999 -9999 -9999 -9999 -9999 -9999 -9999 -9999 -9999 -9999 -9999 -9999 -9999 -9999 -9999 -9999 -9999 -9999 -9999 -9999 -9999 -9999 -9999
-9999 3018 2808 2807 2800 2761 2527 2469 2401 2316 2292 2128 1975 1787 1688 1583 1521 1446 1434 1343 1464 1377 1399 1356 1488 1563 1441 1479 1515 1326 1464 1472 1338 1338 1241 1319 1395 1572 1690 1637 1561 1371 1557 1783 1841 1990 1839 1797 1722 1692 2037 2205 2453 2505 2529 2511 2681 2690 2753 2757 2834 2867 2832 2791 2814 -9999 -9999 -9999 -9999 -9999 -9999 -9999 -9999 -9999 -9999 -9999 -9999 -9999 -9999 -9999 -9999 -9999 -9999 -9999 -9999 -9999 -9999 -9999 -9999 -9999 -9999 -9999 -9999
-9999 -9999 2682 2669 2585 2660 2433 2334 2195 2239 2077 2126 1985 1770 1682 1654 1596 1524 1484 1400 1407 1358 1351 1442 1574 1551 1428 1526 1396 1330 1351 1266 1227 1232 1369 1341 1429 1595 1871 1842 1698 1552 1442 1605 1792 1818 1669 1622 1725 1722 1974 2189 2336 2244 2384 2467 2613 2689 2697 2779 2860 2870 2873 2834 2835 -9999 -9999 -9999 -9999 -9999 -9999 -9999 -9999 -9999 -9999 -9999 -9999 -9999 -9999 -9999 -9999 -9999 -9999 -9999 -9999 -9999 -9999 -9999 -9999 -9999 -9999 -9999 -9999
-9999 -9999 -9999 2318 2229 2305 2295 2149 2042 1990 1988 1800 1725 1658 1655 1680 1593 1530 1478 1454 1329 1281 1490 1512 1495 1332 1390 1410 1239 1216 1254 1273 1423 1478 1461 1336 1401 1548 1802 1931 2015 1875 1742 1580 1667 1560 1826 2015 2109 2094 1981 1965 2308 2319 2588 2645 2551 2556 2707 2693 2792 2824 -9999 -9999 2881 -9999 -9999 -9999 -9999 -9999 -9999 -9999 -9999 -9999 -9999 -9999 -9999 -9999 -9999 -9999 -9999 -9999 -9999 -9999 -9999 -9999 -9999 -9999 -9999 -9999 -9999 -9999 -9999
-9999 -9999 -9999 -9999 2105 2039 2171 1922 2037 1842 1729 1664 1583 1536 1530 1550 1519 1554 1591 1565 1532 1243 1356 1220 1210 1282 1344 1328 1398 1387 1510 1488 1423 1586 1639 1537 1528 1406 1517 1779 1884 2149 2042 1946 2003 1753 1710 2023 2279 2324 2330 2265 2367 2378 2403 2668 2659 2708 -9999 -9999 -9999 -9999 -9999 -9999 -9999 -9999 -9999 -9999 -9999 -9999 -9999 -9999 -9999 -9999 -9999 -9999 -9999 -9999 -9999 -9999 -9999 -9999 -9999 -9999 -9999 -9999 -9999 -9999 -9999 -9999 -9999 -9999 -9999
-9999 -9999 -9999 -9999 -9999 1948 1823 1844 1815 1666 1664 1656 1599 1548 1496 1432 1427 1530 1492 1537 1298 1293 1230 1208 1520 1526 1300 1280 1443 1614 1673 1669 1667 1559 1801 1846 1772 1609 1531 1576 1660 1885 1957 2117 2169 2048 1820 1732 1881 1885 1927 2035 2124 2266 2402 2474 2719 2738 -9999 -9999 -9999 -9999 -9999 -9999 -9999 -9999 -9999 -9999 -9999 -9999 -9999 -9999 -9999 -9999 -9999 -9999 -9999 -9999 -9999 -9999 -9999 -9999 -9999 -9999 -9999 -9999 -9999 -9999 -9999 -9999 -9999 -9999 -9999
-9999 -9999 -9999 -9999 -9999 -9999 1794 1742 1729 1677 1610 1672 1619 1481 1499 1376 1420 1480 1453 1434 1229 1218 1191 1428 1606 1606 1465 1325 1338 1438 1567 1710 1746 1569 1755 1993 1865 1783 1593 1550 1547 1707 1810 1907 2022 2209 2027 1892 1807 1962 2006 2021 2164 2283 2465 2679 -9999 -9999 -9999 -9999 -9999 -9999 -9999 -9999 -9999 -9999 -9999 -9999 -9999 -9999 -9999 -9999 -9999 -9999 -9999 -9999 -9999 -9999 -9999 -9999 -9999 -9999 -9999 -9999 -9999 -9999 -9999 -9999 -9999 -9999 -9999 -9999 -9999
-9999 -9999 -9999 -9999 -9999 -9999 1789 1750 1573 1571 1499 1478 1555 1516 1429 1311 1450 1413 1374 1159 1352 1515 1531 1550 1618 1676 1581 1671 1504 1393 1497 1663 1752 1833 1778 1942 2096 1930 1774 1777 1704 1741 1664 1840 1942 2105 2126 2087 1870 2038 2312 2422 2281 2330 2299 2666 -9999 -9999 -9999 -9999 -9999 -9999 -9999 -9999 -9999 -9999 -9999 -9999 -9999 -9999 -9999 -9999 -9999 -9999 -9999 -9999 -9999 -9999 -9999 -9999 -9999 -9999 -9999 -9999 -9999 -9999 -9999 -9999 -9999 -9999 -9999 -9999 -9999
-9999 -9999 -9999 -9999 -9999 -9999 1668 1702 1582 1581 1516 1387 1384 1392 1418 1376 1364 1151 1174 1265 1352 1388 1474 1415 1613 1741 1795 1719 1521 1456 1492 1458 1758 1919 1924 2013 2106 2135 2049 2066 1955 1963 1861 1777 1772 1991 2262 2308 2057 2062 2064 2311 2598 2673 2394 2568 -9999 -9999 -9999 -9999 -9999 -9999 -9999 -9999 -9999 -9999 -9999 -9999 -9999 -9999 -9999 -9999 -9999 -9999 -9999 -9999 -9999 -9999 -9999 -9999 -9999 -9999 -9999 -9999 -9999 -9999 -9999 -9999 -9999 -9999 -9999 -9999 -9999
-9999 -9999 -9999 -9999 -9999 -9999 1535 1608 1520 1613 1543 1438 1362 1284 1280 1191 1178 1142 1246 1455 1457 1521 1631 1722 1565 1699 1770 1784 1564 1441 1676 1823 1798 1692 1792 2021 2045 2075 2311 2360 2374 2103 2048 2037 1892 1906 2107 2319 2410 2378 2202 2290 2404 2552 2619 2730 -9999 -9999 -9999 -9999 -9999 -9999 -9999 -9999 -9999 -9999 -9999 -9999 -9999 -9999 -9999 -9999 -9999 -9999 -9999 -9999 -9999 -9999 -9999 -9999 -9999 -9999 -9999 -9999 -9999 -9999 -9999 -9999 -9999 -9999 -9999 -9999 -9999
-9999 -9999 -9999 -9999 -9999 -9999 1482 1483 1446 1601 1660 1505 1406 1400 1328 1229 1137 1239 1378 1503 1555 1518 1675 1794 1740 1645 1816 1727 1511 1469 1571 1630 1726 1874 1979 2015 2089 2080 2225 2527 2405 2302 2204 2083 1937 2000 2009 2251 -9999 -9999 2309 2251 2473 2599 2663 2705 -9999 -9999 -9999 -9999 -9999 -9999 -9999 -9999 -9999 -9999 -9999 -9999 -9999 -9999 -9999 -9999 -9999 -9999 -9999 -9999 -9999 -9999 -9999 -9999 -9999 -9999 -9999 -9999 -9999 -9999 -9999 -9999 -9999 -9999 -9999 -9999 -9999
-9999 -9999 -9999 -9999 -9999 -9999 1483 1354 1373 1416 1427 1508 1471 1309 1199 1129 1259 1314 1303 1212 1386 1553 1568 1617 1576 1772 1843 1931 1678 1458 1738 1794 1956 1999 2020 2217 2247 2263 2354 2287 2357 2542 2326 2190 2227 2351 -9999 2206 -9999 -9999 -9999 -9999 -9999 -9999 -9999 -9999 -9999 -9999 -9999 -9999 -9999 -9999 -9999 -9999 -9999 -9999 -9999 -9999 -9999 -9999 -9999 -9999 -9999 -9999 -9999 -9999 -9999 -9999 -9999 -9999 -9999 -9999 -9999 -9999 -9999 -9999 -9999 -9999 -9999 -9999 -9999 -9999 -9999
-9999 -9999 -9999 -9999 -9999 -9999 1365 1340 1326 1381 1441 1515 1471 1274 1136 1187 1457 1646 1516 1615 1364 1334 1387 1421 1646 1726 1956 1970 1779 1467 1804 1910 1923 2003 2096 2248 2140 2103 2037 2236 2262 2504 2469 2552 -9999 -9999 -9999 -9999 -9999 -9999 -9999 -9999 -9999 -9999 -9999 -9999 -9999 -9999 -9999 -9999 -9999 -9999 -9999 -9999 -9999 -9999 -9999 -9999 -9999 -9999 -9999 -9999 -9999 -9999 -9999 -9999 -9999 -9999 -9999 -9999 -9999 -9999 -9999 -9999 -9999 -9999 -9999 -9999 -9999 -9999 -9999 -9999 -9999
-9999 -9999 -9999 -9999 -9999 -9999 -9999 1355 1225 1269 1308 1357 1517 1337 1187 1117 1270 1482 1600 1560 1472 1412 1372 1505 1534 1728 1955 2072 1936 1709 1527 1569 1734 1706 1899 1895 1883 1940 2075 2337 2412 2261 2261 2311 -9999 -9999 -9999 -9999 -9999 -9999 -9999 -9999 -9999 -9999 -9999 -9999 -9999 -9999 -9999 -9999 -9999 -9999 -9999 -9999 -9999 -9999 -9999 -9999 -9999 -9999 -9999 -9999 -9999 -9999 -9999 -9999 -9999 -9999 -9999 -9999 -9999 -9999 -9999 -9999 -9999 -9999 -9999 -9999 -9999 -9999 -9999 -9999 -9999
-9999 -9999 -9999 -9999 -9999 -9999 1304 1341 1204 1159 1111 1113 1264 1093 1093 1207 1322 1453 1487 1679 1552 1726 1502 1346 1635 1884 1992 2022 2088 1948 1679 1827 1798 1700 1660 1749 1778 1968 2087 2156 2049 2009 2095 2410 -9999 -9999 -9999 -9999 -9999 -9999 -9999 -9999 -9999 -9999 -9999 -9999 -9999 -9999 -9999 -9999 -9999 -9999 -9999 -9999 -9999 -9999 -9999 -9999 -9999 -9999 -9999 -9999 -9999 -9999 -9999 -9999 -9999 -9999 -9999 -9999 -9999 -9999 -9999 -9999 -9999 -9999 -9999 -9999 -9999 -9999 -9999 -9999 -9999
-9999 -9999 -9999 -9999 -9999 1132 1169 1161 1072 1064 1068 1165 1085 1183 1187 1257 1300 1357 1458 1734 1640 1722 1570 1429 1548 1798 1891 1818 1874 1960 1814 1792 1922 1918 1828 1769 1748 1800 1910 1933 1926 2024 2262 -9999 -9999 -9999 -9999 -9999 -9999 -9999 -9999 -9999 -9999 -9999 -9999 -9999 -9999 -9999 -9999 -9999 -9999 -9999 -9999 -9999 -9999 -9999 -9999 -9999 -9999 -9999 -9999 -9999 -9999 -9999 -9999 -9999 -9999 -9999 -9999 -9999 -9999 -9999 -9999 -9999 -9999 -9999 -9999 -9999 -9999 -9999 -9999 -9999 -9999
-9999 -9999 -9999 -9999 -9999 1079 1060 1175 1201 1344 1374 1320 1184 1307 1298 1398 1523 1412 1414 1565 1839 1710 1541 1431 1519 1453 1568 1619 1777 2017 2133 2085 2281 2231 1977 2042 2014 1850 2064 2186 2082 2148 -9999 -9999 -9999 -9999 -9999 -9999 -9999 -9999 -9999 -9999 -9999 -9999 -9999 -9999 -9999 -9999 -9999 -9999 -9999 -9999 -9999 -9999 -9999 -9999 -9999 -9999 -9999 -9999 -9999 -9999 -9999 -9999 -9999 -9999 -9999 -9999 -9999 -9999 -9999 -9999 -9999 -9999 -9999 -9999 -9999 -9999 -9999 -9999 -9999 -9999 -9999
-9999 -9999 -9999 -9999 -9999 -9999 1329 1306 1276 1447 1436 1412 1314 1381 1239 1391 1484 1516 1571 1681 1860 1698 1555 1522 1749 1724 1672 1605 1680 1839 2010 2012 2257 2335 2313 2379 2271 2100 1933 2219 2263 -9999 -9999 -9999 -9999 -9999 -9999 -9999 -9999 -9999 -9999 -9999 -9999 -9999 -9999 -9999 -9999 -9999 -9999 -9999 -9999 -9999 -9999 -9999 -9999 -9999 -9999 -9999 -9999 -9999 -9999 -9999 -9999 -9999 -9999 -9999 -9999 -9999 -9999 -9999 -9999 -9999 -9999 -9999 -9999 -9999 -9999 -9999 -9999 -9999 -9999 -9999 -9999
-9999 -9999 -9999 -9999 -9999 -9999 1445 1405 1510 1395 1509 1458 1571 1552 1529 1360 1554 1662 1644 1778 1965 1956 1741 1578 1806 1999 1744 1746 1843 1665 1854 1834 2054 2139 2246 2347 2246 2096 2177 2198 2358 -9999 -9999 -9999 -9999 -9999 -9999 -9999 -9999 -9999 -9999 -9999 -9999 -9999 -9999 -9999 -9999 -9999 -9999 -9999 -9999 -9999 -9999 -9999 -9999 -9999 -9999 -9999 -9999 -9999 -9999 -9999 -9999 -9999 -9999 -9999 -9999 -9999 -9999 -9999 -9999 -9999 -9999 -9999 -9999 -9999 -9999 -9999 -9999 -9999 -9999 -9999 -9999
-9999 -9999 -9999 -9999 -9999 -9999 1519 1397 1533 1421 1522 1471 1701 1549 1494 1487 1478 1694 1774 1831 2062 1911 1782 1670 1760 2044 1899 1784 2040 1774 1753 1911 1940 2035 2206 2444 2287 2200 2202 2153 -9999 -9999 -9999 -9999 -9999 -9999 -9999 -9999 -9999 -9999 -9999 -9999 -9999 -9999 -9999 -9999 -9999 -9999 -9999 -9999 -9999 -9999 -9999 -9999 -9999 -9999 -9999 -9999 -9999 -9999 -9999 -9999 -9999 -9999 -9999 -9999 -9999 -9999 -9999 -9999 -9999 -9999 -9999 -9999 -9999 -9999 -9999 -9999 -9999 -9999 -9999 -9999 -9999
-9999 -9999 -9999 -9999 -9999 -9999 -9999 1631 1673 1514 1610 1673 1751 1547 1655 1647 1609 1723 1829 -9999 -9999 1976 1987 1828 1929 1835 2128 2089 1999 1950 2024 1950 2087 -9999 -9999 -9999 2509 2332 2328 -9999 -9999 -9999 -9999 -9999 -9999 -9999 -9999 -9999 -9999 -9999 -9999 -9999 -9999 -9999 -9999 -9999 -9999 -9999 -9999 -9999 -9999 -9999 -9999 -9999 -9999 -9999 -9999 -9999 -9999 -9999 -9999 -9999 -9999 -9999 -9999 -9999 -9999 -9999 -9999 -9999 -9999 -9999 -9999 -9999 -9999 -9999 -9999 -9999 -9999 -9999 -9999 -9999 -9999
-9999 -9999 -9999 -9999 -9999 -9999 -9999 -9999 -9999 -9999 -9999 -9999 -9999 1870 -9999 -9999 -9999 -9999 -9999 -9999 -9999 -9999 -9999 2265 2251 2017 2245 2280 2163 2181 2238 2195 -9999 -9999 -9999 -9999 -9999 -9999 -9999 -9999 -9999 -9999 -9999 -9999 -9999 -9999 -9999 -9999 -9999 -9999 -9999 -9999 -9999 -9999 -9999 -9999 -9999 -9999 -9999 -9999 -9999 -9999 -9999 -9999 -9999 -9999 -9999 -9999 -9999 -9999 -9999 -9999 -9999 -9999 -9999 -9999 -9999 -9999 -9999 -9999 -9999 -9999 -9999 -9999 -9999 -9999 -9999 -9999 -9999 -9999 -9999 -9999 -9999
-9999 -9999 -9999 -9999 -9999 -9999 -9999 -9999 -9999 -9999 -9999 -9999 -9999 -9999 -9999 -9999 -9999 -9999 -9999 -9999 -9999 -9999 -9999 -9999 2473 2400 2464 2397 -9999 -9999 -9999 -9999 -9999 -9999 -9999 -9999 -9999 -9999 -9999 -9999 -9999 -9999 -9999 -9999 -9999 -9999 -9999 -9999 -9999 -9999 -9999 -9999 -9999 -9999 -9999 -9999 -9999 -9999 -9999 -9999 -9999 -9999 -9999 -9999 -9999 -9999 -9999 -9999 -9999 -9999 -9999 -9999 -9999 -9999 -9999 -9999 -9999 -9999 -9999 -9999 -9999 -9999 -9999 -9999 -9999 -9999 -9999 -9999 -9999 -9999 -9999 -9999 -9999
