NCOLS 79 
NROWS 36 
XLLCORNER 67.221013148404 
YLLCORNER 38.9753247731978 
CELLSIZE 0.005892565925393 
NODATA_value -9999 
-9999 -9999 -9999 -9999 -9999 -9999 -9999 -9999 -9999 -9999 -9999 -9999 -9999 -9999 -9999 -9999 -9999 -9999 -9999 -9999 -9999 -9999 -9999 -9999 -9999 -9999 -9999 -9999 -9999 -9999 -9999 -9999 -9999 -9999 -9999 -9999 -9999 -9999 -9999 -9999 -9999 -9999 -9999 -9999 -9999 -9999 -9999 -9999 -9999 -9999 -9999 -9999 -9999 -9999 -9999 -9999 -9999 -9999 -9999 -9999 2935 2902 2972 3104 -9999 -9999 -9999 -9999 -9999 -9999 -9999 -9999 -9999 -9999 -9999 -9999 -9999 -9999 -9999
-9999 -9999 -9999 -9999 -9999 -9999 -9999 -9999 -9999 -9999 -9999 -9999 -9999 -9999 -9999 -9999 -9999 -9999 -9999 -9999 -9999 -9999 -9999 -9999 -9999 -9999 -9999 -9999 -9999 -9999 -9999 -9999 -9999 -9999 -9999 -9999 -9999 -9999 -9999 -9999 -9999 -9999 -9999 -9999 -9999 -9999 -9999 -9999 -9999 -9999 -9999 -9999 -9999 -9999 2843 2823 2799 2806 2732 2768 2731 2730 2827 3087 3077 -9999 -9999 -9999 -9999 -9999 -9999 -9999 -9999 -9999 -9999 -9999 -9999 -9999 -9999
-9999 -9999 -9999 -9999 -9999 -9999 -9999 -9999 -9999 -9999 -9999 -9999 -9999 -9999 -9999 -9999 -9999 -9999 -9999 -9999 -9999 -9999 -9999 -9999 -9999 -9999 -9999 -9999 -9999 -9999 -9999 -9999 -9999 -9999 -9999 -9999 -9999 -9999 -9999 -9999 -9999 -9999 -9999 -9999 -9999 -9999 -9999 -9999 -9999 -9999 -9999 -9999 -9999 -9999 2636 2575 2535 2634 2471 2559 2455 2471 2572 2726 2893 2898 2954 3103 -9999 -9999 -9999 -9999 -9999 -9999 -9999 -9999 -9999 -9999 -9999
-9999 -9999 -9999 -9999 -9999 -9999 -9999 -9999 -9999 -9999 -9999 -9999 -9999 -9999 -9999 -9999 -9999 -9999 -9999 -9999 -9999 -9999 -9999 -9999 -9999 -9999 -9999 -9999 -9999 -9999 -9999 -9999 -9999 -9999 -9999 -9999 -9999 -9999 -9999 -9999 -9999 -9999 -9999 -9999 -9999 -9999 -9999 -9999 -9999 -9999 -9999 -9999 -9999 -9999 2403 2326 2366 2445 2395 2294 2440 2509 2593 2710 2813 2884 2961 3154 3328 -9999 -9999 -9999 -9999 -9999 -9999 -9999 -9999 -9999 -9999
-9999 -9999 -9999 -9999 -9999 -9999 -9999 -9999 -9999 -9999 -9999 -9999 -9999 -9999 -9999 -9999 -9999 -9999 -9999 -9999 -9999 -9999 -9999 -9999 -9999 -9999 -9999 -9999 -9999 -9999 -9999 -9999 2399 -9999 -9999 -9999 -9999 -9999 -9999 -9999 -9999 -9999 -9999 -9999 -9999 -9999 -9999 -9999 -9999 -9999 -9999 -9999 -9999 -9999 2223 2158 2223 2252 2200 2356 2521 2610 2778 2861 2983 3032 3143 3310 3441 -9999 -9999 -9999 -9999 -9999 -9999 -9999 -9999 -9999 -9999
-9999 -9999 -9999 -9999 -9999 -9999 -9999 -9999 -9999 -9999 -9999 -9999 -9999 -9999 -9999 -9999 -9999 -9999 -9999 -9999 -9999 -9999 -9999 -9999 -9999 -9999 -9999 -9999 -9999 2422 2394 2383 2344 2324 2356 2331 2368 2305 2280 2334 2566 -9999 -9999 -9999 -9999 -9999 -9999 -9999 -9999 -9999 -9999 2404 2331 2288 2214 2084 2145 2169 2221 2334 2504 2585 2728 2809 2926 2996 3113 3335 3577 -9999 -9999 -9999 -9999 -9999 -9999 -9999 -9999 -9999 -9999
-9999 -9999 -9999 -9999 -9999 -9999 -9999 -9999 -9999 -9999 -9999 -9999 -9999 -9999 -9999 -9999 -9999 -9999 -9999 -9999 -9999 -9999 -9999 -9999 -9999 -9999 -9999 -9999 -9999 -9999 2252 2246 2257 2254 2240 2233 2210 2206 2268 2308 2486 2672 2524 2549 2420 2388 2259 2315 2204 2010 2059 2198 2198 2098 2178 1984 2012 2214 2395 2466 2552 2559 2522 2637 2753 2808 2908 3126 3604 -9999 -9999 -9999 -9999 -9999 -9999 -9999 -9999 -9999 -9999
-9999 -9999 -9999 -9999 -9999 -9999 -9999 -9999 -9999 -9999 -9999 -9999 -9999 -9999 -9999 -9999 -9999 -9999 -9999 -9999 -9999 -9999 -9999 -9999 -9999 -9999 -9999 -9999 -9999 -9999 -9999 2230 2226 2217 2207 2206 2198 2175 2284 2351 2570 2558 2362 2218 1987 1937 1948 1960 1999 2117 2270 2192 2197 2196 2084 2387 2173 2165 2334 2588 2384 2335 2307 2385 2466 2508 2646 2969 3671 3836 -9999 -9999 -9999 -9999 -9999 -9999 -9999 -9999 -9999
-9999 -9999 -9999 -9999 -9999 -9999 -9999 -9999 -9999 -9999 -9999 -9999 -9999 -9999 -9999 -9999 -9999 -9999 -9999 -9999 -9999 -9999 -9999 -9999 -9999 -9999 -9999 -9999 -9999 -9999 -9999 2411 2457 2405 2365 2326 2262 2231 2179 2262 2370 2305 2010 1889 1776 2077 2248 2220 2300 2587 2611 2563 2538 2463 2318 2360 2407 2330 2093 2206 2192 2292 2311 2335 2404 2377 2571 2962 3391 3564 3745 -9999 -9999 -9999 -9999 -9999 3527 3511 -9999
-9999 -9999 -9999 -9999 -9999 -9999 -9999 -9999 -9999 -9999 -9999 -9999 -9999 -9999 -9999 -9999 -9999 -9999 -9999 -9999 -9999 -9999 -9999 -9999 -9999 -9999 -9999 -9999 -9999 -9999 -9999 2469 2423 2442 2321 2317 2249 2252 2032 2081 2013 1784 1774 1843 2059 2004 1921 2150 2353 2505 2408 2346 2361 2477 2430 2473 2535 2546 2371 2166 2466 2691 2959 3005 2896 2792 2525 2650 2880 2938 3048 3252 3265 3237 3194 3181 3202 3262 -9999
-9999 -9999 -9999 -9999 -9999 -9999 -9999 -9999 -9999 -9999 -9999 -9999 -9999 -9999 2244 2271 2301 2274 -9999 -9999 -9999 -9999 -9999 -9999 -9999 -9999 -9999 -9999 -9999 -9999 2415 2354 2291 2354 2335 2340 2247 2152 1949 1973 1720 1748 2008 2120 2303 2210 2081 2081 2319 2374 2289 2262 2293 2345 2452 2538 2553 2447 2374 2204 2589 2765 3099 3209 3143 3026 2737 2584 2632 2694 2782 2987 3074 3068 3064 3085 3158 3233 -9999
-9999 -9999 -9999 -9999 -9999 -9999 -9999 -9999 -9999 -9999 -9999 2076 2128 2219 2142 2152 2176 2296 2254 2257 2233 2420 2407 2336 2521 2515 2404 2416 2289 2164 2260 2289 2189 2007 2105 2230 2117 1964 1692 1703 1872 2015 2111 2168 2317 2456 2335 2190 2088 2092 2099 2154 2197 2292 2357 2484 2569 2540 2458 2334 2450 2598 2878 3169 3238 3238 3105 2940 2894 2871 2786 2715 2872 3042 3114 3305 3408 3470 -9999
-9999 -9999 -9999 -9999 -9999 -9999 -9999 -9999 -9999 -9999 2131 2006 2069 2192 2124 2132 2110 2073 2092 2160 2251 2274 2247 2214 2286 2346 2336 2317 2238 2095 1851 1881 1851 1737 1888 1826 1659 1846 2118 2190 2330 2453 2450 2362 2377 2490 2471 2329 2313 2202 2216 2314 2372 2535 2522 2621 2682 2620 2616 2468 2401 2404 2544 2709 2748 2790 2871 3031 3041 3013 2892 2764 2951 3195 3293 3536 3677 3619 -9999
-9999 -9999 -9999 -9999 -9999 -9999 -9999 -9999 2058 2015 1957 1923 1944 1987 2007 2115 2145 2121 2076 2063 2135 2106 2105 2133 2158 2136 2141 1961 1773 1621 1533 1555 1640 1637 1666 1730 1720 1917 2123 2229 2297 2348 2401 2369 2396 2523 2599 2527 2428 2292 2296 2297 2351 2517 2580 2898 3002 2883 2707 2767 2676 2623 2487 2636 2774 2855 3005 3285 3288 3120 2926 2812 3017 3104 3197 3455 3727 3671 -9999
-9999 -9999 -9999 -9999 -9999 -9999 -9999 2012 2067 2044 1961 1927 1918 1959 1968 2143 2089 2052 2036 2027 2064 2068 2081 2116 2025 1929 1907 1706 1572 1566 1772 1809 1939 1932 1972 1994 1761 2055 2160 2204 2219 2308 2325 2285 2359 2465 2711 2548 2430 2301 2322 2322 2370 2538 2684 2930 2930 2995 2957 3018 2907 2830 2559 2693 2926 3015 3155 3341 3223 3129 2927 2848 3072 3273 3294 3568 3806 -9999 -9999
-9999 -9999 -9999 -9999 1982 1987 2032 1953 1935 1987 1927 1892 1872 1866 1881 1898 1909 1964 1977 2079 2073 2041 2079 1866 1797 1558 1513 1697 1962 2103 2221 2278 2320 2332 2265 2241 2121 1966 1983 2050 2189 2191 2223 2300 2328 2481 2631 2622 2653 2524 2445 2658 2733 2810 2781 2848 2943 3093 3162 3065 2974 2840 2669 2735 2950 3018 3281 3568 3389 3195 2926 2943 3179 3402 3528 3817 3994 -9999 -9999
-9999 1958 1917 1922 1907 1927 1892 1927 1893 1877 1851 1847 1846 1817 1821 1906 1990 2069 2137 2179 2174 2049 2029 1709 1550 1778 1829 1545 1571 1704 1850 1857 1966 1942 1968 1985 1883 2015 2092 2061 2123 2230 2250 2238 2291 2367 2541 2817 2949 2904 2821 2794 2944 3097 3042 3156 3166 3355 3412 3230 3119 3079 2840 2730 2919 3057 3276 3489 3317 3226 2972 2951 3241 3505 3559 3856 -9999 -9999 -9999
-9999 1911 1869 1863 1865 1886 1860 1857 1922 1920 1901 1894 1905 1874 1829 2045 2144 2084 2041 2033 1887 1879 1853 1656 1810 1960 1973 1917 1916 1961 1825 1733 1713 1842 1797 1722 1706 1814 1912 1982 2020 2072 2117 2154 2242 2396 2693 2983 3113 3268 3137 3148 3173 3324 3455 3456 3544 3684 3536 3537 3376 3238 3008 2861 2885 3034 3433 3766 3531 3349 3052 2998 3414 3581 3736 4140 -9999 -9999 -9999
-9999 1879 1864 1857 1844 1851 1844 1846 1951 1972 1940 1947 1943 1899 1822 2073 2054 1940 1942 1901 1770 1772 1786 1819 2014 2084 2113 2100 2055 2026 1932 1934 1963 1972 1828 1761 1704 1766 1949 1997 2016 2053 2125 2165 2243 2384 2660 2927 3108 3362 3368 3344 3400 3501 3633 3602 3679 3764 3603 3649 3402 3315 3081 2959 2908 3027 3388 3791 3513 3365 3092 3002 3418 3640 3689 3962 -9999 -9999 -9999
1976 1976 1949 1954 1902 1845 1823 1907 1998 1971 1903 1779 1722 1760 1934 1986 1754 1684 1713 1650 1482 1565 1615 1837 1941 1960 2003 2017 2182 2153 2159 2146 2166 2039 1888 1863 1834 1752 1858 1923 1932 2104 2129 2149 2269 2333 2502 2707 2799 2898 3083 3194 3338 3265 3242 3403 3518 3800 3754 3917 3550 3464 3440 3139 2943 3024 3415 3760 3609 3540 3309 3069 3190 3568 3745 4020 4152 -9999 -9999
-9999 -9999 -9999 1934 1889 1854 1842 1833 1821 1811 1842 1850 1655 1690 1881 2075 1919 1663 1504 1399 1515 1552 1605 1690 1700 1843 1951 2098 2159 2249 2268 2239 2160 2046 2051 2069 2147 1939 1807 1840 2070 2137 2314 2310 2212 2273 2326 2375 2432 2544 2700 2828 2852 2893 2988 3218 3393 3706 4002 3891 3714 3663 3620 3282 3006 3023 3438 3869 3936 3767 3505 3285 3117 3347 3512 3895 4149 -9999 -9999
-9999 -9999 -9999 1933 1979 1934 1926 2000 1999 2021 2078 2008 1731 1593 2004 1920 1691 1537 1417 1603 1674 1794 1721 1605 1658 1888 1915 1977 2035 2098 2182 2202 2250 2212 2345 2402 2338 2041 1932 1847 1896 2032 2036 2094 2224 2262 2322 2429 2455 2527 2593 2716 2801 3024 3169 3142 3209 3519 3943 3863 3833 3775 3722 3370 3083 3060 3403 3884 4169 3999 3737 3496 3219 3237 3441 3735 4076 -9999 -9999
-9999 -9999 -9999 -9999 -9999 2049 2026 2008 1962 1962 1987 1870 1598 1513 1642 1416 1503 1583 1612 1605 1751 1873 1947 1890 1721 1689 1731 1825 1923 1982 2155 2252 2455 2612 2588 2482 2244 2017 1978 1967 1983 2102 2298 2383 2696 2733 2717 2733 2828 2858 2999 2960 2910 3297 3711 3596 3520 3405 3739 4107 3981 3794 3578 3466 3131 3106 3477 3759 4070 4040 3896 3536 3237 3226 3424 3639 3765 3893 -9999
-9999 -9999 -9999 -9999 -9999 -9999 -9999 -9999 -9999 -9999 -9999 1920 1555 1466 1501 1408 1676 1814 1857 1713 1804 2030 2073 2034 1824 1709 1744 1804 1879 2030 2236 2396 2618 2578 2452 2351 2138 2023 2116 2098 2036 2033 2252 2412 2626 2839 2953 2950 3018 3067 3337 3136 3023 3270 3778 3789 3730 3439 3673 4021 4198 3927 3649 3509 3176 3101 3433 3752 4033 3933 3809 3578 3271 3279 3443 3661 4010 3910 -9999
-9999 -9999 -9999 -9999 -9999 -9999 -9999 -9999 -9999 -9999 -9999 1789 1550 1572 1596 1717 1801 1874 1869 1913 1908 1913 -9999 1947 1866 1801 1792 1880 2067 2123 2112 2158 2292 2354 2299 2226 2205 2284 2357 2312 2394 2276 2187 2157 2320 2524 2880 3242 3390 3508 3756 3482 3302 3497 3910 4025 3915 3580 3578 3982 4011 3964 3927 3765 3273 3158 3340 3582 3807 3854 3735 3635 3462 3228 3285 3631 3728 3851 -9999
-9999 -9999 -9999 -9999 -9999 -9999 -9999 -9999 -9999 -9999 -9999 1331 1381 1434 1567 1765 1780 1744 -9999 1799 1780 -9999 -9999 -9999 1888 1891 1862 1949 2246 2531 2464 2393 2322 2452 2421 2465 2393 2595 2679 2711 2538 2547 2638 2561 2339 2480 2663 2925 3014 3342 3671 3718 3595 3746 4121 3880 3811 3653 3656 3975 4226 4153 3860 3617 3303 3184 3351 3623 3780 3916 3948 3755 3559 3274 3251 3536 3744 3991 3972
-9999 -9999 -9999 -9999 -9999 -9999 -9999 -9999 -9999 -9999 -9999 -9999 1445 1568 1615 -9999 -9999 -9999 -9999 -9999 -9999 -9999 -9999 -9999 -9999 1885 1923 1977 2096 2160 2218 2269 2390 2576 2598 2746 2690 2773 3052 2983 2722 2779 2942 2785 2639 2522 2662 2926 3076 3325 3773 4072 3894 3915 4121 3932 4028 3896 3688 3770 3840 3790 3685 3535 3253 3232 3442 3668 4162 4138 3917 3802 3659 3355 3245 3398 3678 3808 3905
-9999 -9999 -9999 -9999 -9999 -9999 -9999 -9999 -9999 -9999 -9999 1384 1603 1614 1554 -9999 -9999 -9999 -9999 -9999 -9999 -9999 -9999 -9999 -9999 -9999 1953 2014 2059 2150 2241 2307 2460 2668 2712 2770 2923 2802 3164 3094 2888 2948 3003 2866 2758 2760 2535 2949 3125 3371 3684 4068 3954 3914 4090 3983 4013 3961 3734 3753 3835 3754 3652 3515 3240 3231 3470 3700 4149 4072 3865 3760 3613 3449 3298 3395 3634 3719 3819
-9999 -9999 -9999 -9999 -9999 -9999 -9999 -9999 -9999 -9999 -9999 -9999 1471 -9999 -9999 -9999 -9999 -9999 -9999 -9999 -9999 -9999 -9999 -9999 -9999 -9999 2063 2180 2311 2484 2391 2508 2795 2971 3071 3057 3224 3130 3342 3409 3190 3251 3249 3068 3131 2982 2655 2866 2858 3173 3416 3779 3959 4050 4037 4190 4237 4064 3865 3811 3784 3744 3592 3464 3277 3277 3608 3639 3865 3947 3854 3668 3599 3507 3418 3471 3603 3735 3798
-9999 -9999 -9999 -9999 -9999 -9999 -9999 -9999 -9999 -9999 -9999 -9999 -9999 -9999 -9999 -9999 -9999 -9999 -9999 -9999 -9999 -9999 -9999 -9999 -9999 -9999 -9999 2391 2603 2731 2772 2780 2894 3050 3268 3402 3589 3465 3535 3702 3578 3586 3390 3351 3303 3042 2813 3067 3265 3307 3231 3505 3652 3908 4153 4214 4065 3991 3951 3809 3747 3738 3791 3614 3386 3288 3508 3755 4063 4042 3854 3748 3705 3619 3586 3572 3498 -9999 -9999
-9999 -9999 -9999 -9999 -9999 -9999 -9999 -9999 -9999 -9999 -9999 -9999 -9999 -9999 -9999 -9999 -9999 -9999 -9999 -9999 -9999 -9999 -9999 -9999 -9999 -9999 -9999 2440 2588 -9999 -9999 -9999 -9999 -9999 -9999 -9999 -9999 3602 3637 3660 3892 3718 3574 3588 3490 3256 3033 3207 3325 3637 3436 3426 3573 3824 3988 -9999 -9999 4153 3973 3904 3893 3878 3729 3580 3489 3415 3507 3681 3700 -9999 3879 3875 3817 3753 3657 3425 -9999 -9999 -9999
-9999 -9999 -9999 -9999 -9999 -9999 -9999 -9999 -9999 -9999 -9999 -9999 -9999 -9999 -9999 -9999 -9999 -9999 -9999 -9999 -9999 -9999 -9999 -9999 -9999 -9999 -9999 -9999 -9999 -9999 -9999 -9999 -9999 -9999 -9999 -9999 -9999 3649 3794 3762 -9999 3821 3716 3708 3606 3341 3155 3214 3388 3602 3494 3451 3544 3822 -9999 -9999 -9999 -9999 4029 4015 3864 3821 3710 3573 3507 3479 3509 -9999 -9999 -9999 -9999 -9999 3801 -9999 -9999 -9999 -9999 -9999 -9999
-9999 -9999 -9999 -9999 -9999 -9999 -9999 -9999 -9999 -9999 -9999 -9999 -9999 -9999 -9999 -9999 -9999 -9999 -9999 -9999 -9999 -9999 -9999 -9999 -9999 -9999 -9999 -9999 -9999 -9999 -9999 -9999 -9999 -9999 -9999 -9999 -9999 -9999 -9999 -9999 -9999 -9999 -9999 3913 3704 3539 3521 3370 3361 3698 3657 3560 3592 3848 -9999 -9999 -9999 -9999 -9999 -9999 -9999 3887 3863 3689 3633 3619 -9999 -9999 -9999 -9999 -9999 -9999 -9999 -9999 -9999 -9999 -9999 -9999 -9999
-9999 -9999 -9999 -9999 -9999 -9999 -9999 -9999 -9999 -9999 -9999 -9999 -9999 -9999 -9999 -9999 -9999 -9999 -9999 -9999 -9999 -9999 -9999 -9999 -9999 -9999 -9999 -9999 -9999 -9999 -9999 -9999 -9999 -9999 -9999 -9999 -9999 -9999 -9999 -9999 -9999 -9999 -9999 -9999 3920 3963 3748 3569 3542 3692 3893 3767 3805 3739 -9999 -9999 -9999 -9999 -9999 -9999 -9999 -9999 3854 -9999 -9999 -9999 -9999 -9999 -9999 -9999 -9999 -9999 -9999 -9999 -9999 -9999 -9999 -9999 -9999
-9999 -9999 -9999 -9999 -9999 -9999 -9999 -9999 -9999 -9999 -9999 -9999 -9999 -9999 -9999 -9999 -9999 -9999 -9999 -9999 -9999 -9999 -9999 -9999 -9999 -9999 -9999 -9999 -9999 -9999 -9999 -9999 -9999 -9999 -9999 -9999 -9999 -9999 -9999 -9999 -9999 -9999 -9999 -9999 -9999 -9999 3803 3730 3855 3793 3687 3758 3826 3676 -9999 -9999 -9999 -9999 -9999 -9999 -9999 -9999 -9999 -9999 -9999 -9999 -9999 -9999 -9999 -9999 -9999 -9999 -9999 -9999 -9999 -9999 -9999 -9999 -9999
-9999 -9999 -9999 -9999 -9999 -9999 -9999 -9999 -9999 -9999 -9999 -9999 -9999 -9999 -9999 -9999 -9999 -9999 -9999 -9999 -9999 -9999 -9999 -9999 -9999 -9999 -9999 -9999 -9999 -9999 -9999 -9999 -9999 -9999 -9999 -9999 -9999 -9999 -9999 -9999 -9999 -9999 -9999 -9999 -9999 -9999 3980 3986 3977 -9999 -9999 -9999 -9999 -9999 -9999 -9999 -9999 -9999 -9999 -9999 -9999 -9999 -9999 -9999 -9999 -9999 -9999 -9999 -9999 -9999 -9999 -9999 -9999 -9999 -9999 -9999 -9999 -9999 -9999
