NCOLS 363 
NROWS 183 
XLLCORNER 69.8432049852038 
YLLCORNER 41.2262849566979 
CELLSIZE 0.005892565925393 
NODATA_value -9999 
-9999.000000000000000 -9999 -9999 -9999 -9999 -9999 -9999 -9999 -9999 -9999 -9999 -9999 -9999 -9999 -9999 -9999 -9999 -9999 -9999 -9999 -9999 -9999 -9999 -9999 -9999 -9999 -9999 -9999 -9999 -9999 -9999 -9999 -9999 -9999 -9999 -9999 -9999 -9999 -9999 -9999 -9999 -9999 -9999 -9999 -9999 -9999 -9999 -9999 -9999 -9999 -9999 -9999 -9999 -9999 -9999 -9999 -9999 -9999 -9999 -9999 -9999 -9999 -9999 -9999 -9999 -9999 -9999 -9999 -9999 -9999 -9999 -9999 -9999 -9999 -9999 -9999 -9999 -9999 -9999 -9999 -9999 -9999 -9999 -9999 -9999 -9999 -9999 -9999 -9999 -9999 -9999 -9999 -9999 -9999 -9999 -9999 -9999 -9999 -9999 -9999 -9999 -9999 -9999 -9999 -9999 -9999 -9999 -9999 -9999 -9999 -9999 -9999 -9999 -9999 -9999 -9999 -9999 -9999 -9999 -9999 -9999 -9999 -9999 -9999 -9999 -9999 -9999 -9999 -9999 -9999 -9999 -9999 -9999 -9999 -9999 -9999 -9999 -9999 -9999 -9999 -9999 -9999 -9999 -9999 -9999 -9999 -9999 -9999 -9999 -9999 -9999 -9999 -9999 -9999 -9999 -9999 -9999 -9999 -9999 -9999 -9999 -9999 -9999 -9999 -9999 3612 -9999 3526 3423 3387 3337 3296 3402 3583 -9999 -9999 -9999 -9999 -9999 -9999 -9999 -9999 -9999 -9999 -9999 -9999 -9999 -9999 -9999 -9999 -9999 -9999 -9999 -9999 -9999 -9999 -9999 -9999 -9999 -9999 -9999 -9999 -9999 -9999 -9999 -9999 -9999 -9999 -9999 -9999 -9999 -9999 -9999 -9999 -9999 -9999 -9999 -9999 -9999 -9999 -9999 -9999 -9999 -9999 -9999 -9999 -9999 -9999 -9999 -9999 -9999 -9999 -9999 -9999 -9999 -9999 -9999 -9999 -9999 -9999 -9999 -9999 -9999 -9999 -9999 -9999 -9999 -9999 -9999 -9999 -9999 -9999 -9999 -9999 -9999 -9999 -9999 -9999 -9999 -9999 -9999 -9999 -9999 -9999 -9999 -9999 -9999 -9999 -9999 -9999 -9999 -9999 -9999 -9999 -9999 -9999 -9999 -9999 -9999 -9999 -9999 -9999 -9999 -9999 -9999 -9999 -9999 -9999 -9999 -9999 -9999 -9999 -9999 -9999 -9999 -9999 -9999 -9999 -9999 -9999 -9999 -9999 -9999 -9999 -9999 -9999 -9999 -9999 -9999 -9999 -9999 -9999 -9999 -9999 -9999 -9999 -9999 -9999 -9999 -9999 -9999 -9999 -9999 -9999 -9999 -9999 -9999 -9999 -9999 -9999 -9999 -9999 -9999 -9999 -9999 -9999 -9999 -9999 -9999 -9999 -9999 -9999 -9999 -9999 -9999 -9999 -9999 -9999 -9999 -9999 -9999 -9999 -9999 -9999 -9999 -9999 -9999 -9999 -9999 -9999 -9999 -9999 -9999
-9999 -9999 -9999 -9999 -9999 -9999 -9999 -9999 -9999 -9999 -9999 -9999 -9999 -9999 -9999 -9999 -9999 -9999 -9999 -9999 -9999 -9999 -9999 -9999 -9999 -9999 -9999 -9999 -9999 -9999 -9999 -9999 -9999 -9999 -9999 -9999 -9999 -9999 -9999 -9999 -9999 -9999 -9999 -9999 -9999 -9999 -9999 -9999 -9999 -9999 -9999 -9999 -9999 -9999 -9999 -9999 -9999 -9999 -9999 -9999 -9999 -9999 -9999 -9999 -9999 -9999 -9999 -9999 -9999 -9999 -9999 -9999 -9999 -9999 -9999 -9999 -9999 -9999 -9999 -9999 -9999 -9999 -9999 -9999 -9999 -9999 -9999 -9999 -9999 -9999 -9999 -9999 -9999 -9999 -9999 -9999 -9999 -9999 -9999 -9999 -9999 -9999 -9999 -9999 -9999 -9999 -9999 -9999 -9999 -9999 -9999 -9999 -9999 -9999 -9999 -9999 -9999 -9999 -9999 -9999 -9999 -9999 -9999 -9999 -9999 -9999 -9999 -9999 -9999 -9999 -9999 -9999 -9999 -9999 -9999 -9999 -9999 -9999 -9999 -9999 -9999 -9999 -9999 -9999 -9999 -9999 -9999 -9999 -9999 -9999 -9999 -9999 -9999 -9999 -9999 -9999 -9999 -9999 -9999 -9999 -9999 -9999 -9999 -9999 3461 3303 3174 3126 3056 3064 3082 3094 3162 3433 -9999 -9999 -9999 -9999 -9999 -9999 -9999 -9999 -9999 -9999 -9999 -9999 -9999 -9999 -9999 -9999 -9999 -9999 -9999 -9999 -9999 -9999 -9999 -9999 -9999 -9999 -9999 -9999 -9999 -9999 -9999 -9999 -9999 -9999 -9999 -9999 -9999 -9999 -9999 -9999 -9999 -9999 -9999 -9999 -9999 -9999 -9999 -9999 -9999 -9999 -9999 -9999 -9999 -9999 -9999 -9999 -9999 -9999 -9999 -9999 -9999 -9999 -9999 -9999 -9999 -9999 -9999 -9999 -9999 -9999 -9999 -9999 -9999 -9999 -9999 -9999 -9999 -9999 -9999 -9999 -9999 -9999 -9999 -9999 -9999 -9999 -9999 -9999 -9999 -9999 -9999 -9999 -9999 -9999 -9999 -9999 -9999 -9999 -9999 -9999 -9999 -9999 -9999 -9999 -9999 -9999 -9999 -9999 -9999 -9999 -9999 -9999 -9999 -9999 -9999 -9999 -9999 -9999 -9999 -9999 -9999 -9999 -9999 -9999 -9999 -9999 -9999 -9999 -9999 -9999 -9999 -9999 -9999 -9999 -9999 -9999 -9999 -9999 -9999 -9999 -9999 -9999 -9999 -9999 -9999 -9999 -9999 -9999 -9999 -9999 -9999 -9999 -9999 -9999 -9999 -9999 -9999 -9999 -9999 -9999 -9999 -9999 -9999 -9999 -9999 -9999 -9999 -9999 -9999 -9999 -9999 -9999 -9999 -9999 -9999 -9999 -9999 -9999 -9999 -9999 -9999 -9999 -9999 -9999 -9999 -9999 -9999 -9999 -9999
-9999 -9999 -9999 -9999 -9999 -9999 -9999 -9999 -9999 -9999 -9999 -9999 -9999 -9999 -9999 -9999 -9999 -9999 -9999 -9999 -9999 -9999 -9999 -9999 -9999 -9999 -9999 -9999 -9999 -9999 -9999 -9999 -9999 -9999 -9999 -9999 -9999 -9999 -9999 -9999 -9999 -9999 -9999 -9999 -9999 -9999 -9999 -9999 -9999 -9999 -9999 -9999 -9999 -9999 -9999 -9999 -9999 -9999 -9999 -9999 -9999 -9999 -9999 -9999 -9999 -9999 -9999 -9999 -9999 -9999 -9999 -9999 -9999 -9999 -9999 -9999 -9999 -9999 -9999 -9999 -9999 -9999 -9999 -9999 -9999 -9999 -9999 -9999 -9999 -9999 -9999 -9999 -9999 -9999 -9999 -9999 -9999 -9999 -9999 -9999 -9999 -9999 -9999 -9999 -9999 -9999 -9999 -9999 -9999 -9999 -9999 -9999 -9999 -9999 -9999 -9999 -9999 -9999 -9999 -9999 -9999 -9999 -9999 -9999 -9999 -9999 -9999 -9999 -9999 -9999 -9999 -9999 -9999 -9999 -9999 -9999 -9999 -9999 -9999 -9999 -9999 -9999 -9999 -9999 -9999 -9999 -9999 -9999 -9999 -9999 -9999 -9999 -9999 -9999 -9999 -9999 -9999 -9999 -9999 -9999 -9999 -9999 -9999 3387 3207 3050 2962 2985 3068 3084 3265 3315 3206 3337 3447 3547 -9999 -9999 -9999 -9999 -9999 -9999 -9999 -9999 -9999 -9999 -9999 -9999 -9999 -9999 -9999 -9999 -9999 -9999 -9999 -9999 -9999 -9999 -9999 -9999 3844 3849 3950 3808 3728 3754 3617 3661 -9999 -9999 -9999 -9999 -9999 -9999 -9999 -9999 -9999 -9999 -9999 -9999 -9999 -9999 -9999 -9999 -9999 -9999 -9999 -9999 -9999 -9999 -9999 -9999 -9999 -9999 -9999 -9999 -9999 -9999 -9999 -9999 -9999 -9999 -9999 -9999 -9999 -9999 -9999 -9999 -9999 -9999 -9999 -9999 -9999 -9999 -9999 -9999 -9999 -9999 -9999 -9999 -9999 -9999 -9999 -9999 -9999 -9999 -9999 -9999 -9999 -9999 -9999 -9999 -9999 -9999 -9999 -9999 -9999 -9999 -9999 -9999 -9999 -9999 -9999 -9999 -9999 -9999 -9999 -9999 -9999 -9999 -9999 -9999 -9999 -9999 -9999 -9999 -9999 -9999 -9999 -9999 -9999 -9999 -9999 -9999 -9999 -9999 -9999 -9999 -9999 -9999 -9999 -9999 -9999 -9999 -9999 -9999 -9999 -9999 -9999 -9999 -9999 -9999 -9999 -9999 -9999 -9999 -9999 -9999 -9999 -9999 -9999 -9999 -9999 -9999 -9999 -9999 -9999 -9999 -9999 -9999 -9999 -9999 -9999 -9999 -9999 -9999 -9999 -9999 -9999 -9999 -9999 -9999 -9999 -9999 -9999 -9999 -9999 -9999 -9999 -9999 -9999 -9999 -9999
-9999 -9999 -9999 -9999 -9999 -9999 -9999 -9999 -9999 -9999 -9999 -9999 -9999 -9999 -9999 -9999 -9999 -9999 -9999 -9999 -9999 -9999 -9999 -9999 -9999 -9999 -9999 -9999 -9999 -9999 -9999 -9999 -9999 -9999 -9999 -9999 -9999 -9999 -9999 -9999 -9999 -9999 -9999 -9999 -9999 -9999 -9999 -9999 -9999 -9999 -9999 -9999 -9999 -9999 -9999 -9999 -9999 -9999 -9999 -9999 -9999 -9999 -9999 -9999 -9999 -9999 -9999 -9999 -9999 -9999 -9999 -9999 -9999 -9999 -9999 -9999 -9999 -9999 -9999 -9999 -9999 -9999 -9999 -9999 -9999 -9999 -9999 -9999 -9999 -9999 -9999 -9999 -9999 -9999 -9999 -9999 -9999 -9999 -9999 -9999 -9999 -9999 -9999 -9999 -9999 -9999 -9999 -9999 -9999 -9999 -9999 -9999 -9999 -9999 -9999 -9999 -9999 -9999 -9999 -9999 -9999 -9999 -9999 -9999 -9999 -9999 -9999 -9999 -9999 -9999 -9999 -9999 -9999 -9999 -9999 -9999 -9999 -9999 -9999 -9999 -9999 -9999 -9999 -9999 -9999 -9999 -9999 -9999 -9999 -9999 -9999 -9999 -9999 -9999 -9999 -9999 -9999 -9999 -9999 -9999 -9999 3400 3167 3093 2976 2900 3045 3157 3335 3186 3344 3507 3325 3306 3367 3439 3470 -9999 -9999 -9999 -9999 -9999 -9999 -9999 -9999 -9999 -9999 -9999 -9999 -9999 -9999 -9999 -9999 -9999 -9999 -9999 -9999 -9999 -9999 -9999 3670 3647 3600 3683 3575 3619 3607 3437 3605 3672 3631 -9999 -9999 -9999 -9999 -9999 -9999 -9999 -9999 -9999 -9999 -9999 -9999 -9999 -9999 -9999 -9999 -9999 -9999 -9999 -9999 -9999 -9999 -9999 -9999 -9999 -9999 -9999 -9999 -9999 -9999 -9999 -9999 -9999 -9999 -9999 -9999 -9999 -9999 -9999 -9999 -9999 -9999 -9999 -9999 -9999 -9999 -9999 -9999 -9999 -9999 -9999 -9999 -9999 -9999 -9999 -9999 -9999 -9999 -9999 -9999 -9999 -9999 -9999 -9999 -9999 -9999 -9999 -9999 -9999 -9999 -9999 -9999 -9999 -9999 -9999 -9999 -9999 -9999 -9999 -9999 -9999 -9999 -9999 -9999 -9999 -9999 -9999 -9999 -9999 -9999 -9999 -9999 -9999 -9999 -9999 -9999 -9999 -9999 -9999 -9999 -9999 -9999 -9999 -9999 -9999 -9999 -9999 -9999 -9999 -9999 -9999 -9999 -9999 -9999 -9999 -9999 -9999 -9999 -9999 -9999 -9999 -9999 -9999 -9999 -9999 -9999 -9999 -9999 -9999 -9999 -9999 -9999 -9999 -9999 -9999 -9999 -9999 -9999 -9999 -9999 -9999 -9999 -9999 -9999 -9999 -9999 -9999 -9999 -9999 -9999 -9999 -9999
-9999 -9999 -9999 -9999 -9999 -9999 -9999 -9999 -9999 -9999 -9999 -9999 -9999 -9999 -9999 -9999 -9999 -9999 -9999 -9999 -9999 -9999 -9999 -9999 -9999 -9999 -9999 -9999 -9999 -9999 -9999 -9999 -9999 -9999 -9999 -9999 -9999 -9999 -9999 -9999 -9999 -9999 -9999 -9999 -9999 -9999 -9999 -9999 -9999 -9999 -9999 -9999 -9999 -9999 -9999 -9999 -9999 -9999 -9999 -9999 -9999 -9999 -9999 -9999 -9999 -9999 -9999 -9999 -9999 -9999 -9999 -9999 -9999 -9999 -9999 -9999 -9999 -9999 -9999 -9999 -9999 -9999 -9999 -9999 -9999 -9999 -9999 -9999 -9999 -9999 -9999 -9999 -9999 -9999 -9999 -9999 -9999 -9999 -9999 -9999 -9999 -9999 -9999 -9999 -9999 -9999 -9999 -9999 -9999 -9999 -9999 -9999 -9999 -9999 -9999 -9999 -9999 -9999 -9999 -9999 -9999 -9999 -9999 -9999 -9999 -9999 -9999 -9999 -9999 -9999 -9999 -9999 -9999 -9999 -9999 -9999 -9999 -9999 -9999 -9999 -9999 -9999 -9999 -9999 -9999 -9999 -9999 -9999 -9999 -9999 -9999 -9999 -9999 -9999 -9999 -9999 -9999 -9999 3610 3455 3385 3372 3242 3164 2899 2941 3140 3224 3419 3230 3318 3473 3422 3419 3448 3478 3490 3581 -9999 -9999 -9999 -9999 -9999 -9999 -9999 -9999 -9999 -9999 -9999 -9999 -9999 -9999 -9999 -9999 -9999 -9999 -9999 -9999 3883 3794 3690 3602 3521 3505 3490 3521 3523 3387 3461 3469 3504 3551 3649 -9999 -9999 -9999 -9999 3742 3650 3689 -9999 -9999 -9999 -9999 -9999 -9999 -9999 -9999 -9999 -9999 -9999 -9999 -9999 -9999 -9999 -9999 -9999 -9999 -9999 -9999 -9999 -9999 -9999 -9999 -9999 -9999 -9999 -9999 -9999 -9999 -9999 -9999 -9999 -9999 -9999 -9999 -9999 -9999 -9999 -9999 -9999 -9999 -9999 -9999 -9999 -9999 -9999 -9999 -9999 -9999 -9999 -9999 -9999 -9999 -9999 -9999 -9999 -9999 -9999 -9999 -9999 -9999 -9999 -9999 -9999 -9999 -9999 -9999 -9999 -9999 -9999 -9999 -9999 -9999 -9999 -9999 -9999 -9999 -9999 -9999 -9999 -9999 -9999 -9999 -9999 -9999 -9999 -9999 -9999 -9999 -9999 -9999 -9999 -9999 -9999 -9999 -9999 -9999 -9999 -9999 -9999 -9999 -9999 -9999 -9999 -9999 -9999 -9999 -9999 -9999 -9999 -9999 -9999 -9999 -9999 -9999 -9999 -9999 -9999 -9999 -9999 -9999 -9999 -9999 -9999 -9999 -9999 -9999 -9999 -9999 -9999 -9999 -9999 -9999 -9999 -9999 -9999 -9999 -9999 -9999 -9999 -9999 -9999
-9999 -9999 -9999 -9999 -9999 -9999 -9999 -9999 -9999 -9999 -9999 -9999 -9999 -9999 -9999 -9999 -9999 -9999 -9999 -9999 -9999 -9999 -9999 -9999 -9999 -9999 -9999 -9999 -9999 -9999 -9999 -9999 -9999 -9999 -9999 -9999 -9999 -9999 -9999 -9999 -9999 -9999 -9999 -9999 -9999 -9999 -9999 -9999 -9999 -9999 -9999 -9999 -9999 -9999 -9999 -9999 -9999 -9999 -9999 -9999 -9999 -9999 -9999 -9999 -9999 -9999 -9999 -9999 -9999 -9999 -9999 -9999 -9999 -9999 -9999 -9999 -9999 -9999 -9999 -9999 -9999 -9999 -9999 -9999 -9999 -9999 -9999 -9999 -9999 -9999 -9999 -9999 -9999 -9999 -9999 -9999 -9999 -9999 -9999 -9999 -9999 -9999 -9999 -9999 -9999 -9999 -9999 -9999 -9999 -9999 -9999 -9999 -9999 -9999 -9999 -9999 -9999 -9999 -9999 -9999 -9999 -9999 -9999 -9999 -9999 -9999 -9999 -9999 -9999 -9999 -9999 -9999 -9999 -9999 -9999 -9999 -9999 -9999 -9999 -9999 -9999 -9999 -9999 -9999 -9999 -9999 -9999 -9999 -9999 -9999 -9999 -9999 -9999 -9999 -9999 3464 3398 3301 3136 3062 3306 3407 3248 3125 2855 2921 3174 3244 3361 3399 3339 3368 3511 3592 3826 3640 3612 3626 -9999 -9999 -9999 -9999 -9999 -9999 -9999 -9999 -9999 -9999 -9999 -9999 -9999 -9999 -9999 -9999 -9999 -9999 -9999 3929 3749 3576 3552 3546 3358 3231 3332 3401 3334 3247 3272 3442 3523 3679 3677 3790 3810 3882 3707 3531 3531 3609 -9999 -9999 -9999 -9999 -9999 -9999 -9999 -9999 -9999 -9999 -9999 -9999 -9999 -9999 -9999 -9999 -9999 -9999 -9999 -9999 -9999 -9999 -9999 -9999 -9999 -9999 -9999 -9999 -9999 -9999 -9999 -9999 -9999 -9999 -9999 -9999 -9999 -9999 -9999 -9999 -9999 -9999 -9999 -9999 -9999 -9999 -9999 -9999 -9999 -9999 -9999 -9999 -9999 -9999 -9999 -9999 -9999 -9999 -9999 -9999 -9999 -9999 -9999 -9999 -9999 -9999 -9999 -9999 -9999 -9999 -9999 -9999 -9999 -9999 -9999 -9999 -9999 -9999 -9999 -9999 -9999 -9999 -9999 -9999 -9999 -9999 -9999 -9999 -9999 -9999 -9999 -9999 -9999 -9999 -9999 -9999 -9999 -9999 -9999 -9999 -9999 -9999 -9999 -9999 -9999 -9999 -9999 -9999 -9999 -9999 -9999 -9999 -9999 -9999 -9999 -9999 -9999 -9999 -9999 -9999 -9999 -9999 -9999 -9999 -9999 -9999 -9999 -9999 -9999 -9999 -9999 -9999 -9999 -9999 -9999 -9999 -9999 -9999 -9999 -9999 -9999 -9999 -9999
-9999 -9999 -9999 -9999 -9999 -9999 -9999 -9999 -9999 -9999 -9999 -9999 -9999 -9999 -9999 -9999 -9999 -9999 -9999 -9999 -9999 -9999 -9999 -9999 -9999 -9999 -9999 -9999 -9999 -9999 -9999 -9999 -9999 -9999 -9999 -9999 -9999 -9999 -9999 -9999 -9999 -9999 -9999 -9999 -9999 -9999 -9999 -9999 -9999 -9999 -9999 -9999 -9999 -9999 -9999 -9999 -9999 -9999 -9999 -9999 -9999 -9999 -9999 -9999 -9999 -9999 -9999 -9999 -9999 -9999 -9999 -9999 -9999 -9999 -9999 -9999 -9999 -9999 -9999 -9999 -9999 -9999 -9999 -9999 -9999 -9999 -9999 -9999 -9999 -9999 -9999 -9999 -9999 -9999 -9999 -9999 -9999 -9999 -9999 -9999 -9999 -9999 -9999 -9999 -9999 -9999 -9999 -9999 -9999 -9999 -9999 -9999 -9999 -9999 -9999 -9999 -9999 -9999 -9999 -9999 -9999 -9999 -9999 -9999 -9999 -9999 -9999 -9999 -9999 -9999 -9999 -9999 -9999 -9999 -9999 -9999 -9999 -9999 -9999 -9999 -9999 -9999 -9999 -9999 -9999 -9999 -9999 -9999 -9999 -9999 -9999 -9999 -9999 -9999 3422 3193 2986 2883 2810 3026 3074 3054 2993 3028 2820 2849 3166 3320 3457 3669 3555 3481 3473 3587 3876 3761 3790 3774 -9999 -9999 -9999 -9999 -9999 3681 3660 3785 -9999 -9999 -9999 -9999 -9999 -9999 -9999 -9999 -9999 -9999 -9999 3748 3683 3585 3477 3419 3372 3137 3112 3174 3135 3183 3274 3454 3561 3623 3599 3672 3579 3469 3475 3356 3346 3406 3505 3665 -9999 -9999 -9999 -9999 -9999 -9999 -9999 -9999 -9999 -9999 -9999 -9999 -9999 -9999 -9999 -9999 -9999 -9999 -9999 -9999 -9999 -9999 -9999 -9999 -9999 -9999 -9999 -9999 -9999 -9999 -9999 -9999 -9999 -9999 -9999 -9999 -9999 -9999 -9999 -9999 -9999 -9999 -9999 -9999 -9999 -9999 -9999 -9999 -9999 -9999 -9999 -9999 -9999 -9999 -9999 -9999 -9999 -9999 -9999 -9999 -9999 -9999 -9999 -9999 -9999 -9999 -9999 -9999 -9999 -9999 -9999 -9999 -9999 -9999 -9999 -9999 -9999 -9999 -9999 -9999 -9999 -9999 -9999 -9999 -9999 -9999 -9999 -9999 -9999 -9999 -9999 -9999 -9999 -9999 -9999 -9999 -9999 -9999 -9999 -9999 -9999 -9999 -9999 -9999 -9999 -9999 -9999 -9999 -9999 -9999 -9999 -9999 -9999 -9999 -9999 -9999 -9999 -9999 -9999 -9999 -9999 -9999 -9999 -9999 -9999 -9999 -9999 -9999 -9999 -9999 -9999 -9999 -9999 -9999 -9999 -9999 -9999 -9999 -9999 -9999 -9999
-9999 -9999 -9999 -9999 -9999 -9999 -9999 -9999 -9999 -9999 -9999 -9999 -9999 -9999 -9999 -9999 -9999 -9999 -9999 -9999 -9999 -9999 -9999 -9999 -9999 -9999 -9999 -9999 -9999 -9999 -9999 -9999 -9999 -9999 -9999 -9999 -9999 -9999 -9999 -9999 -9999 -9999 -9999 -9999 -9999 -9999 -9999 -9999 -9999 -9999 -9999 -9999 -9999 -9999 -9999 -9999 -9999 -9999 -9999 -9999 -9999 -9999 -9999 -9999 -9999 -9999 -9999 -9999 -9999 -9999 -9999 -9999 -9999 -9999 -9999 -9999 -9999 -9999 -9999 -9999 -9999 -9999 -9999 -9999 -9999 -9999 -9999 -9999 -9999 -9999 -9999 -9999 -9999 -9999 -9999 -9999 -9999 -9999 -9999 -9999 -9999 -9999 -9999 -9999 -9999 -9999 -9999 -9999 -9999 -9999 -9999 -9999 -9999 -9999 -9999 -9999 -9999 -9999 -9999 -9999 -9999 -9999 -9999 -9999 -9999 -9999 -9999 -9999 -9999 -9999 -9999 -9999 -9999 -9999 -9999 -9999 -9999 -9999 -9999 -9999 -9999 -9999 -9999 -9999 -9999 -9999 -9999 -9999 -9999 3355 3357 3505 3329 3090 2976 2828 2699 2669 2667 2676 2695 2709 2717 2709 2766 2978 3112 3172 3318 3474 3666 3584 3683 3680 3758 3825 3758 3636 3573 3574 3585 3584 3565 3566 3592 3826 3860 3746 3778 -9999 -9999 -9999 -9999 -9999 -9999 -9999 -9999 3640 3559 3383 3286 3281 3267 3142 2937 3190 3239 3333 3484 3413 3346 3169 3182 3247 3173 3072 2993 2925 2921 2954 3053 3198 3427 3548 -9999 -9999 -9999 -9999 -9999 -9999 -9999 -9999 -9999 -9999 -9999 -9999 -9999 -9999 -9999 -9999 -9999 -9999 -9999 -9999 -9999 -9999 -9999 -9999 -9999 -9999 -9999 -9999 -9999 -9999 -9999 -9999 -9999 -9999 -9999 -9999 -9999 -9999 -9999 -9999 -9999 -9999 -9999 -9999 -9999 -9999 -9999 -9999 -9999 -9999 -9999 -9999 -9999 -9999 -9999 -9999 -9999 -9999 -9999 -9999 -9999 -9999 -9999 -9999 -9999 -9999 -9999 -9999 -9999 -9999 -9999 -9999 -9999 -9999 -9999 -9999 -9999 -9999 -9999 -9999 -9999 -9999 -9999 -9999 -9999 -9999 -9999 -9999 -9999 -9999 -9999 -9999 -9999 -9999 -9999 -9999 -9999 -9999 -9999 -9999 -9999 -9999 -9999 -9999 -9999 -9999 -9999 -9999 -9999 -9999 -9999 -9999 -9999 -9999 -9999 -9999 -9999 -9999 -9999 -9999 -9999 -9999 -9999 -9999 -9999 -9999 -9999 -9999 -9999 -9999 -9999 -9999 -9999 -9999 -9999 -9999 -9999 -9999 -9999
-9999 -9999 -9999 -9999 -9999 -9999 -9999 -9999 -9999 -9999 -9999 -9999 -9999 -9999 -9999 -9999 -9999 -9999 -9999 -9999 -9999 -9999 -9999 -9999 -9999 -9999 -9999 -9999 -9999 -9999 -9999 -9999 -9999 -9999 -9999 -9999 -9999 -9999 -9999 -9999 -9999 -9999 -9999 -9999 -9999 -9999 -9999 -9999 -9999 -9999 -9999 -9999 -9999 -9999 -9999 -9999 -9999 -9999 -9999 -9999 -9999 -9999 -9999 -9999 -9999 -9999 -9999 -9999 -9999 -9999 -9999 -9999 -9999 -9999 -9999 -9999 -9999 -9999 -9999 -9999 -9999 -9999 -9999 -9999 -9999 -9999 -9999 -9999 -9999 -9999 -9999 -9999 -9999 -9999 -9999 -9999 -9999 -9999 -9999 -9999 -9999 -9999 -9999 -9999 -9999 -9999 -9999 -9999 -9999 -9999 -9999 -9999 -9999 -9999 -9999 -9999 -9999 -9999 -9999 -9999 -9999 -9999 -9999 -9999 -9999 -9999 -9999 -9999 -9999 -9999 -9999 -9999 -9999 -9999 -9999 -9999 -9999 -9999 -9999 -9999 -9999 -9999 -9999 -9999 -9999 -9999 -9999 -9999 3237 2964 3091 2998 2853 2706 2619 2557 2593 2646 2647 2681 2716 2694 2670 2676 2685 2699 2774 2834 2968 3160 3479 3484 3464 3527 3558 3441 3393 3308 3304 3359 3369 3398 3430 3433 3445 3530 3495 3556 3628 3544 3487 3385 3477 3492 -9999 3451 3424 3412 3340 3456 3335 3150 2956 2832 2927 3277 3266 3262 3144 3045 2980 2833 2846 2766 2744 2704 2725 2869 2862 2846 2869 2851 2993 3107 3390 -9999 -9999 -9999 -9999 -9999 -9999 -9999 -9999 -9999 -9999 -9999 -9999 -9999 -9999 -9999 -9999 -9999 -9999 -9999 -9999 -9999 -9999 -9999 -9999 -9999 -9999 -9999 -9999 -9999 -9999 -9999 -9999 -9999 -9999 -9999 -9999 -9999 -9999 -9999 -9999 -9999 -9999 -9999 -9999 -9999 -9999 -9999 -9999 -9999 -9999 -9999 -9999 -9999 -9999 -9999 -9999 -9999 -9999 -9999 -9999 -9999 -9999 -9999 -9999 -9999 -9999 -9999 -9999 -9999 -9999 -9999 -9999 -9999 -9999 -9999 -9999 -9999 -9999 -9999 -9999 -9999 -9999 -9999 -9999 -9999 -9999 -9999 -9999 -9999 -9999 -9999 -9999 -9999 -9999 -9999 -9999 -9999 -9999 -9999 -9999 -9999 -9999 -9999 -9999 -9999 -9999 -9999 -9999 -9999 -9999 -9999 -9999 -9999 -9999 -9999 -9999 -9999 -9999 -9999 -9999 -9999 -9999 -9999 -9999 -9999 -9999 -9999 -9999 -9999 -9999 -9999 -9999 -9999 -9999 -9999 -9999 -9999 -9999
-9999 -9999 -9999 -9999 -9999 -9999 -9999 -9999 -9999 -9999 -9999 -9999 -9999 -9999 -9999 -9999 -9999 -9999 -9999 -9999 -9999 -9999 -9999 -9999 -9999 -9999 -9999 -9999 -9999 -9999 -9999 -9999 -9999 -9999 -9999 -9999 -9999 -9999 -9999 -9999 -9999 -9999 -9999 -9999 -9999 -9999 -9999 -9999 -9999 -9999 -9999 -9999 -9999 -9999 -9999 -9999 -9999 -9999 -9999 -9999 -9999 -9999 -9999 -9999 -9999 -9999 -9999 -9999 -9999 -9999 -9999 -9999 -9999 -9999 -9999 -9999 -9999 -9999 -9999 -9999 -9999 -9999 -9999 -9999 -9999 -9999 -9999 -9999 -9999 -9999 -9999 -9999 -9999 -9999 -9999 -9999 -9999 -9999 -9999 -9999 -9999 -9999 -9999 -9999 -9999 -9999 -9999 -9999 -9999 -9999 -9999 -9999 -9999 -9999 -9999 -9999 -9999 -9999 -9999 -9999 -9999 -9999 -9999 -9999 -9999 -9999 -9999 -9999 -9999 -9999 -9999 -9999 -9999 -9999 -9999 -9999 -9999 -9999 -9999 -9999 -9999 -9999 -9999 -9999 -9999 -9999 -9999 3339 3075 2802 2915 2790 2661 2559 2528 2573 2625 2684 2723 2815 2857 2865 2807 2850 2816 2749 2709 2730 2813 3006 3279 3256 3253 3304 3335 3247 3227 3246 3391 3426 3432 3442 3439 3448 3430 3344 3246 3376 3413 3545 3365 3212 3258 3316 3496 3267 3191 3185 3161 3338 3322 3206 2804 2714 3047 3064 3014 2999 2927 2776 2734 2686 2699 2668 2684 2784 2902 3056 3118 3110 2986 2862 2872 2955 3231 3520 3752 -9999 -9999 -9999 -9999 -9999 -9999 -9999 -9999 -9999 -9999 -9999 -9999 -9999 -9999 -9999 -9999 -9999 -9999 -9999 -9999 -9999 -9999 -9999 -9999 -9999 -9999 -9999 -9999 -9999 -9999 -9999 -9999 -9999 -9999 -9999 -9999 -9999 -9999 -9999 -9999 -9999 -9999 -9999 -9999 -9999 -9999 -9999 -9999 -9999 -9999 -9999 -9999 -9999 -9999 -9999 -9999 -9999 -9999 -9999 -9999 -9999 -9999 -9999 -9999 -9999 -9999 -9999 -9999 -9999 -9999 -9999 -9999 -9999 -9999 -9999 -9999 -9999 -9999 -9999 -9999 -9999 -9999 -9999 -9999 -9999 -9999 -9999 -9999 -9999 -9999 -9999 -9999 -9999 -9999 -9999 -9999 -9999 -9999 -9999 -9999 -9999 -9999 -9999 -9999 -9999 -9999 -9999 -9999 -9999 -9999 -9999 -9999 -9999 -9999 -9999 -9999 -9999 -9999 -9999 -9999 -9999 -9999 -9999 -9999 -9999 -9999 -9999 -9999 -9999 -9999 -9999 -9999 -9999 -9999 -9999 -9999
-9999 -9999 -9999 -9999 -9999 -9999 -9999 -9999 -9999 -9999 -9999 -9999 -9999 -9999 -9999 -9999 -9999 -9999 -9999 -9999 -9999 -9999 -9999 -9999 -9999 -9999 -9999 -9999 -9999 -9999 -9999 -9999 -9999 -9999 -9999 -9999 -9999 -9999 -9999 -9999 -9999 -9999 -9999 -9999 -9999 -9999 -9999 -9999 -9999 -9999 -9999 -9999 -9999 -9999 -9999 -9999 -9999 -9999 -9999 -9999 -9999 -9999 -9999 -9999 -9999 -9999 -9999 -9999 -9999 -9999 -9999 -9999 -9999 -9999 -9999 -9999 -9999 -9999 -9999 -9999 -9999 -9999 -9999 -9999 -9999 -9999 -9999 -9999 -9999 -9999 -9999 -9999 -9999 -9999 -9999 -9999 -9999 -9999 -9999 -9999 -9999 -9999 -9999 -9999 -9999 -9999 -9999 -9999 -9999 -9999 -9999 -9999 -9999 -9999 -9999 -9999 -9999 -9999 -9999 -9999 -9999 -9999 -9999 -9999 -9999 -9999 -9999 -9999 -9999 -9999 -9999 -9999 -9999 -9999 -9999 -9999 -9999 -9999 -9999 -9999 -9999 -9999 -9999 3251 3220 3226 3269 3032 2792 2598 2600 2493 2534 2655 2710 2849 2836 2961 2866 2920 3226 3242 3083 3219 3228 3000 2842 2995 2911 2774 2854 2893 2941 2986 3113 3282 3371 3402 3365 3573 3736 3624 3573 3691 3598 3420 3033 3017 3064 3292 3425 3079 2898 2990 3167 2909 2839 2957 3161 3150 3072 2920 2690 2580 2608 2596 2575 2567 2577 2616 2646 2705 2767 2944 3045 3224 3239 3382 3447 3633 3284 3244 2898 2855 2981 3317 3619 3753 -9999 -9999 -9999 -9999 -9999 -9999 -9999 -9999 -9999 -9999 -9999 -9999 -9999 -9999 -9999 -9999 -9999 -9999 -9999 -9999 -9999 -9999 -9999 -9999 -9999 -9999 -9999 -9999 -9999 -9999 -9999 -9999 -9999 -9999 -9999 -9999 -9999 -9999 -9999 -9999 -9999 -9999 -9999 -9999 -9999 -9999 -9999 -9999 -9999 -9999 -9999 -9999 -9999 -9999 -9999 -9999 -9999 -9999 -9999 -9999 -9999 -9999 -9999 -9999 -9999 -9999 -9999 -9999 -9999 -9999 -9999 -9999 -9999 -9999 -9999 -9999 -9999 -9999 -9999 -9999 -9999 -9999 -9999 -9999 -9999 -9999 -9999 -9999 -9999 -9999 -9999 -9999 -9999 -9999 -9999 -9999 -9999 -9999 -9999 -9999 -9999 -9999 -9999 -9999 -9999 -9999 -9999 -9999 -9999 -9999 -9999 -9999 -9999 -9999 -9999 -9999 -9999 -9999 -9999 -9999 -9999 -9999 -9999 -9999 -9999 -9999 -9999 -9999 -9999 -9999 -9999 -9999 -9999 -9999 -9999
-9999 -9999 -9999 -9999 -9999 -9999 -9999 -9999 -9999 -9999 -9999 -9999 -9999 -9999 -9999 -9999 -9999 -9999 -9999 -9999 -9999 -9999 -9999 -9999 -9999 -9999 -9999 -9999 -9999 -9999 -9999 -9999 -9999 -9999 -9999 -9999 -9999 -9999 -9999 -9999 -9999 -9999 -9999 -9999 -9999 -9999 -9999 -9999 -9999 -9999 -9999 -9999 -9999 -9999 -9999 -9999 -9999 -9999 -9999 -9999 -9999 -9999 -9999 -9999 -9999 -9999 -9999 -9999 -9999 -9999 -9999 -9999 -9999 -9999 -9999 -9999 -9999 -9999 -9999 -9999 -9999 -9999 -9999 -9999 -9999 -9999 -9999 -9999 -9999 -9999 -9999 -9999 -9999 -9999 -9999 -9999 -9999 -9999 -9999 -9999 -9999 -9999 -9999 -9999 -9999 -9999 -9999 -9999 -9999 -9999 -9999 -9999 -9999 -9999 -9999 -9999 -9999 -9999 -9999 -9999 -9999 -9999 -9999 -9999 -9999 -9999 -9999 -9999 -9999 -9999 -9999 -9999 -9999 -9999 -9999 -9999 -9999 -9999 -9999 -9999 -9999 -9999 3097 2913 2844 2836 2798 2970 2752 2512 2471 2603 2779 2648 2740 2906 3142 3153 3028 2948 3252 3527 3347 3364 3292 3028 2935 3094 3038 2922 3136 3119 3242 3229 3099 3202 3341 3562 3496 3569 3613 3724 3579 3565 3505 3428 3100 2828 2838 3015 3303 3113 2731 2638 2791 2671 2635 2703 2730 2633 2539 2505 2502 2544 2645 2713 2738 2799 2904 2891 3007 3041 2924 3256 3328 3549 3463 3483 3696 3622 3521 3205 3201 3077 2892 3027 3365 3480 3775 3914 3948 4153 -9999 -9999 -9999 -9999 -9999 -9999 -9999 -9999 -9999 -9999 -9999 -9999 -9999 -9999 -9999 -9999 -9999 -9999 -9999 -9999 -9999 -9999 -9999 -9999 -9999 -9999 -9999 -9999 -9999 -9999 -9999 -9999 -9999 -9999 -9999 -9999 -9999 -9999 -9999 -9999 -9999 -9999 -9999 -9999 -9999 -9999 -9999 -9999 -9999 -9999 -9999 -9999 -9999 -9999 -9999 -9999 -9999 -9999 -9999 -9999 -9999 -9999 -9999 -9999 -9999 -9999 -9999 -9999 -9999 -9999 -9999 -9999 -9999 -9999 -9999 -9999 -9999 -9999 -9999 -9999 -9999 -9999 -9999 -9999 -9999 -9999 -9999 -9999 -9999 -9999 -9999 -9999 -9999 -9999 -9999 -9999 -9999 -9999 -9999 -9999 -9999 -9999 -9999 -9999 -9999 -9999 -9999 -9999 -9999 -9999 -9999 -9999 -9999 -9999 -9999 -9999 -9999 -9999 -9999 -9999 -9999 -9999 -9999 -9999 -9999 -9999 -9999 -9999 -9999 -9999 -9999
-9999 -9999 -9999 -9999 -9999 -9999 -9999 -9999 -9999 -9999 -9999 -9999 -9999 -9999 -9999 -9999 -9999 -9999 -9999 -9999 -9999 -9999 -9999 -9999 -9999 -9999 -9999 -9999 -9999 -9999 -9999 -9999 -9999 -9999 -9999 -9999 -9999 -9999 -9999 -9999 -9999 -9999 -9999 -9999 -9999 -9999 -9999 -9999 -9999 -9999 -9999 -9999 -9999 -9999 -9999 -9999 -9999 -9999 -9999 -9999 -9999 -9999 -9999 -9999 -9999 -9999 -9999 -9999 -9999 -9999 -9999 -9999 -9999 -9999 -9999 -9999 -9999 -9999 -9999 -9999 -9999 -9999 -9999 -9999 -9999 -9999 -9999 -9999 -9999 -9999 -9999 -9999 -9999 -9999 -9999 -9999 -9999 -9999 -9999 -9999 -9999 -9999 -9999 -9999 -9999 -9999 -9999 -9999 -9999 -9999 -9999 -9999 -9999 -9999 -9999 -9999 -9999 -9999 -9999 -9999 -9999 -9999 -9999 -9999 -9999 -9999 -9999 -9999 -9999 -9999 -9999 -9999 -9999 -9999 -9999 -9999 -9999 -9999 -9999 3398 3173 3088 3103 3013 2783 2670 2644 2614 2481 2544 2637 2882 3057 2798 2768 3011 3324 3489 3373 3058 3107 3464 3590 3531 3238 3043 3042 3220 3142 3224 3548 3369 3574 3574 3380 3332 3365 3462 3619 3787 3750 3789 3581 3320 3144 3047 2892 2765 2630 2845 2865 2856 2709 2620 2420 2384 2398 2419 2442 2480 2533 2575 2734 2626 2673 2936 3060 3218 3163 3220 3190 3415 3189 3251 3360 3621 3678 3836 3778 3645 3527 3304 3497 3537 3081 2925 3092 3217 3493 3734 3962 -9999 -9999 -9999 -9999 -9999 -9999 -9999 -9999 -9999 -9999 -9999 -9999 -9999 -9999 -9999 -9999 -9999 -9999 -9999 -9999 -9999 -9999 -9999 -9999 -9999 -9999 -9999 -9999 -9999 -9999 -9999 -9999 -9999 -9999 -9999 -9999 -9999 -9999 -9999 -9999 -9999 -9999 -9999 -9999 -9999 -9999 -9999 -9999 -9999 -9999 -9999 -9999 -9999 -9999 -9999 -9999 -9999 -9999 -9999 -9999 -9999 -9999 -9999 -9999 -9999 -9999 -9999 -9999 -9999 -9999 -9999 -9999 -9999 -9999 -9999 -9999 -9999 -9999 -9999 -9999 -9999 -9999 -9999 -9999 -9999 -9999 -9999 -9999 -9999 -9999 -9999 -9999 -9999 -9999 -9999 -9999 -9999 -9999 -9999 -9999 -9999 -9999 -9999 -9999 -9999 -9999 -9999 -9999 -9999 -9999 -9999 -9999 -9999 -9999 -9999 -9999 -9999 -9999 -9999 -9999 -9999 -9999 -9999 -9999 -9999 -9999 -9999 -9999 -9999 -9999 -9999 -9999
-9999 -9999 -9999 -9999 -9999 -9999 -9999 -9999 -9999 -9999 -9999 -9999 -9999 -9999 -9999 -9999 -9999 -9999 -9999 -9999 -9999 -9999 -9999 -9999 -9999 -9999 -9999 -9999 -9999 -9999 -9999 -9999 -9999 -9999 -9999 -9999 -9999 -9999 -9999 -9999 -9999 -9999 -9999 -9999 -9999 -9999 -9999 -9999 -9999 -9999 -9999 -9999 -9999 -9999 -9999 -9999 -9999 -9999 -9999 -9999 -9999 -9999 -9999 -9999 -9999 -9999 -9999 -9999 -9999 -9999 -9999 -9999 -9999 -9999 -9999 -9999 -9999 -9999 -9999 -9999 -9999 -9999 -9999 -9999 -9999 -9999 -9999 -9999 -9999 -9999 -9999 -9999 -9999 -9999 -9999 -9999 -9999 -9999 -9999 -9999 -9999 -9999 -9999 -9999 -9999 -9999 -9999 -9999 -9999 -9999 -9999 -9999 -9999 -9999 -9999 -9999 -9999 -9999 -9999 -9999 -9999 -9999 -9999 -9999 -9999 -9999 -9999 -9999 -9999 -9999 -9999 -9999 -9999 -9999 -9999 -9999 -9999 -9999 -9999 3366 3163 3098 2959 3023 2832 2664 2489 2449 2515 2667 2803 2877 3036 2870 2832 3028 3350 3570 3426 3120 3096 3384 3690 3591 3264 3120 3267 3497 3263 3317 3646 3488 3597 3697 3667 3460 3457 3529 3640 3880 3824 3612 3357 3124 2951 2881 2758 2640 2555 2777 2648 2622 2464 2409 2364 2382 2413 2428 2461 2610 2739 2811 2956 2813 2634 2764 2916 3160 3316 3421 3444 3563 3300 3260 3334 3498 3742 3960 3775 3660 3569 3311 3532 3609 3178 2947 3012 3163 3461 3776 3871 4080 -9999 -9999 -9999 3992 3981 4080 -9999 -9999 -9999 -9999 -9999 -9999 -9999 -9999 -9999 -9999 -9999 -9999 -9999 -9999 -9999 -9999 -9999 -9999 -9999 -9999 -9999 -9999 -9999 -9999 -9999 -9999 -9999 -9999 -9999 -9999 -9999 -9999 -9999 -9999 -9999 -9999 -9999 -9999 -9999 -9999 -9999 -9999 -9999 -9999 -9999 -9999 -9999 -9999 -9999 -9999 -9999 -9999 -9999 -9999 -9999 -9999 -9999 -9999 -9999 -9999 -9999 -9999 -9999 -9999 -9999 -9999 -9999 -9999 -9999 -9999 -9999 -9999 -9999 -9999 -9999 -9999 -9999 -9999 -9999 -9999 -9999 -9999 -9999 -9999 -9999 -9999 -9999 -9999 -9999 -9999 -9999 -9999 -9999 -9999 -9999 -9999 -9999 -9999 -9999 -9999 -9999 -9999 -9999 -9999 -9999 -9999 -9999 -9999 -9999 -9999 -9999 -9999 -9999 -9999 -9999 -9999 -9999 -9999 -9999 -9999 -9999 -9999 -9999 -9999 -9999
-9999 -9999 -9999 -9999 -9999 -9999 -9999 -9999 -9999 -9999 -9999 -9999 -9999 -9999 -9999 -9999 -9999 -9999 -9999 -9999 -9999 -9999 -9999 -9999 -9999 -9999 -9999 -9999 -9999 -9999 -9999 -9999 -9999 -9999 -9999 -9999 -9999 -9999 -9999 -9999 -9999 -9999 -9999 -9999 -9999 -9999 -9999 -9999 -9999 -9999 -9999 -9999 -9999 -9999 -9999 -9999 -9999 -9999 -9999 -9999 -9999 -9999 -9999 -9999 -9999 -9999 -9999 -9999 -9999 -9999 -9999 -9999 -9999 -9999 -9999 -9999 -9999 -9999 -9999 -9999 -9999 -9999 -9999 -9999 -9999 -9999 -9999 -9999 -9999 -9999 -9999 -9999 -9999 -9999 -9999 -9999 -9999 -9999 -9999 -9999 -9999 -9999 -9999 -9999 -9999 -9999 -9999 -9999 -9999 -9999 -9999 -9999 -9999 -9999 -9999 -9999 -9999 -9999 -9999 -9999 -9999 -9999 -9999 -9999 -9999 -9999 -9999 -9999 -9999 -9999 -9999 -9999 -9999 -9999 -9999 -9999 -9999 -9999 3406 3193 2952 2902 2832 2586 2632 2481 2456 2573 2706 2966 3063 3149 3212 3089 3029 3068 3416 3745 3603 3352 3296 3699 4039 3950 3433 3389 3783 3743 3556 3433 3707 3580 3708 3744 3629 3552 3561 3768 3623 3457 3270 3107 2965 2806 2719 2548 2477 2427 2406 2409 2346 2330 2358 2375 2424 2552 2645 2552 2484 2645 2947 3090 3280 3241 3063 2845 2796 2765 2924 3180 3330 3431 3664 3581 3474 3553 3617 3751 3965 3903 3663 3422 3477 3603 3623 3135 2947 2994 3235 3340 3535 3739 3783 3882 3852 3888 3901 4010 -9999 -9999 -9999 -9999 -9999 -9999 -9999 -9999 -9999 -9999 -9999 -9999 -9999 -9999 -9999 -9999 -9999 -9999 -9999 -9999 -9999 -9999 -9999 -9999 -9999 -9999 -9999 -9999 -9999 -9999 -9999 -9999 -9999 -9999 -9999 -9999 -9999 -9999 -9999 -9999 -9999 -9999 -9999 -9999 -9999 -9999 -9999 -9999 -9999 -9999 -9999 -9999 -9999 -9999 -9999 -9999 -9999 -9999 -9999 -9999 -9999 -9999 -9999 -9999 -9999 -9999 -9999 -9999 -9999 -9999 -9999 -9999 -9999 -9999 -9999 -9999 -9999 -9999 -9999 -9999 -9999 -9999 -9999 -9999 -9999 -9999 -9999 -9999 -9999 -9999 -9999 -9999 -9999 -9999 -9999 -9999 -9999 -9999 -9999 -9999 -9999 -9999 -9999 -9999 -9999 -9999 -9999 -9999 -9999 -9999 -9999 -9999 -9999 -9999 -9999 -9999 -9999 -9999 -9999 -9999 -9999 -9999 -9999 -9999 -9999
-9999 -9999 -9999 -9999 -9999 -9999 -9999 -9999 -9999 -9999 -9999 -9999 -9999 -9999 -9999 -9999 -9999 -9999 -9999 -9999 -9999 -9999 -9999 -9999 -9999 -9999 -9999 -9999 -9999 -9999 -9999 -9999 -9999 -9999 -9999 -9999 -9999 -9999 -9999 -9999 -9999 -9999 -9999 -9999 -9999 -9999 -9999 -9999 -9999 -9999 -9999 -9999 -9999 -9999 -9999 -9999 -9999 -9999 -9999 -9999 -9999 -9999 -9999 -9999 -9999 -9999 -9999 -9999 -9999 -9999 -9999 -9999 -9999 -9999 -9999 -9999 -9999 -9999 -9999 -9999 -9999 -9999 -9999 -9999 -9999 -9999 -9999 -9999 -9999 -9999 -9999 -9999 -9999 -9999 -9999 -9999 -9999 -9999 -9999 -9999 -9999 -9999 -9999 -9999 -9999 -9999 -9999 -9999 -9999 -9999 -9999 -9999 -9999 -9999 -9999 -9999 -9999 -9999 -9999 -9999 -9999 -9999 -9999 -9999 -9999 -9999 -9999 -9999 -9999 -9999 -9999 -9999 -9999 -9999 -9999 -9999 -9999 -9999 3266 3070 2884 2726 2481 2418 2406 2445 2658 2857 2772 2974 3022 3213 3484 3395 3421 3285 3495 3786 3926 3698 3629 4052 3846 3817 3570 3487 3653 3653 3532 3520 3752 3730 3931 3822 3871 3829 3765 3609 3358 3047 2940 2747 2624 2536 2474 2352 2316 2299 2305 2325 2383 2439 2528 2607 2671 2717 2942 3020 2855 2657 2587 2719 2829 3059 3303 3283 3197 3133 2916 2884 2994 3277 3521 3742 3815 3713 3775 3780 3806 3697 3565 3485 3523 3672 3723 3376 3077 2989 3096 3448 3460 3460 3509 3628 3732 3801 3858 4032 4250 -9999 -9999 -9999 -9999 -9999 -9999 3818 3791 -9999 -9999 -9999 -9999 -9999 -9999 -9999 -9999 -9999 -9999 -9999 -9999 -9999 -9999 -9999 -9999 -9999 -9999 -9999 -9999 -9999 -9999 -9999 -9999 -9999 -9999 -9999 -9999 -9999 -9999 -9999 -9999 -9999 -9999 -9999 -9999 -9999 -9999 -9999 -9999 -9999 -9999 -9999 -9999 -9999 -9999 -9999 -9999 -9999 -9999 -9999 -9999 3579 -9999 -9999 -9999 -9999 -9999 -9999 -9999 -9999 -9999 -9999 -9999 -9999 -9999 -9999 -9999 -9999 -9999 -9999 -9999 -9999 -9999 -9999 -9999 -9999 -9999 -9999 -9999 -9999 -9999 -9999 -9999 -9999 -9999 -9999 -9999 -9999 -9999 -9999 -9999 -9999 -9999 -9999 -9999 -9999 -9999 -9999 -9999 -9999 -9999 -9999 -9999 -9999 -9999 -9999 -9999 -9999 -9999 -9999 -9999 -9999 -9999 -9999 -9999
-9999 -9999 -9999 -9999 -9999 -9999 -9999 -9999 -9999 -9999 -9999 -9999 -9999 -9999 -9999 -9999 -9999 -9999 -9999 -9999 -9999 -9999 -9999 -9999 -9999 -9999 -9999 -9999 -9999 -9999 -9999 -9999 -9999 -9999 -9999 -9999 -9999 -9999 -9999 -9999 -9999 -9999 -9999 -9999 -9999 -9999 -9999 -9999 -9999 -9999 -9999 -9999 -9999 -9999 -9999 -9999 -9999 -9999 -9999 -9999 -9999 -9999 -9999 -9999 -9999 -9999 -9999 -9999 -9999 -9999 -9999 -9999 -9999 -9999 -9999 -9999 -9999 -9999 -9999 -9999 -9999 -9999 -9999 -9999 -9999 -9999 -9999 -9999 -9999 -9999 -9999 -9999 -9999 -9999 -9999 -9999 -9999 -9999 -9999 -9999 -9999 -9999 -9999 -9999 -9999 -9999 -9999 -9999 -9999 -9999 -9999 -9999 -9999 -9999 -9999 -9999 -9999 -9999 -9999 -9999 -9999 -9999 -9999 -9999 -9999 -9999 -9999 -9999 -9999 -9999 -9999 -9999 -9999 -9999 -9999 -9999 -9999 3401 3166 2886 2613 2510 2382 2456 2583 2617 2896 3089 3072 3146 3247 3396 3697 3849 3689 3842 3605 3745 3866 3853 3772 3644 3638 3585 3610 3783 3839 3796 3628 3592 3657 3816 3668 3531 3481 3414 3482 3352 2997 2778 2673 2553 2396 2281 2264 2314 2401 2404 2420 2438 2493 2585 2672 2722 2777 2971 2907 3011 3250 3146 2938 2861 2787 2780 3165 3492 3608 3494 3340 3129 3024 3063 3218 3543 3691 3983 4039 3979 3838 3833 3613 3725 3589 3648 3867 3545 3234 3051 3049 3389 3709 3812 3777 3707 3789 4034 4115 4151 4076 4044 4056 -9999 -9999 -9999 3916 3730 3631 3619 3620 3624 3657 3617 3620 3579 3508 3532 3535 3578 3678 -9999 -9999 -9999 -9999 -9999 -9999 -9999 -9999 -9999 -9999 -9999 -9999 -9999 -9999 -9999 -9999 -9999 -9999 -9999 -9999 -9999 -9999 -9999 -9999 -9999 -9999 -9999 -9999 -9999 -9999 -9999 -9999 -9999 -9999 -9999 -9999 -9999 3275 3177 3227 3244 3251 3367 3423 -9999 -9999 3601 3757 -9999 -9999 -9999 -9999 -9999 -9999 -9999 -9999 -9999 -9999 -9999 -9999 -9999 -9999 -9999 -9999 -9999 -9999 -9999 -9999 -9999 -9999 -9999 -9999 -9999 -9999 -9999 -9999 -9999 -9999 -9999 -9999 -9999 -9999 -9999 -9999 -9999 -9999 -9999 -9999 -9999 -9999 -9999 -9999 -9999 -9999 -9999 -9999 -9999 -9999 -9999 -9999 -9999 -9999 -9999 -9999
-9999 -9999 -9999 -9999 -9999 -9999 -9999 -9999 -9999 -9999 -9999 -9999 -9999 -9999 -9999 -9999 -9999 -9999 -9999 -9999 -9999 -9999 -9999 -9999 -9999 -9999 -9999 -9999 -9999 -9999 -9999 -9999 -9999 -9999 -9999 -9999 -9999 -9999 -9999 -9999 -9999 -9999 -9999 -9999 -9999 -9999 -9999 -9999 -9999 -9999 -9999 -9999 -9999 -9999 -9999 -9999 -9999 -9999 -9999 -9999 -9999 -9999 -9999 -9999 -9999 -9999 -9999 -9999 -9999 -9999 -9999 -9999 -9999 -9999 -9999 -9999 -9999 -9999 -9999 -9999 -9999 -9999 -9999 -9999 -9999 -9999 -9999 -9999 -9999 -9999 -9999 -9999 -9999 -9999 -9999 -9999 -9999 -9999 -9999 -9999 -9999 -9999 -9999 -9999 -9999 -9999 -9999 -9999 -9999 -9999 -9999 -9999 -9999 -9999 -9999 -9999 -9999 -9999 -9999 -9999 -9999 -9999 -9999 -9999 -9999 -9999 -9999 3451 3381 3339 3454 3434 -9999 3427 3466 3448 3482 3339 3006 2813 2550 2430 2402 2561 2708 2765 2887 3128 3165 3206 3346 3422 3634 4005 4002 4001 3837 3866 3854 3675 3594 3396 3317 3305 3440 3918 3818 3792 3660 3621 3750 3814 3633 3458 3286 3274 3421 3213 2863 2663 2576 2399 2299 2253 2294 2462 2464 2459 2482 2468 2558 2637 2707 2778 2888 3048 3022 3076 3200 3353 3180 3149 2924 2745 2978 3325 3439 3640 3451 3258 3174 3123 3109 3400 3583 3825 4066 4135 3958 3810 3654 3740 3648 3675 3821 3610 3282 3106 3029 3353 3576 3779 3883 3912 3924 3962 3975 3948 4017 3983 4039 4101 3885 3828 3826 3685 3583 3548 3517 3495 3497 3441 3400 3371 3301 3287 3311 3357 3493 3505 3642 3792 3851 -9999 -9999 -9999 -9999 -9999 -9999 -9999 -9999 -9999 -9999 -9999 -9999 -9999 -9999 -9999 -9999 -9999 -9999 3566 3504 -9999 -9999 -9999 -9999 -9999 -9999 -9999 -9999 -9999 -9999 -9999 3283 3116 3040 3013 3030 3084 3109 3173 3218 3315 3417 3449 3616 3792 -9999 -9999 -9999 -9999 -9999 -9999 -9999 -9999 -9999 -9999 -9999 -9999 -9999 -9999 -9999 -9999 -9999 -9999 -9999 -9999 -9999 -9999 -9999 -9999 -9999 -9999 -9999 -9999 -9999 -9999 -9999 -9999 -9999 -9999 -9999 -9999 -9999 -9999 -9999 -9999 -9999 -9999 -9999 -9999 -9999 -9999 -9999 -9999 -9999 -9999 -9999 -9999 -9999 -9999 -9999
-9999 -9999 -9999 -9999 -9999 -9999 -9999 -9999 -9999 -9999 -9999 -9999 -9999 -9999 -9999 -9999 -9999 -9999 -9999 -9999 -9999 -9999 -9999 -9999 -9999 -9999 -9999 -9999 -9999 -9999 -9999 -9999 -9999 -9999 -9999 -9999 -9999 -9999 -9999 -9999 -9999 -9999 -9999 -9999 -9999 -9999 -9999 -9999 -9999 -9999 -9999 -9999 -9999 -9999 -9999 -9999 -9999 -9999 -9999 -9999 -9999 -9999 -9999 -9999 -9999 -9999 -9999 -9999 -9999 -9999 -9999 -9999 -9999 -9999 -9999 -9999 -9999 -9999 -9999 -9999 -9999 -9999 -9999 -9999 -9999 -9999 -9999 -9999 -9999 -9999 -9999 -9999 -9999 -9999 -9999 -9999 -9999 -9999 -9999 -9999 -9999 -9999 -9999 -9999 -9999 -9999 -9999 -9999 -9999 -9999 -9999 -9999 -9999 -9999 -9999 -9999 -9999 -9999 -9999 -9999 -9999 -9999 -9999 3490 3426 3279 3180 3095 3073 2996 3048 3113 3159 3246 3347 3198 3095 3080 2970 2640 2412 2389 2665 2779 2820 2786 2893 3105 3385 3339 3402 3525 3730 3994 4149 3946 4071 3902 3731 3528 3454 3421 3149 2969 3079 3348 3526 3682 3854 3667 3608 3648 3467 3357 3148 3002 3087 2874 2611 2387 2301 2228 2350 2531 2626 2654 2643 2611 2590 2617 2712 2821 2909 2922 3005 3202 3200 3220 3361 3539 3622 3498 3140 2963 2790 2998 3114 3377 3685 3367 3310 3347 3155 3132 3239 3525 3804 4122 3890 3813 3804 3784 3760 3783 3765 3640 3329 3155 3049 3228 3395 3513 3596 3702 3605 3600 3620 3690 3783 3876 3925 3987 4014 3872 3761 3684 3578 3512 3430 3414 3360 3293 3252 3234 3213 3207 3074 3063 3169 3263 3306 3449 3553 3710 3959 -9999 -9999 -9999 -9999 -9999 -9999 -9999 -9999 -9999 -9999 -9999 -9999 -9999 -9999 -9999 3517 3413 3332 3299 3228 3196 3361 3557 3563 3558 3326 3457 3358 3231 3058 2938 3063 3199 3183 3061 3076 3195 3312 3339 3313 3290 3338 3506 3696 3796 -9999 -9999 -9999 -9999 -9999 -9999 -9999 -9999 -9999 -9999 -9999 -9999 -9999 -9999 -9999 -9999 -9999 -9999 -9999 -9999 -9999 -9999 -9999 -9999 -9999 -9999 -9999 -9999 -9999 -9999 -9999 -9999 -9999 -9999 -9999 -9999 -9999 -9999 -9999 -9999 -9999 -9999 -9999 -9999 -9999 -9999 -9999 -9999 -9999 -9999 -9999 -9999 -9999
-9999 -9999 -9999 -9999 -9999 -9999 -9999 -9999 -9999 -9999 -9999 -9999 -9999 -9999 -9999 -9999 -9999 -9999 -9999 -9999 -9999 -9999 -9999 -9999 -9999 -9999 -9999 -9999 -9999 -9999 -9999 -9999 -9999 -9999 -9999 -9999 -9999 -9999 -9999 -9999 -9999 -9999 -9999 -9999 -9999 -9999 -9999 -9999 -9999 -9999 -9999 -9999 -9999 -9999 -9999 -9999 -9999 -9999 -9999 -9999 -9999 -9999 -9999 -9999 -9999 -9999 -9999 -9999 -9999 -9999 -9999 -9999 -9999 -9999 -9999 -9999 -9999 -9999 -9999 -9999 -9999 -9999 -9999 -9999 -9999 -9999 -9999 -9999 -9999 -9999 -9999 -9999 -9999 -9999 -9999 -9999 -9999 -9999 -9999 -9999 -9999 -9999 -9999 -9999 -9999 -9999 -9999 -9999 -9999 -9999 -9999 -9999 -9999 -9999 -9999 -9999 -9999 -9999 -9999 -9999 -9999 3739 3528 3398 3353 3292 3219 3134 3096 2910 3095 3221 3253 3324 3090 2918 2727 2688 2739 2630 2377 2415 2507 2599 2670 2782 2944 3043 3309 3590 3491 3646 3922 3970 3901 3802 3763 3837 3732 3609 3600 3548 3400 3128 2735 2925 3056 3255 3586 3506 3251 3335 3567 3126 2772 2548 2601 2543 2256 2221 2244 2369 2537 2670 2742 2804 2778 2729 2729 2757 2860 2983 3113 3099 3111 3196 3346 3357 3457 3593 3681 3470 3607 3208 2925 2891 3084 3418 3602 3851 3787 3479 3458 3184 3134 3311 3605 3787 4016 3965 4152 4072 3813 3687 3538 3441 3174 3108 3174 3236 3262 3251 3263 3419 3598 3754 3778 3893 3959 3979 3973 3841 3790 3821 3840 3771 3667 3757 3704 3627 3536 3524 3517 3559 3511 3458 3261 3117 3001 3150 3404 3368 3365 3416 3582 3667 3682 3835 -9999 -9999 3754 -9999 -9999 -9999 -9999 -9999 -9999 -9999 -9999 -9999 3560 3480 3426 3395 3337 3140 3171 3393 3264 3239 3075 3162 3072 2912 2898 3148 3192 3312 3465 3387 3397 3161 3280 3476 3444 3439 3376 3381 3452 3500 3632 -9999 -9999 -9999 -9999 -9999 -9999 -9999 -9999 -9999 -9999 -9999 -9999 -9999 -9999 -9999 -9999 -9999 -9999 -9999 -9999 -9999 -9999 -9999 -9999 -9999 -9999 -9999 -9999 -9999 -9999 -9999 -9999 -9999 -9999 -9999 -9999 -9999 -9999 -9999 -9999 -9999 -9999 -9999 -9999 -9999 -9999 -9999 -9999 -9999 -9999 -9999 -9999
-9999 -9999 -9999 -9999 -9999 -9999 -9999 -9999 -9999 -9999 -9999 -9999 -9999 -9999 -9999 -9999 -9999 -9999 -9999 -9999 -9999 -9999 -9999 -9999 -9999 -9999 -9999 -9999 -9999 -9999 -9999 -9999 -9999 -9999 -9999 -9999 -9999 -9999 -9999 -9999 -9999 -9999 -9999 -9999 -9999 -9999 -9999 -9999 -9999 -9999 -9999 -9999 -9999 -9999 -9999 -9999 -9999 -9999 -9999 -9999 -9999 -9999 -9999 -9999 -9999 -9999 -9999 -9999 -9999 -9999 -9999 -9999 -9999 -9999 -9999 -9999 -9999 -9999 -9999 -9999 -9999 -9999 -9999 -9999 -9999 -9999 -9999 -9999 -9999 -9999 -9999 -9999 -9999 -9999 -9999 -9999 -9999 -9999 -9999 -9999 -9999 -9999 -9999 -9999 -9999 -9999 -9999 -9999 -9999 -9999 -9999 -9999 -9999 -9999 -9999 -9999 -9999 -9999 -9999 -9999 3834 3747 3689 3564 3564 3405 3306 3258 3221 2912 2954 3107 3197 3323 3153 2933 2731 2624 2421 2332 2328 2457 2783 2970 2750 2728 2910 3015 3205 3475 3647 3898 3911 3744 3709 3548 3451 3659 3703 3813 3747 3552 3154 2997 2781 2610 2644 2779 3004 3069 2960 3107 3403 3171 2900 2532 2357 2222 2230 2314 2332 2482 2685 2733 2775 2880 2913 2866 2869 2942 3022 3217 3380 3432 3434 3401 3618 3666 3661 3824 3931 3780 3527 3323 3121 2900 2963 3214 3441 3735 3811 3703 3522 3445 3295 3173 3448 3702 4065 4136 4020 3780 3484 3376 3327 3271 3183 3239 3420 3672 3682 3509 3384 3353 3619 3850 3992 4227 4284 4184 4083 3890 3673 3615 3581 3601 3645 3411 3523 3520 3642 3741 3750 3635 3445 3298 3279 3216 3025 2981 3169 3422 3513 3551 3538 3619 3662 3832 -9999 3701 3594 3751 4094 3870 3697 3671 3564 3411 3348 3349 3386 3309 3175 3128 3140 2971 3191 3213 3092 2822 2796 2781 2819 2991 3002 3298 3446 3437 3648 3639 3494 3251 3351 3681 3645 3547 3483 3460 3476 3437 3278 3254 3372 3474 -9999 -9999 -9999 -9999 -9999 -9999 -9999 -9999 -9999 -9999 -9999 -9999 -9999 -9999 -9999 -9999 -9999 -9999 -9999 -9999 -9999 -9999 -9999 -9999 -9999 -9999 -9999 -9999 -9999 -9999 -9999 -9999 -9999 -9999 -9999 -9999 -9999 -9999 -9999 -9999 -9999 -9999 -9999 -9999 -9999 -9999 -9999 -9999 -9999
-9999 -9999 -9999 -9999 -9999 -9999 -9999 -9999 -9999 -9999 -9999 -9999 -9999 -9999 -9999 -9999 -9999 -9999 -9999 -9999 -9999 -9999 -9999 -9999 -9999 -9999 -9999 -9999 -9999 -9999 -9999 -9999 -9999 -9999 -9999 -9999 -9999 -9999 -9999 -9999 -9999 -9999 -9999 -9999 -9999 -9999 -9999 -9999 -9999 -9999 -9999 -9999 -9999 -9999 -9999 -9999 -9999 -9999 -9999 -9999 -9999 -9999 -9999 -9999 -9999 -9999 -9999 -9999 -9999 -9999 -9999 -9999 -9999 -9999 -9999 -9999 -9999 -9999 -9999 -9999 -9999 -9999 -9999 -9999 -9999 -9999 -9999 -9999 -9999 -9999 -9999 -9999 -9999 -9999 -9999 -9999 -9999 -9999 -9999 -9999 -9999 -9999 -9999 -9999 -9999 -9999 -9999 -9999 -9999 -9999 -9999 -9999 -9999 -9999 -9999 -9999 -9999 -9999 -9999 -9999 3841 3734 3567 3489 3507 3517 3372 3119 2966 2714 2631 2721 2781 2936 3225 3115 2779 2598 2348 2335 2447 2542 2656 3064 3131 2980 2964 3179 3320 3383 3427 3593 3712 3851 3981 3923 3623 3203 3152 3295 3426 3510 3462 3191 2915 2740 2554 2448 2479 2627 2868 3033 2956 2695 2454 2233 2176 2208 2387 2558 2607 2388 2475 2562 2609 2670 2771 2948 3056 3127 3231 3365 3467 3527 3612 3550 3564 3640 3902 4075 3794 3725 3564 3564 3366 3063 2956 3122 3402 3705 3879 3889 3735 3566 3423 3290 3356 3873 4127 3884 3734 3511 3394 3447 3522 3263 3281 3448 3716 3796 3727 3613 3663 3464 3449 3632 3683 3789 3811 3934 3938 3735 3676 3574 3570 3396 3280 3170 3202 3236 3367 3488 3675 3739 3553 3484 3495 3455 3249 2978 2990 3106 3163 3387 3619 3910 3826 3680 3602 3482 3503 3707 3867 3691 3445 3337 3210 3123 3071 3022 3109 3138 2963 2918 2839 2847 3017 2878 2769 2733 2768 3075 3191 3222 3258 3338 3471 3659 3680 3518 3370 3327 3576 3818 3697 3630 3592 3539 3467 3403 3262 3139 3137 3253 3412 -9999 -9999 -9999 -9999 -9999 -9999 -9999 -9999 -9999 -9999 -9999 -9999 -9999 -9999 -9999 -9999 -9999 -9999 -9999 -9999 -9999 -9999 -9999 -9999 -9999 -9999 -9999 -9999 -9999 -9999 -9999 -9999 -9999 -9999 -9999 -9999 -9999 -9999 -9999 -9999 -9999 -9999 -9999 -9999 -9999 -9999 -9999 -9999
-9999 -9999 -9999 -9999 -9999 -9999 -9999 -9999 -9999 -9999 -9999 -9999 -9999 -9999 -9999 -9999 -9999 -9999 -9999 -9999 -9999 -9999 -9999 -9999 -9999 -9999 -9999 -9999 -9999 -9999 -9999 -9999 -9999 -9999 -9999 -9999 -9999 -9999 -9999 -9999 -9999 -9999 -9999 -9999 -9999 -9999 -9999 -9999 -9999 -9999 -9999 -9999 -9999 -9999 -9999 -9999 -9999 -9999 -9999 -9999 -9999 -9999 -9999 -9999 -9999 -9999 -9999 -9999 -9999 -9999 -9999 -9999 -9999 -9999 -9999 -9999 -9999 -9999 -9999 -9999 -9999 -9999 -9999 -9999 -9999 -9999 -9999 -9999 -9999 -9999 -9999 -9999 -9999 -9999 -9999 -9999 -9999 -9999 -9999 -9999 -9999 -9999 -9999 -9999 -9999 -9999 -9999 -9999 -9999 -9999 -9999 -9999 -9999 -9999 -9999 -9999 -9999 -9999 -9999 3833 3783 3685 3519 3364 3329 3286 3203 2943 2849 2722 2562 2585 2644 2866 3131 2890 2705 2547 2276 2452 2648 2766 2778 3151 3348 3194 3084 3375 3452 3439 3552 3696 3734 3861 3978 3886 3595 3153 3035 3027 3177 3349 3525 3388 3039 2853 2716 2558 2331 2420 2794 2872 2704 2475 2285 2174 2193 2249 2448 2592 2613 2508 2479 2532 2594 2685 2778 2823 2915 3123 3211 3425 3525 3586 3743 3647 3580 3632 3786 4173 3794 3706 3599 3642 3402 3145 2987 3102 3413 3667 3807 4051 3787 3586 3447 3323 3356 3770 4022 3912 3702 3500 3434 3535 3657 3309 3292 3444 3781 3925 3742 3779 3920 3645 3420 3583 3657 3697 3782 3863 4014 3722 3633 3548 3471 3337 3144 3069 3067 3143 3390 3509 3842 3930 3840 3612 3383 3292 3168 2965 3021 3206 3161 3304 3566 3777 3872 3688 3507 3449 3521 3684 3697 3580 3414 3274 3268 3190 3201 3122 2952 2926 2833 2824 2771 2722 2791 2707 2683 2951 2860 3031 3220 3394 3369 3376 3499 3831 3668 3459 3366 3368 3662 3952 3855 3769 3652 3473 3384 3319 3210 3134 3060 3135 3279 3481 -9999 -9999 -9999 -9999 -9999 -9999 -9999 -9999 -9999 -9999 -9999 -9999 -9999 -9999 -9999 -9999 -9999 -9999 -9999 -9999 -9999 -9999 -9999 -9999 -9999 -9999 -9999 -9999 -9999 -9999 -9999 -9999 -9999 -9999 -9999 -9999 -9999 -9999 -9999 -9999 -9999 -9999 -9999 -9999 -9999 -9999 -9999
-9999 -9999 -9999 -9999 -9999 -9999 -9999 -9999 -9999 -9999 -9999 -9999 -9999 -9999 -9999 -9999 -9999 -9999 -9999 -9999 -9999 -9999 -9999 -9999 -9999 -9999 -9999 -9999 -9999 -9999 -9999 -9999 -9999 -9999 -9999 -9999 -9999 -9999 -9999 -9999 -9999 -9999 -9999 -9999 -9999 -9999 -9999 -9999 -9999 -9999 -9999 -9999 -9999 -9999 -9999 -9999 -9999 -9999 -9999 -9999 -9999 -9999 -9999 -9999 -9999 -9999 -9999 -9999 -9999 -9999 -9999 -9999 -9999 -9999 -9999 -9999 -9999 -9999 -9999 -9999 -9999 -9999 -9999 -9999 -9999 -9999 -9999 -9999 -9999 -9999 -9999 -9999 -9999 -9999 -9999 -9999 -9999 -9999 -9999 -9999 -9999 -9999 -9999 -9999 -9999 -9999 -9999 -9999 -9999 -9999 -9999 -9999 -9999 -9999 -9999 -9999 -9999 -9999 -9999 3679 3618 3547 3511 3359 3281 3115 3022 3104 3169 2942 2661 2437 2424 2615 2895 2622 2368 2275 2311 2613 2883 2984 3145 3190 3265 3190 3284 3590 3793 3801 3857 4096 3886 3981 4062 3860 3466 3104 2971 2792 2893 3184 3499 3527 3185 2926 3000 2953 2553 2228 2343 2386 2294 2164 2178 2257 2351 2459 2592 2696 2738 2822 2754 2908 2816 3131 3214 3148 3052 2927 3000 3257 3523 3559 3622 3936 3798 3818 3851 3924 3898 3806 3673 3624 3455 3147 3017 3132 3344 3618 3782 3876 3626 3677 3735 3389 3292 3548 3654 3788 3790 3536 3473 3611 3793 3471 3266 3332 3641 3781 4149 3979 3880 3778 3645 3615 3637 3843 3994 4017 3855 3699 3593 3438 3352 3308 3339 3466 3072 2983 3127 3394 3673 3850 3687 3601 3419 3335 3193 2901 3049 3322 3434 3372 3429 3578 3741 3543 3366 3546 3615 3832 3869 3642 3484 3367 3427 3365 3490 3330 3095 3025 3163 3246 3152 2910 2648 2856 3024 3175 3185 2938 3004 3272 3575 3603 3591 3743 3615 3585 3461 3460 3685 3848 3958 3783 3631 3466 3410 3402 3322 3051 3114 3288 3327 3380 3361 3409 3362 3388 -9999 -9999 -9999 -9999 -9999 -9999 -9999 -9999 -9999 -9999 -9999 -9999 -9999 -9999 -9999 -9999 -9999 -9999 -9999 -9999 -9999 -9999 -9999 -9999 -9999 -9999 -9999 -9999 -9999 -9999 -9999 -9999 -9999 -9999 -9999 -9999 -9999 -9999 -9999 -9999 -9999 -9999 -9999
-9999 -9999 -9999 -9999 -9999 -9999 -9999 -9999 -9999 -9999 -9999 -9999 -9999 -9999 -9999 -9999 -9999 -9999 -9999 -9999 -9999 -9999 -9999 -9999 -9999 -9999 -9999 -9999 -9999 -9999 -9999 -9999 -9999 -9999 -9999 -9999 -9999 -9999 -9999 -9999 -9999 -9999 -9999 -9999 -9999 -9999 -9999 -9999 -9999 -9999 -9999 -9999 -9999 -9999 -9999 -9999 -9999 -9999 -9999 -9999 -9999 -9999 -9999 -9999 -9999 -9999 -9999 -9999 -9999 -9999 -9999 -9999 -9999 -9999 -9999 -9999 -9999 -9999 -9999 -9999 -9999 -9999 -9999 -9999 -9999 -9999 -9999 -9999 -9999 -9999 -9999 -9999 -9999 -9999 -9999 -9999 -9999 -9999 -9999 -9999 -9999 -9999 -9999 -9999 -9999 -9999 -9999 -9999 -9999 -9999 -9999 -9999 -9999 -9999 -9999 -9999 -9999 -9999 3816 3622 3536 3428 3348 3341 3379 3247 3286 3242 3117 2994 2806 2483 2343 2333 2471 2440 2206 2251 2423 2529 2643 2712 2934 3383 3384 3298 3374 3482 3630 3831 3857 3738 3729 3682 3707 3509 3386 3076 2950 2721 2687 2917 3171 3247 3016 2798 2714 2612 2411 2218 2174 2141 2164 2197 2192 2445 2521 2588 2606 2718 2820 2974 3015 2990 3131 3178 3102 3324 3554 3398 3064 3130 3356 3466 3675 3937 4173 4066 4025 4140 3980 3834 3617 3452 3363 3137 3043 3326 3451 3704 3932 3778 3811 4134 3992 3557 3307 3449 3689 3838 3958 3662 3475 3568 3853 3658 3368 3297 3460 3689 3843 4039 4093 4041 3805 3724 3716 3854 3752 3821 3770 3704 3617 3522 3502 3481 3837 3492 3260 3077 2967 3254 3497 3552 3670 3465 3343 3319 3095 2853 2975 3122 3199 3371 3641 3691 3557 3345 3338 3479 3508 3665 3771 3616 3438 3407 3645 3554 3473 3377 3320 3240 3214 3079 2942 2805 2615 2941 3094 3401 3416 3307 3225 3086 3321 3508 3596 3856 3943 3611 3548 3622 3760 3766 3751 3611 3468 3319 3137 3049 2992 2945 3174 3316 3577 3438 3222 3077 3017 2949 3014 3082 3171 -9999 -9999 -9999 -9999 3337 -9999 3384 3503 -9999 -9999 -9999 -9999 -9999 -9999 -9999 -9999 -9999 -9999 -9999 -9999 -9999 -9999 -9999 -9999 -9999 -9999 -9999 -9999 -9999 -9999 -9999 -9999 -9999 -9999 -9999 -9999 -9999 -9999 -9999 -9999
-9999 -9999 -9999 -9999 -9999 -9999 -9999 -9999 -9999 -9999 -9999 -9999 -9999 -9999 -9999 -9999 -9999 -9999 -9999 -9999 -9999 -9999 -9999 -9999 -9999 -9999 -9999 -9999 -9999 -9999 -9999 -9999 -9999 -9999 -9999 -9999 -9999 -9999 -9999 -9999 -9999 -9999 -9999 -9999 -9999 -9999 -9999 -9999 -9999 -9999 -9999 -9999 -9999 -9999 -9999 -9999 -9999 -9999 -9999 -9999 -9999 -9999 -9999 -9999 -9999 -9999 -9999 -9999 -9999 -9999 -9999 -9999 -9999 -9999 -9999 -9999 -9999 -9999 -9999 -9999 -9999 -9999 -9999 -9999 -9999 -9999 -9999 -9999 -9999 -9999 -9999 -9999 -9999 -9999 -9999 -9999 -9999 -9999 -9999 -9999 -9999 -9999 -9999 -9999 -9999 -9999 -9999 -9999 -9999 -9999 -9999 -9999 -9999 -9999 -9999 -9999 3775 3870 3918 3668 3611 3593 3592 3471 3393 3231 2959 2799 2721 2581 2453 2383 2415 2285 2167 2188 2307 2379 2539 2763 2981 3065 3211 3419 3555 3452 3597 3535 3589 3868 3791 3670 3442 3383 3422 3421 3246 3229 3044 2731 2467 2519 2683 2749 2582 2494 2357 2279 2144 2127 2140 2159 2261 2314 2226 2451 2544 2769 2876 2991 2996 3192 3388 3278 3190 3546 3450 3271 3360 3611 3249 3099 3248 3338 3576 3677 3834 3931 4111 3948 3860 3835 3677 3657 3515 3207 3095 3316 3680 3991 4084 4176 3978 3767 3642 3432 3327 3480 3886 4088 3971 3775 3597 3598 3802 3693 3511 3422 3407 3472 3569 3682 3817 3954 3880 3802 3761 3726 3635 3678 3738 3740 3654 3729 3828 3773 3733 3504 3286 3154 2873 3063 3154 3192 3362 3427 3226 3124 2974 2854 3140 3225 3195 3444 3695 3750 3624 3349 3287 3580 3723 3890 3776 3628 3539 3541 3489 3509 3492 3527 3375 3439 3345 3277 2993 2910 2605 2895 3023 3108 3332 3551 3469 3227 3197 3385 3446 3647 3869 3686 3724 3896 3719 3526 3415 3391 3460 3380 3209 3087 2878 2929 3225 3303 3502 3422 3265 3200 3170 2997 2786 2762 2825 2942 3109 3222 3282 3356 3300 3211 3329 3474 -9999 -9999 -9999 -9999 -9999 -9999 -9999 3450 -9999 -9999 -9999 -9999 -9999 -9999 -9999 -9999 -9999 -9999 -9999 -9999 -9999 -9999 -9999 -9999 -9999 -9999 -9999 -9999 -9999 -9999 -9999
-9999 -9999 -9999 -9999 -9999 -9999 -9999 -9999 -9999 -9999 -9999 -9999 -9999 -9999 -9999 -9999 -9999 -9999 -9999 -9999 -9999 -9999 -9999 -9999 -9999 -9999 -9999 -9999 -9999 -9999 -9999 -9999 -9999 -9999 -9999 -9999 -9999 -9999 -9999 -9999 -9999 -9999 -9999 -9999 -9999 -9999 -9999 -9999 -9999 -9999 -9999 -9999 -9999 -9999 -9999 -9999 -9999 -9999 -9999 -9999 -9999 -9999 -9999 -9999 -9999 -9999 -9999 -9999 -9999 -9999 -9999 -9999 -9999 -9999 -9999 -9999 -9999 -9999 -9999 -9999 -9999 -9999 -9999 -9999 -9999 -9999 -9999 -9999 -9999 -9999 -9999 -9999 -9999 -9999 -9999 -9999 -9999 -9999 -9999 -9999 -9999 -9999 -9999 -9999 -9999 -9999 -9999 -9999 -9999 -9999 -9999 -9999 -9999 -9999 -9999 3867 3687 3810 3839 3549 3449 3414 3347 3248 3155 3026 2791 2629 2554 2413 2315 2223 2223 2224 2156 2297 2434 2509 2683 2886 3087 3119 3213 3301 3454 3534 3719 3594 3718 3942 3860 3787 3486 3271 3209 3305 3114 3136 3008 2693 2463 2357 2508 2514 2382 2331 2226 2180 2120 2146 2198 2228 2399 2507 2222 2457 2621 2843 3006 3134 3140 3216 3485 3299 3263 3423 3499 3328 3341 3578 3360 3142 3207 3276 3429 3503 3673 3744 3893 3930 3974 3912 3797 3652 3451 3215 3132 3245 3554 3972 4139 4054 3756 3593 3509 3441 3348 3521 3848 4007 3954 3737 3646 3644 3773 3639 3547 3464 3468 3605 3623 3661 3704 3970 3920 3695 3674 3726 3587 3630 3602 3710 3559 3705 3810 3627 3574 3402 3174 3037 2880 2955 3007 3086 3302 3464 3203 3120 2903 2879 3192 3406 3318 3419 3654 3683 3549 3279 3273 3513 3644 3921 3698 3605 3608 3521 3303 3376 3309 3396 3241 3249 3426 3332 3140 2932 2652 2729 2788 2991 3247 3500 3538 3366 3233 3307 3401 3601 3843 3844 3861 3929 3811 3550 3482 3347 3243 3319 3110 2986 2817 2841 3049 3150 3318 3470 3340 3239 3175 3033 2807 2663 2733 2807 2974 3028 3075 3172 3320 3144 3197 3297 3475 -9999 -9999 -9999 -9999 3422 3338 3356 3663 -9999 -9999 -9999 -9999 -9999 -9999 -9999 -9999 -9999 -9999 -9999 -9999 -9999 -9999 -9999 -9999 -9999 -9999 -9999 -9999 -9999 -9999
-9999 -9999 -9999 -9999 -9999 -9999 -9999 -9999 -9999 -9999 -9999 -9999 -9999 -9999 -9999 -9999 -9999 -9999 -9999 -9999 -9999 -9999 -9999 -9999 -9999 -9999 -9999 -9999 -9999 -9999 -9999 -9999 -9999 -9999 -9999 -9999 -9999 -9999 -9999 -9999 -9999 -9999 -9999 -9999 -9999 -9999 -9999 -9999 -9999 -9999 -9999 -9999 -9999 -9999 -9999 -9999 -9999 -9999 -9999 -9999 -9999 -9999 -9999 -9999 -9999 -9999 -9999 -9999 -9999 -9999 -9999 -9999 -9999 -9999 -9999 -9999 -9999 -9999 -9999 -9999 -9999 -9999 -9999 -9999 -9999 -9999 -9999 -9999 -9999 -9999 -9999 -9999 -9999 -9999 -9999 -9999 -9999 -9999 -9999 -9999 -9999 -9999 -9999 -9999 -9999 -9999 -9999 -9999 -9999 -9999 3746 3688 3764 3758 3819 3731 3579 3419 3448 3428 3295 3063 2998 2825 2746 2636 2504 2468 2487 2508 2537 2440 2237 2141 2366 2664 2753 2905 3016 3045 2995 3075 3165 3291 3450 3516 3667 3710 3641 3667 3571 3697 3620 3411 3252 2925 2744 2802 2884 2589 2466 2277 2148 2128 2109 2172 2229 2267 2383 2512 2499 2511 2578 2406 2238 2409 2571 2800 3031 3217 3329 3425 3535 3582 3648 3785 3745 3438 3428 3504 3642 3355 3271 3296 3360 3478 3517 3575 3658 3718 3806 3870 3686 3572 3442 3299 3221 3195 3441 3792 3885 3796 3752 3616 3606 3489 3403 3653 4007 4098 3850 3777 3701 3709 3933 3888 3606 3696 3796 3899 3775 3741 3755 3843 3983 3621 3513 3521 3581 3428 3372 3376 3515 3687 3835 3723 3526 3358 3240 3226 2988 2805 2886 2990 3126 3377 3178 3045 2778 2931 3161 3470 3522 3512 3527 3291 3184 3217 3346 3571 3680 3771 3527 3317 3254 3245 3098 3138 3043 3147 3116 2939 3106 3221 3284 3046 2885 2716 2623 2663 2936 3139 3255 3440 3566 3387 3370 3485 3573 3689 3670 3686 3702 3553 3497 3427 3246 3040 2964 2976 2963 2691 2839 2910 3126 3264 3296 3085 2982 2827 2712 2607 2646 2689 2652 2656 2689 2853 3010 3006 2894 3039 3156 3196 3334 3346 3245 3200 3197 3281 3500 3520 -9999 -9999 -9999 -9999 -9999 -9999 -9999 -9999 -9999 -9999 -9999 -9999 -9999 -9999 -9999 -9999 -9999 -9999 -9999 -9999 -9999
-9999 -9999 -9999 -9999 -9999 -9999 -9999 -9999 -9999 -9999 -9999 -9999 -9999 -9999 -9999 -9999 -9999 -9999 -9999 -9999 -9999 -9999 -9999 -9999 -9999 -9999 -9999 -9999 -9999 -9999 -9999 -9999 -9999 -9999 -9999 -9999 -9999 -9999 -9999 -9999 -9999 -9999 -9999 -9999 -9999 -9999 -9999 -9999 -9999 -9999 -9999 -9999 -9999 -9999 -9999 -9999 -9999 -9999 -9999 -9999 -9999 -9999 -9999 -9999 -9999 -9999 -9999 -9999 -9999 -9999 -9999 -9999 -9999 -9999 -9999 -9999 -9999 -9999 -9999 -9999 -9999 -9999 -9999 -9999 -9999 -9999 -9999 -9999 -9999 -9999 -9999 -9999 -9999 -9999 -9999 -9999 -9999 -9999 -9999 -9999 -9999 -9999 -9999 -9999 -9999 -9999 -9999 -9999 3993 3915 3632 3617 3486 3509 3536 3579 3490 3265 3053 3049 2992 2816 2716 2641 2643 2664 2717 2861 2897 3021 2885 2437 2297 2142 2355 2870 2971 2974 2824 2790 2788 2860 3058 3181 3296 3352 3499 3554 3585 3245 3250 3190 3274 3157 3225 2984 2670 2518 2634 2367 2207 2099 2118 2160 2370 2596 2663 2736 2830 2827 2665 2547 2341 2255 2495 2543 2532 2343 2663 2957 3007 3096 3195 3288 3401 3585 3715 3749 3674 3649 3961 3545 3358 3363 3377 3593 3757 3756 3860 3967 3896 3928 4009 3967 3818 3566 3404 3189 3318 3671 3730 3879 3809 3747 3755 3718 3502 3562 3907 3882 4006 3860 3823 3819 3714 3640 3491 3523 3673 3856 3834 4082 4034 4034 3836 3528 3403 3484 3651 3446 3351 3280 3573 3873 3983 3762 3495 3424 3212 3148 3144 2925 2814 2728 2914 3156 3062 2930 2748 3003 3308 3532 3510 3508 3353 3091 3058 3288 3533 3650 3739 3607 3456 3421 3347 3258 3158 3051 2905 2856 2846 2785 2792 2857 3030 3297 3290 3111 2995 2718 2566 2816 2891 3121 3370 3348 3388 3477 3684 3635 3578 3467 3438 3551 3435 3356 3272 3264 3226 3237 2980 2678 2664 2746 2912 2920 2900 2941 2887 2767 2657 2573 2590 2588 2599 2710 2757 2709 2760 2773 2954 2960 2991 2873 3054 3130 2980 3046 3241 3357 3418 3327 3539 3510 3432 -9999 -9999 -9999 -9999 -9999 -9999 -9999 -9999 -9999 -9999 -9999 -9999 -9999 -9999 -9999 -9999 -9999 -9999
-9999 -9999 -9999 -9999 -9999 -9999 -9999 -9999 -9999 -9999 -9999 -9999 -9999 -9999 -9999 -9999 -9999 -9999 -9999 -9999 -9999 -9999 -9999 -9999 -9999 -9999 -9999 -9999 -9999 -9999 -9999 -9999 -9999 -9999 -9999 -9999 -9999 -9999 -9999 -9999 -9999 -9999 -9999 -9999 -9999 -9999 -9999 -9999 -9999 -9999 -9999 -9999 -9999 -9999 -9999 -9999 -9999 -9999 -9999 -9999 -9999 -9999 -9999 -9999 -9999 -9999 -9999 -9999 -9999 -9999 -9999 -9999 -9999 -9999 -9999 -9999 -9999 -9999 -9999 -9999 -9999 -9999 -9999 -9999 -9999 -9999 -9999 -9999 -9999 -9999 -9999 -9999 -9999 -9999 -9999 -9999 -9999 -9999 -9999 -9999 -9999 -9999 -9999 -9999 -9999 -9999 3682 3661 3641 3622 3554 3514 3400 3208 3138 3144 3096 2951 2854 2819 2803 2777 2797 2918 3037 2945 3226 3256 3392 3094 2828 2638 2383 2124 2246 2472 2702 2750 2585 2576 2843 3001 3195 3306 3458 3497 3504 3215 3167 3092 3054 2745 2862 2693 2696 2706 2433 2437 2386 2153 2089 2182 2420 2488 2733 3191 3198 3113 2821 2628 2510 2382 2262 2496 2751 2903 2977 2720 2416 2428 2559 2829 2821 3082 3112 3357 3453 3666 3823 3739 3969 3817 3520 3545 3486 3463 3568 3687 3945 4039 4133 4127 3983 3795 3844 3656 3556 3230 3288 3580 3734 4126 4118 4167 4007 3884 3683 3544 3721 3900 3777 3843 3897 3777 3662 3527 3361 3367 3593 3790 3695 3896 4035 3811 3622 3418 3349 3277 3399 3188 3123 3263 3487 3587 3630 3730 3522 3597 3571 3461 3260 3300 3025 2959 2694 2898 2970 2817 2800 3115 3348 3415 3232 3142 3153 2976 3066 3301 3389 3508 3625 3401 3233 3086 3224 3294 3395 3323 3219 3191 3107 3073 2881 2716 2957 3265 3372 3197 3080 2887 2583 2667 2820 3009 3011 3082 3009 3256 3321 3485 3462 3260 3196 3502 3560 3469 3284 3128 3079 3063 2902 2655 2608 2745 2959 2881 2607 2666 2669 2688 2603 2547 2554 2499 2544 2639 2719 2785 2815 2640 2672 2680 2704 2716 2828 2848 2841 2946 3175 3182 3169 3259 3276 3169 3087 3222 3407 3545 -9999 -9999 -9999 -9999 -9999 -9999 -9999 -9999 -9999 -9999 -9999 -9999 -9999 -9999 -9999
-9999 -9999 -9999 -9999 -9999 -9999 -9999 -9999 -9999 -9999 -9999 -9999 -9999 -9999 -9999 -9999 -9999 -9999 -9999 -9999 -9999 -9999 -9999 -9999 -9999 -9999 -9999 -9999 -9999 -9999 -9999 -9999 -9999 -9999 -9999 -9999 -9999 -9999 -9999 -9999 -9999 -9999 -9999 -9999 -9999 -9999 -9999 -9999 -9999 -9999 -9999 -9999 -9999 -9999 -9999 -9999 2637 2701 -9999 -9999 -9999 -9999 -9999 -9999 -9999 -9999 -9999 -9999 -9999 -9999 -9999 -9999 -9999 -9999 -9999 -9999 -9999 -9999 -9999 -9999 -9999 -9999 -9999 -9999 -9999 -9999 -9999 -9999 -9999 -9999 -9999 -9999 -9999 -9999 -9999 -9999 -9999 -9999 -9999 -9999 -9999 -9999 -9999 -9999 -9999 3856 3721 3616 3583 3457 3391 3347 3236 3086 3008 2988 2950 2876 2848 2881 2884 2850 2992 3213 3303 3157 3353 3504 3464 3120 3049 2634 2420 2151 2112 2502 2583 2568 2442 2610 2840 2977 3258 3350 3365 3267 3269 3100 2862 2855 2899 2707 2612 2599 2474 2505 2342 2310 2252 2087 2140 2340 2681 2814 3020 3424 3257 3080 2783 2551 2378 2310 2288 2515 2660 2870 2991 2844 2638 2559 2444 2520 2679 2907 3023 3103 3259 3577 3750 3869 4083 4047 3817 3833 3602 3554 3592 3664 3777 3944 3906 4039 3891 3785 3688 3596 3489 3227 3298 3611 3789 4067 3906 4011 3933 3767 3687 3572 3773 4021 3705 3713 3686 3653 3469 3397 3266 3312 3591 3660 3621 3926 3972 3848 3627 3418 3348 3214 3245 3081 3085 3334 3449 3510 3570 3753 3638 3603 3470 3397 3362 3301 3261 3115 2757 2744 2861 2713 2913 3171 3359 3252 3152 2949 2954 3056 3105 3345 3490 3645 3700 3463 3290 3077 3055 3106 3359 3198 3134 3191 3187 3123 2864 2700 2880 3151 3150 3125 2975 2764 2510 2625 2747 2976 2846 2968 2881 3090 3140 3312 3353 3158 3146 3361 3441 3397 3183 2999 2901 2909 2797 2623 2536 2646 2854 2677 2498 2483 2478 2526 2495 2501 2516 2547 2540 2525 2545 2643 2757 2606 2716 2676 2695 2691 2727 2737 2734 2867 2980 3066 3045 3115 3206 3071 3063 3152 3264 3355 3411 3582 -9999 -9999 -9999 -9999 -9999 -9999 -9999 -9999 -9999 -9999 -9999 -9999 -9999
-9999 -9999 -9999 -9999 -9999 -9999 -9999 -9999 -9999 -9999 -9999 -9999 -9999 -9999 -9999 -9999 -9999 -9999 -9999 -9999 -9999 -9999 -9999 -9999 -9999 -9999 -9999 -9999 -9999 -9999 -9999 -9999 -9999 -9999 -9999 -9999 -9999 -9999 -9999 -9999 -9999 -9999 -9999 -9999 -9999 -9999 -9999 -9999 -9999 -9999 -9999 -9999 -9999 -9999 -9999 2701 2685 2618 -9999 -9999 -9999 -9999 -9999 -9999 -9999 -9999 -9999 -9999 -9999 -9999 -9999 -9999 -9999 -9999 -9999 -9999 -9999 -9999 -9999 -9999 -9999 -9999 -9999 -9999 -9999 -9999 -9999 -9999 -9999 -9999 -9999 -9999 -9999 -9999 -9999 -9999 -9999 -9999 -9999 -9999 -9999 -9999 -9999 -9999 -9999 3808 3640 3520 3380 3290 3225 3181 3108 3131 3164 3200 2932 2985 3182 3138 3216 3181 3169 3469 3470 3399 3479 3640 3443 3347 2992 2714 2505 2147 2185 2609 2351 2246 2494 2869 2916 3014 3220 3335 2961 2840 2816 2685 2654 2391 2447 2607 2453 2252 2214 2137 2092 2103 2090 2186 2445 2594 2959 3161 3516 3352 3169 2950 2630 2477 2467 2634 2508 2357 2470 2733 2837 3078 3010 2853 2797 2765 2658 2490 2578 3034 3411 3583 3735 3873 3869 3945 3777 3748 3745 3750 3710 3781 4080 3994 3779 3752 3715 3700 3637 3403 3314 3347 3308 3444 3553 3715 3672 3810 3956 3875 3766 3699 3925 3807 3522 3356 3246 3233 3121 3140 3219 3278 3389 3471 3639 3796 3887 3727 3562 3442 3383 3300 3110 2986 3023 3330 3424 3319 3313 3511 3721 3678 3628 3518 3508 3367 3244 3097 2811 2640 2830 2773 2791 2901 2987 3017 2885 3044 3219 3260 3423 3431 3606 3673 3617 3423 3299 3205 2932 2836 3074 2860 2805 2918 2778 2680 2754 2745 2595 2865 2791 2783 2757 2560 2421 2611 2776 2695 2674 2703 2777 2821 2938 3018 2988 2932 2932 3079 3109 3199 3196 3211 3120 3028 2959 2844 2659 2525 2467 2563 2780 2922 2886 2903 2765 2809 2781 2780 2677 2585 2552 2576 2566 2577 2721 2820 2809 2816 2759 2721 2734 2674 2693 2756 2898 2947 2998 2904 2993 3242 3335 3444 3495 3628 3591 3619 3660 -9999 -9999 -9999 -9999 -9999 -9999 -9999 -9999 -9999 -9999
-9999 -9999 -9999 -9999 -9999 -9999 -9999 -9999 -9999 -9999 -9999 -9999 -9999 -9999 -9999 -9999 -9999 -9999 -9999 -9999 -9999 -9999 -9999 -9999 -9999 -9999 -9999 -9999 -9999 -9999 -9999 -9999 -9999 -9999 -9999 -9999 -9999 -9999 -9999 -9999 -9999 -9999 -9999 -9999 -9999 -9999 -9999 -9999 -9999 -9999 -9999 -9999 2689 2513 2564 2557 2548 2593 2642 2660 -9999 -9999 -9999 -9999 -9999 -9999 -9999 -9999 -9999 -9999 -9999 -9999 -9999 -9999 -9999 -9999 -9999 -9999 -9999 -9999 -9999 -9999 -9999 -9999 -9999 -9999 -9999 -9999 -9999 -9999 -9999 -9999 -9999 -9999 -9999 -9999 -9999 -9999 -9999 -9999 -9999 -9999 -9999 -9999 -9999 -9999 3871 3856 3481 3348 3403 3438 3277 3268 3414 3483 3031 3088 3420 3499 3480 3290 3259 3537 3640 3658 3614 3518 3449 3264 2932 2454 2267 2047 2240 2320 2120 2240 2471 2572 2748 2869 3240 3187 2849 2787 2384 2342 2210 2241 2123 2155 2220 2109 2048 2032 2251 2244 2251 2355 2736 3177 3126 3272 3330 3207 3029 2905 2670 2399 2622 2755 2800 2597 2429 2589 2737 2976 3332 3184 3162 3184 3055 2741 2557 2827 3177 3298 3341 3403 3543 3763 3939 3938 3789 3818 3764 3761 3854 3749 3878 3783 3616 3519 3429 3388 3387 3525 3598 3450 3439 3489 3660 4001 3940 3788 3932 3737 3652 3627 3430 3288 3271 3108 3009 3203 3486 3441 3533 3629 3634 3609 3673 3615 3407 3308 3314 3469 3276 3010 2910 3038 3190 2972 3036 3256 3429 3195 3305 3242 2958 2849 2734 2656 2657 2873 3203 3095 2748 2832 2791 2874 2887 3028 3305 3491 3530 3567 3518 3572 3509 3515 3209 2976 2871 2796 2734 2800 2776 2687 2761 2780 2573 2524 2459 2464 2462 2451 2446 2452 2408 2617 2651 2535 2611 2776 2776 2784 3036 3079 3000 2761 3025 3167 2937 2928 3060 3222 3032 2978 2846 2623 2422 2439 2589 2889 3106 3089 3089 3077 3057 3045 3060 3065 2886 2734 2633 2628 2822 2803 2945 2949 2967 2849 2899 2908 2856 2820 2767 2752 2688 2739 2737 2789 2996 2989 3105 3155 3270 3499 3271 3324 3373 3504 3727 3782 -9999 -9999 -9999 -9999 -9999 -9999 -9999
-9999 -9999 -9999 -9999 -9999 -9999 -9999 -9999 -9999 -9999 -9999 -9999 -9999 -9999 -9999 -9999 -9999 -9999 -9999 -9999 -9999 -9999 -9999 -9999 -9999 -9999 -9999 -9999 -9999 -9999 -9999 -9999 -9999 -9999 -9999 -9999 -9999 -9999 -9999 -9999 -9999 -9999 -9999 -9999 -9999 -9999 -9999 -9999 2673 2655 2574 2491 2397 2355 2407 2416 2454 2588 2607 2654 2736 2829 2871 -9999 -9999 -9999 -9999 -9999 -9999 -9999 -9999 -9999 -9999 -9999 -9999 -9999 -9999 -9999 -9999 -9999 -9999 -9999 -9999 -9999 -9999 -9999 -9999 -9999 -9999 -9999 -9999 -9999 -9999 -9999 -9999 -9999 -9999 -9999 -9999 -9999 -9999 -9999 -9999 -9999 -9999 -9999 -9999 3719 3679 3740 3610 3558 3438 3433 3412 3471 3103 3164 3600 3481 3582 3521 3360 3436 3560 3444 3418 3327 3262 3058 2766 2442 2339 2250 2009 1988 2120 2246 2432 2586 2854 3013 3290 2936 2528 2403 2152 1944 1922 1976 1989 2027 2129 2075 2170 2293 2427 2700 2587 2434 2680 3023 3357 3394 3200 2907 2690 2573 2421 2573 2968 3187 3290 2914 2633 2526 2646 2895 3208 3538 3559 3300 3143 3081 2951 2785 2990 3145 3225 3453 3343 3390 3453 3412 3536 3382 3447 3561 3548 3559 3494 3505 3732 3884 3784 3489 3476 3651 3705 3853 3688 3566 3555 3894 3779 3610 3620 3770 3626 3539 3469 3445 3300 3209 3004 3046 3320 3480 3804 3747 3635 3456 3368 3282 3188 3130 3149 3348 3110 2925 2830 2884 2994 2831 3016 3045 3078 2942 2781 2779 2589 2700 2667 2854 3106 3136 3266 3088 2824 3059 3158 3139 3016 2990 3125 3192 3210 3330 3510 3435 3302 3327 3170 2901 3078 3035 2967 3063 2882 2792 2686 2586 2612 2697 2607 2600 2677 2664 2626 2396 2425 2440 2432 2541 2590 2565 2679 2884 2987 3013 2948 2675 2890 2945 2916 2831 2774 2940 2858 2784 2500 2421 2623 2750 2915 2988 3134 3212 3214 3192 3181 3112 3089 3112 3086 2954 2849 2592 2653 2761 2858 2917 2825 2679 2697 2714 2745 2727 2834 2897 2931 2902 2816 2773 2799 2770 2850 2997 3069 3168 3044 3099 3214 3493 3438 3418 3518 3572 3703 -9999 -9999 -9999 -9999
-9999 -9999 -9999 -9999 -9999 -9999 -9999 -9999 -9999 -9999 -9999 -9999 -9999 -9999 -9999 -9999 -9999 -9999 -9999 -9999 -9999 -9999 -9999 -9999 -9999 -9999 -9999 -9999 -9999 -9999 -9999 -9999 -9999 -9999 -9999 -9999 -9999 -9999 -9999 -9999 -9999 -9999 -9999 -9999 -9999 -9999 -9999 -9999 2684 2438 2261 2250 2399 2327 2272 2365 2509 2658 2674 2700 2742 2823 2887 2924 -9999 2905 2964 2982 3018 3058 -9999 -9999 -9999 -9999 -9999 -9999 -9999 -9999 -9999 -9999 -9999 -9999 -9999 -9999 -9999 -9999 -9999 -9999 -9999 -9999 -9999 -9999 -9999 -9999 -9999 -9999 -9999 -9999 -9999 -9999 -9999 -9999 -9999 -9999 -9999 -9999 -9999 3511 3394 3559 3688 3724 3667 3583 3555 3461 3224 3307 3686 3601 3578 3560 3506 3479 3526 3363 3163 3005 2975 3001 2786 2470 2340 2072 1915 1972 2119 2217 2434 2702 3049 3246 3264 3017 2689 2540 2203 1881 2104 2353 2474 2404 2345 2413 2372 2564 2645 2886 2886 2812 2718 3060 3487 3347 2973 2646 2682 2785 2692 2502 2884 3080 3283 3142 2790 2557 2612 2953 3296 3588 3503 3473 3470 3207 3070 2612 2769 3058 3164 3031 3085 3093 3090 3055 3158 3083 3041 3075 3185 3268 3339 3397 3627 3891 3713 3540 3498 3787 3907 3770 3742 3679 3663 3768 3666 3583 3417 3481 3536 3601 3611 3458 3264 3160 2903 3075 3368 3576 3815 3682 3565 3442 3390 3246 3370 3121 3022 3105 3047 2820 2724 2744 2879 2657 2622 2683 2576 2546 2577 2716 2821 3028 2756 2936 3242 3468 3271 3100 2897 3193 3427 3368 3297 3019 3202 3417 3361 3494 3477 3226 3188 3033 2961 3038 2960 2922 3154 3090 2847 2744 2689 2812 2783 2823 2910 2827 2988 2941 2822 2593 2370 2391 2419 2471 2540 2465 2493 2588 2627 2736 2694 2648 2603 2531 2589 2524 2495 2642 2530 2509 2390 2565 2792 2824 2733 2877 2995 2924 2881 3001 2972 2946 2843 2993 3041 2928 2907 2825 2693 2623 2631 2642 2680 2830 2980 3037 3003 2904 2800 2775 2821 2991 2873 2918 3026 2974 2895 2845 2812 2828 2905 3097 3243 3359 3143 3308 3355 3501 3651 3538 3732 3798 -9999
-9999 -9999 -9999 -9999 -9999 -9999 -9999 -9999 -9999 -9999 -9999 -9999 -9999 -9999 -9999 -9999 -9999 -9999 -9999 -9999 -9999 -9999 -9999 -9999 -9999 -9999 -9999 -9999 -9999 -9999 -9999 -9999 -9999 -9999 -9999 -9999 -9999 -9999 -9999 -9999 -9999 -9999 -9999 -9999 -9999 -9999 -9999 2773 2551 2361 2238 2190 2365 2346 2264 2352 2507 2656 2719 2732 2795 2815 2891 2902 2951 2886 2983 3016 3050 3064 3062 3097 3095 3150 3179 3237 -9999 -9999 -9999 -9999 -9999 -9999 -9999 -9999 -9999 -9999 -9999 -9999 -9999 -9999 -9999 -9999 -9999 -9999 -9999 -9999 -9999 -9999 -9999 -9999 -9999 -9999 -9999 -9999 -9999 -9999 3532 3448 3314 3500 3580 3619 3775 3605 3548 3487 3379 3366 3554 3520 3454 3524 3435 3320 3320 3382 3191 2928 2804 2752 2650 2343 2214 2006 1892 2062 2240 2278 2458 2707 3064 3283 3198 2910 2801 2656 2267 1911 1955 2334 2523 2580 2551 2645 2575 2602 2865 3002 3132 2941 2853 3137 3368 3206 2859 2667 2953 3017 2852 2485 2772 2869 3101 3323 2940 2657 2641 3002 3331 3642 3726 3548 3517 3084 2954 2612 2721 3018 3004 2879 2946 2958 2894 2890 2939 2946 3106 3157 3162 3250 3366 3417 3550 3896 3812 3597 3554 3725 3962 3814 3828 3771 3800 3863 3775 3653 3348 3275 3296 3352 3450 3251 3051 2964 2867 3113 3347 3475 3795 3609 3563 3452 3370 3327 3441 3188 3063 2948 3057 2832 2752 2629 2647 2789 2696 2494 2631 2688 2740 2944 3043 3009 2816 3039 3317 3550 3285 3126 2937 3174 3542 3511 3359 3099 3189 3480 3473 3454 3355 3167 3055 2989 3088 3196 2977 2972 3232 3134 2909 2778 2774 2981 2904 2958 3019 2990 3088 3045 3000 2720 2406 2380 2402 2421 2518 2436 2421 2460 2495 2550 2525 2531 2514 2470 2533 2464 2440 2471 2424 2394 2414 2620 2724 2726 2693 2845 2873 2767 2815 2865 2825 2848 2797 2963 3078 3052 3026 2967 2828 2737 2750 2758 2667 2915 3134 3192 3136 3037 2918 2877 2818 2861 2842 2866 2969 3098 3037 2972 2905 2845 2860 3014 3117 3201 3078 3296 3390 3578 3630 3461 3583 3590 -9999
-9999 -9999 -9999 -9999 -9999 -9999 -9999 -9999 -9999 -9999 -9999 -9999 -9999 -9999 -9999 -9999 -9999 -9999 -9999 -9999 -9999 -9999 -9999 -9999 -9999 -9999 -9999 -9999 -9999 -9999 -9999 -9999 -9999 -9999 -9999 -9999 -9999 -9999 -9999 -9999 -9999 -9999 -9999 -9999 -9999 -9999 -9999 2674 2548 2485 2435 2356 2133 2173 2356 2396 2482 2583 2703 2743 2842 2843 2820 2813 2839 2863 2979 3048 3002 2995 3077 3103 3106 3123 3225 3269 -9999 -9999 -9999 -9999 -9999 -9999 -9999 -9999 -9999 -9999 -9999 -9999 -9999 -9999 -9999 -9999 -9999 -9999 -9999 -9999 -9999 -9999 -9999 -9999 -9999 3362 3317 -9999 -9999 3458 3375 3330 3246 3261 3485 3619 3737 3691 3550 3519 3525 3473 3349 3243 3225 3239 3170 3135 3040 3066 2914 2705 2641 2502 2328 2299 2279 2109 1909 1879 1991 2114 2289 2569 3003 3205 3200 2868 2522 2355 2244 1908 1875 2305 2427 2687 2869 3007 2933 2859 2969 3290 3214 3165 3171 3315 3136 3056 3053 3019 3149 3026 2707 2649 2772 2721 2810 3171 3325 2958 2795 2884 3401 3725 3865 3762 3618 3182 3035 2805 2695 2657 2691 2688 2702 2728 2847 2884 2979 3045 3180 3299 3619 3415 3366 3487 3537 3798 4006 3757 3710 3728 3892 3903 3792 3920 3613 3608 3588 3440 3203 3045 2934 2988 3015 2873 2773 2830 3015 3232 3419 3512 3719 3543 3415 3282 3261 3462 3353 3092 2980 2843 2997 3012 2962 2851 2658 2529 2478 2605 2766 2999 3165 3111 3369 3118 2898 3013 3351 3562 3264 3156 3056 3214 3580 3598 3470 3190 3169 3425 3559 3569 3354 3199 3088 3199 3272 3274 3017 3062 3353 3304 3028 2914 2903 3091 3270 3232 3063 2938 2847 2980 3029 2856 2715 2383 2330 2374 2389 2462 2459 2378 2352 2382 2372 2440 2404 2402 2380 2379 2379 2363 2363 2377 2402 2423 2487 2500 2514 2572 2618 2630 2629 2674 2652 2696 2718 2779 2845 2953 3025 3115 3119 3037 3012 3018 2817 2785 3017 3179 3392 3196 3165 3129 3056 2942 3004 2964 2876 2900 3119 3258 3228 3043 2932 2914 2887 2935 3055 3185 3221 3226 3289 3320 3462 3600 -9999
-9999 -9999 -9999 -9999 -9999 -9999 -9999 -9999 -9999 -9999 -9999 -9999 -9999 -9999 -9999 -9999 -9999 -9999 -9999 -9999 -9999 -9999 -9999 -9999 -9999 -9999 -9999 -9999 -9999 -9999 -9999 -9999 -9999 -9999 -9999 -9999 -9999 -9999 -9999 -9999 -9999 -9999 -9999 -9999 -9999 -9999 2782 2609 2496 2368 2220 2284 2135 2162 2370 2438 2475 2545 2648 2711 2638 2664 2657 2678 2805 2852 2838 2913 2938 3055 3075 3134 3159 3143 3195 3251 3248 -9999 -9999 -9999 -9999 -9999 -9999 -9999 -9999 -9999 -9999 -9999 -9999 -9999 -9999 -9999 -9999 -9999 -9999 -9999 -9999 -9999 3720 3520 3355 3286 3220 3345 3599 3489 3299 3202 3106 3235 3323 3397 3562 3576 3708 3583 3454 3454 3364 3150 3129 2993 2912 2811 2771 2706 2606 2499 2474 2419 2458 2392 2303 2150 2122 2007 1850 1972 2299 2637 2901 2895 3008 2954 2686 2507 2106 1807 1918 2274 2407 2695 3017 3132 3150 3214 3188 3411 3417 3393 3398 3330 3400 3509 3164 3147 3046 2944 2643 2941 3197 3264 2920 3031 3365 3338 3161 2892 2947 3265 3504 3799 3795 3479 3323 3017 3118 2853 2732 2747 2688 2786 2979 3016 3136 3206 3354 3475 3758 3644 3459 3471 3665 3702 3979 3826 3709 3720 3835 3612 3580 3784 3770 3546 3512 3483 3455 3299 2972 2911 2751 2705 2951 3040 3282 3403 3625 3677 3452 3480 3262 3070 3096 3299 3256 3098 3003 2681 2759 2737 2661 2536 2435 2524 2630 2952 3156 3209 3492 3644 3655 3378 3140 3195 3526 3692 3447 3328 3384 3160 3419 3549 3431 3249 3234 3373 3435 3503 3378 3349 3251 3330 3341 3405 3127 3203 3502 3324 3221 3112 3150 3450 3404 3349 3270 3117 2889 2624 2637 2585 2578 2452 2393 2312 2343 2358 2363 2396 2331 2342 2322 2302 2316 2335 2345 2342 2375 2400 2418 2433 2489 2552 2500 2484 2508 2532 2557 2594 2675 2616 2658 2786 2867 2961 3049 3041 3081 3073 3152 3245 3266 3139 2840 2875 3146 3200 3386 3373 3389 3284 3329 3152 3188 3123 3009 2932 2904 3041 3114 3193 3200 3154 3098 3059 3022 3035 3057 3154 3258 3368 -9999 -9999 -9999
-9999 -9999 -9999 -9999 -9999 -9999 -9999 -9999 -9999 -9999 -9999 -9999 -9999 -9999 -9999 -9999 -9999 -9999 -9999 -9999 -9999 -9999 -9999 -9999 -9999 -9999 -9999 -9999 -9999 -9999 -9999 -9999 -9999 -9999 -9999 -9999 -9999 -9999 -9999 -9999 -9999 -9999 -9999 -9999 -9999 -9999 2811 2692 2632 2516 2204 2207 2073 2077 2269 2318 2314 2483 2620 2582 2420 2548 2714 2778 2747 2750 2914 3024 3037 3048 2999 3048 3072 3089 3140 3192 3208 3260 3323 -9999 -9999 -9999 -9999 -9999 -9999 -9999 -9999 -9999 -9999 -9999 -9999 -9999 -9999 -9999 -9999 -9999 -9999 3347 3361 3285 3095 3049 3112 3313 3504 3578 3321 3204 3036 2997 3280 3407 3467 3365 3629 3567 3372 3179 3275 3313 3251 3138 3086 3022 2988 2885 2710 2760 2749 2790 2874 2848 2707 2681 2273 1878 1878 2021 2470 2874 2550 2490 2690 2621 2432 2223 1888 1819 2108 2385 2557 2853 2786 2873 2935 3117 3148 3038 3076 3056 3272 3446 3447 3347 3205 3215 3219 3032 2838 3046 3320 3421 3242 3113 3320 3785 3754 3378 3003 2999 3201 3543 3748 3544 3453 3406 3202 2875 2807 2909 2856 2849 3034 3137 3396 3400 3358 3437 3731 4013 3610 3553 3598 3879 3957 3774 3802 3698 3507 3358 3288 3374 3558 3660 3737 3668 3411 3378 3267 3148 2807 2691 2964 3147 3257 3435 3471 3369 3144 3193 3046 2935 3067 3310 3138 2917 2770 2508 2579 2397 2454 2719 2845 2702 2723 2887 3067 3286 3549 3718 3832 3533 3377 3315 3432 3706 3523 3447 3574 3324 3421 3613 3474 3459 3492 3417 3493 3240 3099 3124 3279 3562 3397 3300 3249 3354 3333 3384 3273 3387 3373 3401 3268 3158 3031 2887 2795 2710 2700 2677 2591 2515 2477 2359 2306 2310 2329 2299 2290 2286 2311 2348 2361 2374 2418 2411 2383 2391 2476 2529 2548 2572 2592 2596 2612 2619 2627 2638 2632 2613 2658 2709 2756 2939 3031 3161 3244 3289 3446 3363 3362 3275 3026 2854 2909 3021 3271 3475 3578 3599 3398 3338 3329 3291 3222 3210 3040 2962 2962 3002 3144 3266 3326 3323 3211 3108 3157 3140 -9999 -9999 -9999 -9999 -9999
-9999 -9999 -9999 -9999 -9999 -9999 -9999 -9999 -9999 -9999 -9999 -9999 -9999 -9999 -9999 -9999 -9999 -9999 -9999 -9999 -9999 -9999 -9999 -9999 -9999 -9999 -9999 -9999 -9999 -9999 -9999 -9999 -9999 -9999 -9999 -9999 -9999 -9999 -9999 -9999 -9999 -9999 -9999 -9999 -9999 -9999 2808 2687 2585 2451 2410 2402 2171 2004 2128 2184 2335 2447 2553 2506 2377 2623 2782 2789 2822 2836 2852 2955 2989 2982 2988 3103 3104 3111 3139 3235 3248 -9999 -9999 -9999 -9999 -9999 -9999 -9999 -9999 -9999 -9999 -9999 -9999 -9999 -9999 -9999 -9999 -9999 -9999 3384 3429 3367 3328 3249 3012 2923 2966 3293 3511 3697 3558 3391 3069 2909 3100 3245 3409 3283 3515 3588 3428 3147 3159 3293 3248 3194 3069 2953 2876 2822 2829 2954 2937 3002 3178 2999 2834 2449 2124 1841 1922 2058 2538 2909 2528 2359 2418 2522 2257 2060 1793 1850 2095 2347 2458 2695 2602 2859 2822 2962 2972 2993 3050 3094 3321 3412 3272 3188 3267 3322 3206 3036 2905 3151 3341 3474 3416 3164 3399 3920 3979 3669 3388 3026 3087 3575 3653 3505 3473 3351 3102 2918 2827 2979 2920 2896 3056 3160 3388 3518 3397 3426 3728 3965 3731 3703 3691 3802 3940 3705 3716 3680 3465 3280 3177 3195 3360 3516 3547 3697 3580 3363 3147 3089 2766 2697 2952 3099 3359 3468 3414 3235 3030 2984 2898 2919 3017 3178 2947 2818 2756 2538 2413 2581 2568 2822 3057 2888 2863 3013 3186 3247 3475 3600 3860 3715 3471 3389 3439 3695 3596 3581 3610 3399 3407 3657 3684 3610 3428 3416 3432 3284 3125 2960 3128 3398 3434 3439 3324 3320 3126 3198 3425 3382 3289 3325 3178 3078 2955 2734 2701 2733 2679 2605 2579 2510 2479 2379 2331 2281 2295 2288 2274 2324 2335 2348 2362 2423 2468 2477 2428 2391 2391 2426 2454 2506 2551 2564 2599 2633 2648 2657 2650 2642 2757 2828 2855 3006 3015 3200 3229 3311 3384 3511 3378 3438 3133 3037 2903 2935 3118 3266 3465 3602 3566 3421 3385 3317 3391 3254 3055 3094 3028 3054 3032 3179 3246 3419 3217 3186 3230 3195 -9999 -9999 -9999 -9999 -9999
-9999 -9999 -9999 -9999 -9999 -9999 -9999 -9999 -9999 -9999 -9999 -9999 -9999 -9999 -9999 -9999 -9999 -9999 -9999 -9999 -9999 -9999 -9999 -9999 -9999 -9999 -9999 -9999 -9999 -9999 -9999 -9999 -9999 -9999 -9999 -9999 -9999 -9999 -9999 -9999 -9999 -9999 -9999 -9999 -9999 -9999 2774 2757 2712 2618 2499 2412 2144 1945 2182 2335 2435 2478 2442 2364 2298 2480 2557 2795 2821 2865 2905 2982 3009 3048 3036 3092 3114 3172 3180 3222 3224 -9999 -9999 -9999 -9999 -9999 -9999 -9999 -9999 -9999 -9999 -9999 -9999 -9999 3587 3381 3315 3202 3127 3150 3285 3238 3319 3386 2921 2751 2865 3130 3412 3664 3474 3384 3123 2839 2782 2873 3159 3088 3205 3167 3063 2980 3016 3239 3231 3154 3079 3008 3020 3107 3097 3205 3276 3075 3019 2779 2646 2239 1884 1894 2142 2295 2578 2411 2512 2359 2034 2146 1906 1797 1707 1765 1905 2116 2268 2476 2361 2557 2536 2625 2719 2900 3024 3264 3151 3060 2864 2939 3108 3342 3302 3126 3013 3233 3386 3497 3551 3421 3471 3678 3828 3842 3432 3534 3403 3452 3855 3833 3682 3373 3091 2922 2976 3184 3065 3173 3075 3194 3405 3575 3613 3505 3575 3746 3932 3912 3932 4036 3802 3735 3687 3578 3426 3190 3103 3009 3035 3165 3292 3486 3458 3186 3076 2957 2651 2692 3006 3146 3386 3371 3121 3116 2989 2742 2654 2858 2918 2863 2674 2457 2372 2468 2630 2905 2959 2918 3208 3208 3073 3137 3414 3452 3503 3643 3975 3745 3526 3481 3609 3532 3469 3571 3749 3587 3545 3587 3450 3254 3194 3390 3457 3282 3141 2816 2781 2908 3166 3312 3151 3072 2797 2965 3141 3061 2948 2998 2845 2780 2846 2750 2616 2615 2568 2536 2485 2490 2441 2395 2328 2301 2281 2252 2317 2324 2329 2357 2434 2431 2460 2474 2488 2506 2505 2499 2506 2503 2492 2490 2473 2461 2571 2678 2690 2679 2761 2858 2969 3015 2981 3036 2991 3135 3191 3331 3415 3412 3250 3182 3058 3064 3104 3074 3298 3394 3644 3748 3556 3453 3432 3246 3531 3151 3153 3478 3164 3186 3362 3344 3281 3336 3333 3358 -9999 -9999 -9999 -9999 -9999
-9999 -9999 -9999 -9999 -9999 -9999 -9999 -9999 -9999 -9999 -9999 -9999 -9999 -9999 -9999 -9999 -9999 -9999 -9999 -9999 -9999 -9999 -9999 -9999 -9999 -9999 -9999 -9999 -9999 -9999 -9999 -9999 -9999 -9999 -9999 -9999 -9999 -9999 -9999 -9999 -9999 -9999 -9999 -9999 2584 2554 2530 2388 2470 2637 2402 2239 2081 1927 2068 2140 2335 2386 2193 2178 2330 2368 2542 2706 2792 2816 2824 2879 2918 2988 3037 3067 3097 3108 3123 3176 3209 3233 -9999 -9999 -9999 -9999 -9999 -9999 -9999 -9999 -9999 -9999 3405 3424 3463 3395 3356 3310 3303 2890 2849 2808 2863 3054 2667 2726 2863 3130 3305 3502 3426 3352 3261 2991 2727 2590 2698 2718 2747 2764 2847 2932 3146 3357 3418 3291 3224 3215 3272 3368 3268 3125 3122 2992 2663 2391 2330 2069 1806 1894 2227 2373 2344 1997 2085 2052 1894 1791 1687 1724 1865 1952 1826 2098 2188 2128 2298 2389 2452 2686 2879 2934 2879 2811 2669 2562 2831 3049 3417 3528 3295 3197 3148 3239 3632 3743 4023 3899 3645 3557 3639 3933 3584 3644 3551 3395 3746 3585 3469 3239 3070 3098 3217 3435 3182 3248 3274 3190 3348 3607 3821 3947 3837 3694 3800 3763 3764 3861 3884 3752 3708 3496 3379 3308 3329 3245 2935 2969 3095 3418 3370 3157 2819 2727 2566 2708 3006 3089 3264 3204 3024 2969 2936 2783 2539 2570 2546 2571 2345 2506 2645 2822 2943 3156 3143 3154 3342 3487 3334 3263 3482 3741 3691 3621 3656 3812 3769 3611 3369 3293 3249 3329 3485 3588 3553 3465 3432 3123 2978 3227 3253 3059 2932 3048 2859 2636 2914 2940 2928 2781 2615 2848 2694 2718 2881 2714 2642 2753 2805 2662 2502 2431 2411 2381 2354 2413 2407 2375 2354 2266 2258 2283 2308 2329 2365 2390 2391 2463 2476 2467 2474 2492 2514 2526 2564 2593 2610 2626 2647 2641 2517 2513 2575 2759 2932 3011 3105 3105 2780 2924 3045 3151 3340 3372 3445 3496 3315 3277 3294 3212 3285 3117 3280 3318 3514 3763 3683 3704 3390 3463 3457 3285 3518 3507 3161 3284 3481 3395 3429 3409 3503 3423 -9999 -9999 -9999 -9999 -9999
-9999 -9999 -9999 -9999 -9999 -9999 -9999 -9999 -9999 -9999 -9999 -9999 -9999 -9999 -9999 -9999 -9999 -9999 -9999 -9999 -9999 -9999 -9999 -9999 -9999 -9999 -9999 -9999 -9999 -9999 -9999 -9999 -9999 -9999 -9999 -9999 -9999 -9999 -9999 -9999 -9999 2640 2645 2706 2752 2641 2500 2210 2399 2529 2366 2268 2116 1950 1921 2036 2101 2180 2067 2117 2201 2327 2478 2601 2598 2703 2780 2873 2899 2903 2933 2904 2976 3038 3080 3116 3133 3189 -9999 -9999 -9999 -9999 -9999 -9999 -9999 -9999 -9999 3021 3013 2967 3097 3171 3039 3003 3072 3002 2723 2547 2530 2680 2491 2659 2818 3129 3358 3330 3390 3356 3270 3012 2728 2567 2419 2508 2653 2699 2800 2996 3152 3269 3323 3467 3321 3371 3303 3106 2960 2724 2645 2593 2511 2333 2247 2053 1832 1772 2141 2324 2094 1797 1736 1684 1729 1747 1948 2060 2201 2222 1888 1900 1918 2063 2271 2515 2712 2836 2643 2505 2425 2353 2280 2580 2874 2980 3216 3374 3441 3322 3267 3340 3431 3537 3734 4000 3938 3651 3688 4003 3753 3643 3598 3470 3681 3527 3447 3321 3252 3248 3358 3493 3262 3358 3493 3369 3347 3509 3756 3794 4016 3787 3580 3601 3631 3672 3847 4043 3807 3609 3573 3472 3446 3170 2856 2861 3017 3249 3061 2941 2788 2665 2496 2649 2744 2811 2956 3089 3097 2983 2760 2648 2679 2440 2385 2332 2581 2836 2930 3214 3248 3512 3496 3267 3510 3624 3510 3623 3516 3408 3500 3349 3217 3291 3379 3476 3229 2962 3087 3119 3107 3340 3548 3267 3140 3017 2872 3148 3169 2920 2736 2957 2842 2554 2829 2678 2829 2776 2518 2752 2641 2741 2703 2528 2679 2707 2682 2632 2584 2534 2513 2472 2354 2394 2383 2318 2258 2239 2249 2288 2294 2319 2327 2338 2374 2418 2462 2478 2517 2542 2566 2569 2563 2593 2621 2633 2666 2694 2714 2588 2540 2508 2598 2725 2797 2942 2681 2993 3089 3269 3150 3261 3321 3350 3576 3419 3417 3302 3444 3287 3291 3438 3497 3720 3725 3609 3420 3556 3463 3313 3464 3313 3251 3637 3670 3513 3506 3506 3613 -9999 -9999 -9999 -9999 -9999 -9999
-9999 -9999 -9999 -9999 -9999 -9999 -9999 -9999 -9999 -9999 -9999 -9999 -9999 -9999 -9999 -9999 -9999 -9999 -9999 -9999 -9999 -9999 -9999 -9999 -9999 -9999 -9999 -9999 -9999 -9999 -9999 -9999 -9999 -9999 -9999 -9999 -9999 -9999 -9999 2764 2676 2619 2621 2663 2551 2568 2491 2171 2274 2437 2365 2277 2082 1933 1907 1993 2018 2033 2037 2143 2300 2474 2614 2682 2729 2818 2860 2910 2936 2997 3009 2860 2975 3103 3140 3120 3163 3184 3190 3235 -9999 -9999 -9999 -9999 3296 3225 3159 2885 2773 2747 2853 2836 2828 2802 2880 2794 2848 2553 2426 2579 2437 2545 2733 3041 3220 3128 3296 3258 3093 2908 2640 2523 2384 2548 2652 2698 2798 2979 3120 3248 3298 3557 3393 3362 3259 2971 2779 2626 2584 2441 2275 2129 2057 1915 1829 1747 2181 2344 1969 1747 1665 1716 1950 1947 2020 2183 2418 2256 1968 1861 1866 1909 2100 2419 2685 2656 2442 2333 2217 2142 2218 2544 2847 2900 3059 3239 3505 3396 3324 3464 3405 3487 3768 3762 3868 3735 3784 3851 3827 3668 3603 3524 3742 3586 3470 3406 3314 3297 3393 3533 3306 3389 3604 3458 3372 3535 3693 3796 3991 3739 3527 3481 3590 3585 3817 4024 3923 3589 3473 3354 3248 3151 2841 2790 2895 3093 3027 2800 2712 2636 2487 2683 2783 2872 3067 3258 3213 3082 2858 2742 2470 2419 2321 2380 2714 3062 3147 3268 3374 3515 3595 3382 3460 3674 3586 3460 3323 3229 3424 3288 3016 3159 3255 3368 3260 2962 2918 2920 3038 3285 3440 3230 3117 2914 2815 3101 3096 2861 2666 2889 2846 2529 2676 2646 2784 2741 2496 2717 2538 2634 2637 2561 2531 2560 2553 2597 2541 2503 2447 2386 2303 2391 2358 2287 2248 2245 2276 2291 2310 2353 2373 2406 2404 2382 2419 2447 2493 2532 2552 2574 2595 2613 2629 2641 2670 2714 2739 2723 2642 2581 2538 2610 2661 2704 2723 2812 2882 3087 3040 3119 3179 3305 3469 3605 3424 3397 3576 3354 3294 3439 3705 3866 3627 3536 3473 3715 3503 3385 3548 3316 3338 3690 -9999 -9999 3607 -9999 -9999 -9999 -9999 -9999 -9999 -9999 -9999
-9999 -9999 -9999 -9999 -9999 -9999 -9999 -9999 -9999 -9999 -9999 -9999 -9999 -9999 -9999 -9999 -9999 -9999 -9999 -9999 -9999 -9999 -9999 -9999 -9999 -9999 -9999 -9999 -9999 -9999 -9999 -9999 -9999 -9999 -9999 -9999 -9999 -9999 -9999 2731 2626 2660 2703 2529 2346 2232 2223 2050 1966 2111 2313 2255 2125 1860 1950 1902 1916 1922 2112 2221 2385 2433 2553 2571 2654 2677 2745 2769 2809 2921 2911 2733 2829 2940 2967 3081 3132 3208 3238 3241 -9999 -9999 -9999 3189 2918 2849 2622 2509 2363 2335 2347 2293 2346 2311 2354 2360 2518 2398 2211 2314 2226 2343 2489 2641 2823 2927 3112 3145 3036 2885 2538 2367 2370 2715 2956 3024 3090 3094 3337 3485 3478 3507 3392 3172 3040 2804 2914 3022 2928 2730 2520 2369 2217 1965 1714 1828 2212 2248 1835 1621 1826 2062 2358 2247 2213 2338 2641 2470 2481 2233 2222 2260 1952 2230 2421 2257 2092 2071 2188 2414 2502 2352 2604 2754 3011 3185 3284 3308 3356 3483 3594 3662 3845 3752 3561 3463 3494 3468 3672 3798 3729 3772 3724 3582 3527 3546 3418 3405 3497 3627 3408 3414 3639 3539 3520 3620 4006 3858 3677 3696 3488 3363 3414 3501 3687 3644 3619 3521 3251 3118 3051 2894 2754 2647 2766 2871 2909 2736 2527 2459 2664 2860 3043 3142 3358 3388 3298 3235 3064 2772 2460 2278 2394 2700 2828 2804 2828 2968 3134 3295 3417 3671 3698 3419 3330 3113 3164 2968 3223 3243 2939 2843 3070 3141 3030 3111 2810 2684 2920 3020 3126 3028 2901 2828 2690 2810 2926 2916 2748 2563 2655 2701 2494 2570 2602 2541 2418 2695 2634 2486 2560 2550 2465 2444 2335 2428 2415 2412 2403 2263 2270 2256 2250 2230 2234 2266 2271 2286 2298 2331 2364 2421 2408 2429 2470 2498 2514 2535 2576 2581 2544 2550 2612 2634 2612 2616 2708 2747 2789 2803 2715 2642 2585 2636 2746 2836 2887 2950 3019 3136 3213 3212 3232 3426 3574 3578 3579 3466 3381 3380 3549 3676 3739 3755 3754 3676 3628 3880 3943 3596 3531 -9999 -9999 -9999 -9999 -9999 -9999 -9999 -9999 -9999 -9999 -9999 -9999
-9999 -9999 -9999 -9999 -9999 -9999 -9999 -9999 -9999 -9999 -9999 -9999 -9999 -9999 -9999 -9999 -9999 -9999 -9999 -9999 -9999 -9999 -9999 -9999 -9999 -9999 -9999 -9999 -9999 -9999 -9999 -9999 -9999 -9999 -9999 -9999 -9999 -9999 -9999 2751 2723 2675 2668 2618 2721 2497 2404 2226 1956 2020 2186 2111 1959 1739 1933 1963 1940 2029 1968 2027 2162 2275 2415 2532 2560 2673 2718 2797 2824 2774 2589 2831 2897 3071 3108 3115 3120 3191 3138 3033 3283 3339 3168 2930 2645 2559 2504 2394 2322 2253 2096 2046 2011 1938 1929 2000 1983 1930 1984 1972 2047 2246 2375 2554 2663 2852 2964 3027 3137 2784 2405 2263 2322 2614 2857 2958 3114 3291 3456 3530 3466 3229 3202 3001 2900 2899 3095 3221 3204 2986 2707 2472 2277 1834 1701 2057 2025 1869 1703 1617 1923 2109 2456 2444 2503 2560 2873 2873 2706 2659 2647 2413 2011 2080 2262 2017 2195 2241 2283 2597 2878 2593 2376 2429 2718 2751 2833 2900 3074 3207 3437 3593 3673 3547 3370 3199 3178 3302 3567 3521 3524 3490 3481 3691 3758 3647 3581 3530 3602 3564 3517 3554 3719 3683 3613 3826 3860 3910 3983 3757 3324 3238 3224 3306 3428 3345 3405 3564 3349 3099 2986 2871 2819 2690 2576 2591 2583 2617 2454 2608 2900 3109 3080 3183 3257 3006 2870 2886 2686 2479 2273 2349 2413 2470 2535 2817 2982 3186 3379 3516 3558 3575 3333 3366 3378 3089 2838 2769 2993 3110 2836 2633 2930 3086 2845 2746 2654 2571 2669 2721 2949 2975 2897 2855 2686 2565 2638 2608 2760 2500 2521 2694 2662 2440 2370 2372 2417 2459 2553 2493 2388 2337 2395 2348 2369 2310 2338 2275 2246 2226 2196 2198 2217 2254 2285 2289 2283 2270 2394 2368 2352 2349 2365 2383 2400 2398 2392 2435 2473 2491 2493 2488 2508 2533 2575 2609 2629 2688 2752 2827 2885 2884 2841 2774 2683 2642 2660 2705 2754 2745 2763 2761 2856 2991 3126 3118 3316 3451 3296 3305 3402 3197 3158 3148 3209 3341 3486 3710 3728 3871 3733 -9999 -9999 -9999 -9999 -9999 -9999 -9999 -9999 -9999 -9999 -9999 -9999
-9999 -9999 -9999 -9999 -9999 -9999 -9999 -9999 -9999 -9999 -9999 -9999 -9999 -9999 -9999 -9999 -9999 -9999 -9999 -9999 -9999 -9999 -9999 -9999 -9999 -9999 -9999 -9999 -9999 -9999 -9999 -9999 -9999 -9999 -9999 -9999 -9999 -9999 -9999 -9999 2812 2705 2757 2789 2695 2486 2399 2143 1810 1986 1853 1820 1729 1880 2029 2061 2166 2264 2233 2208 2310 2377 2479 2494 2472 2573 2537 2424 2429 2422 2626 2895 2951 2878 2798 2738 2761 2768 2779 3045 3340 3397 3243 3124 2990 2882 2867 2614 2338 2186 2173 2100 2045 2088 2118 2211 2269 2026 1836 1849 1992 2112 2243 2344 2644 2999 3116 3073 2838 2651 2316 2187 2237 2520 2864 2969 2955 3035 3281 3113 3180 3234 3054 2988 3008 3221 3312 3155 2973 2519 2241 2035 1973 1826 1671 1865 1694 1635 1604 1801 2081 2237 2484 2764 2891 2971 3092 2974 2762 2601 2519 2284 2000 1968 1994 2113 2371 2620 2727 2570 2782 3032 2787 2644 2497 2736 2959 3099 3294 3288 3469 3557 3763 3647 3436 3301 3186 3029 3220 3157 3164 3128 3178 3399 3417 3398 3579 3633 3724 3552 3421 3430 3527 3576 3750 3826 3684 3683 3833 3811 3440 3303 3108 3205 3278 3241 3335 3391 3479 3229 3115 3128 3010 3024 2947 2835 2698 2422 2581 2752 3087 2885 3006 2967 2892 2753 2563 2451 2297 2324 2547 2630 2660 2763 2829 2780 2885 3103 3286 3467 3540 3325 3065 3059 3153 3134 2855 2602 2885 3021 2869 2548 2773 2906 3026 2811 2557 2471 2592 2673 2825 2708 2692 2673 2672 2596 2546 2440 2479 2594 2549 2453 2539 2534 2499 2462 2351 2299 2416 2410 2395 2371 2327 2375 2328 2273 2215 2188 2172 2201 2221 2231 2252 2270 2287 2386 2418 2341 2306 2335 2438 2470 2455 2488 2433 2434 2425 2453 2502 2550 2587 2589 2622 2666 2726 2764 2631 2779 2784 2778 2805 2876 2915 2979 2989 3039 3074 2737 2857 3042 3055 3028 2930 2883 2938 2891 2864 2866 2889 2921 2921 2982 3051 3046 2994 3037 3244 3445 3510 3611 3848 -9999 -9999 -9999 -9999 -9999 -9999 -9999 -9999 -9999 -9999 -9999 -9999
-9999 -9999 -9999 -9999 -9999 -9999 -9999 -9999 -9999 -9999 -9999 -9999 -9999 -9999 -9999 -9999 -9999 -9999 -9999 -9999 -9999 -9999 -9999 -9999 -9999 -9999 -9999 -9999 -9999 -9999 -9999 -9999 -9999 -9999 -9999 -9999 -9999 -9999 -9999 -9999 2710 2507 2532 2425 2316 2272 2241 2068 1816 1777 1624 1650 1939 1962 1946 1927 1943 2031 2063 2070 2074 2003 2091 2224 2165 2258 2194 2170 2257 2458 2598 2578 2607 2597 2532 2525 2646 2807 2956 3095 3229 3306 3360 3249 2958 2816 2587 2414 2292 2349 2425 2474 2458 2521 2515 2632 2294 2053 2042 1829 1738 2040 2129 2432 2748 3097 2965 2764 2476 2289 2207 2064 2199 2543 2794 2694 2446 2652 2861 2621 2816 3109 3233 3200 3245 3265 3408 3080 2917 2675 2457 2191 2108 1927 1624 1672 1602 1529 1806 2091 2280 2421 2731 2923 3087 3148 2875 2615 2376 2231 2178 2021 1945 2126 2226 2235 2364 2538 2668 3069 3157 3018 3136 3001 2864 2727 2978 3130 3405 3610 3710 3698 3541 3421 3308 3148 3038 2875 2891 2861 2857 2823 2869 2986 2994 3245 3351 3450 3437 3254 3197 3396 3515 3648 3936 3648 3575 3586 3698 3568 3370 3291 3120 3032 3057 3146 3164 3225 3259 3281 3273 3255 3260 3149 3011 2758 2581 2409 2722 2897 2801 2658 2783 2683 2484 2450 2252 2262 2411 2675 2861 3076 2985 3203 3299 3085 3030 3265 3502 3527 3356 3037 2930 2889 3050 3203 2861 2689 2581 2707 2853 2613 2476 2584 2814 2816 2697 2590 2417 2587 2656 2645 2628 2460 2460 2515 2523 2518 2417 2377 2436 2450 2360 2343 2370 2393 2422 2423 2293 2237 2346 2369 2241 2237 2194 2182 2158 2199 2207 2218 2243 2252 2260 2279 2375 2410 2397 2461 2345 2350 2308 2407 2537 2567 2546 2519 2480 2519 2509 2540 2610 2635 2652 2667 2722 2841 2723 2773 2837 2893 2893 2889 2943 3037 3155 3227 3238 2819 2752 3057 3188 3257 3425 3259 3053 3096 3148 3101 2893 2917 3215 3247 3436 3500 3355 3158 3093 3394 3525 3604 3948 -9999 -9999 -9999 -9999 -9999 -9999 -9999 -9999 -9999 -9999 -9999 -9999
-9999 -9999 -9999 -9999 -9999 -9999 -9999 -9999 -9999 -9999 -9999 -9999 -9999 -9999 -9999 -9999 -9999 -9999 -9999 -9999 -9999 -9999 -9999 -9999 -9999 -9999 -9999 -9999 -9999 -9999 -9999 -9999 -9999 -9999 -9999 -9999 -9999 -9999 -9999 2681 2701 2423 2354 2256 2205 2063 2024 2004 1886 1631 1696 1904 2000 1880 1871 1866 1886 1933 2016 2045 2002 1916 1978 2149 2074 2163 2070 2171 2221 2409 2461 2383 2389 2390 2334 2512 2703 2967 2972 3047 3081 3180 3184 3236 2976 2831 2527 2371 2462 2478 2550 2673 2626 2718 2707 2815 2402 2316 2231 1847 1669 1961 2091 2468 2818 3133 2885 2684 2393 2175 2068 1983 2204 2543 2544 2496 2252 2564 2665 2512 2647 2841 2923 3083 3207 3277 3248 2953 2772 2522 2272 2052 1947 1764 1614 1650 1547 1561 1783 1992 2247 2385 2718 3017 3119 3089 2767 2516 2248 2112 2083 2126 1971 2190 2292 2381 2517 2682 2781 3122 3389 3185 3230 3210 3005 2857 3072 3155 3411 3571 3763 3650 3441 3282 3204 2976 2932 2956 2888 2864 2814 2802 2719 2779 2840 3126 3205 3298 3240 3116 3157 3399 3648 3703 3873 3638 3517 3605 3627 3473 3319 3253 3214 3079 3015 3000 3039 3226 3174 3180 3228 3318 3207 3060 2954 2774 2528 2445 2852 2918 2663 2603 2658 2521 2331 2264 2293 2380 2559 2689 2993 3255 3182 3336 3564 3196 3108 3320 3655 3522 3356 2992 2804 2861 3005 3250 3018 2765 2478 2496 2646 2643 2386 2473 2740 2677 2681 2647 2487 2453 2509 2487 2519 2428 2409 2493 2490 2465 2433 2338 2354 2447 2437 2384 2325 2331 2412 2410 2397 2330 2237 2335 2196 2184 2174 2150 2191 2212 2222 2229 2242 2254 2265 2318 2347 2446 2447 2471 2397 2365 2353 2337 2443 2541 2590 2570 2561 2517 2541 2570 2626 2688 2679 2696 2748 2871 2712 2831 2868 2877 2931 2968 2980 3127 3185 3262 3147 2846 2795 2973 3200 3272 3616 3494 3158 3209 3348 3289 2972 2911 3235 3269 3532 3679 3565 3470 3273 3363 3505 3705 3937 -9999 -9999 -9999 -9999 -9999 -9999 -9999 -9999 -9999 -9999 -9999 -9999
-9999 -9999 -9999 -9999 -9999 -9999 -9999 -9999 -9999 -9999 -9999 -9999 -9999 -9999 -9999 -9999 -9999 -9999 -9999 -9999 -9999 -9999 -9999 -9999 -9999 -9999 -9999 -9999 -9999 -9999 -9999 -9999 -9999 -9999 -9999 -9999 -9999 -9999 2531 2578 2508 2352 2251 2042 1899 1764 1785 1793 1682 1656 1943 1951 1876 1804 1904 1882 1934 1918 1945 1929 1956 1813 1867 1986 1914 1899 1922 1894 2004 2258 2202 2105 2108 2241 2578 2807 2880 2773 2644 2637 2728 2785 3113 3057 2754 2653 2641 2754 2912 2830 2904 3065 2948 3018 3043 3107 2712 2465 2222 1858 1583 1801 2000 2400 2724 2780 2614 2600 2391 2043 1878 1979 2296 2447 2160 2085 2011 2326 2321 2108 2263 2346 2432 2803 2977 3205 3243 3004 2879 2629 2577 2304 2172 1911 1625 1612 1548 1543 1862 2095 2408 2567 2702 2657 2726 2736 2698 2519 2315 2376 2430 2447 2114 2088 2190 2317 2509 2785 2954 3155 3505 3543 3412 3481 3247 3057 3201 3313 3541 3768 3578 3539 3407 3247 3041 3156 3254 3259 3245 3216 3171 3121 2851 2615 2608 2746 2887 3036 2922 2891 3145 3352 3355 3506 3391 3292 3611 3738 3614 3474 3408 3363 3250 3201 3237 3115 2962 2979 3005 3202 3246 3348 3272 3195 3027 2695 2437 2506 2812 2941 2678 2457 2279 2217 2319 2380 2677 2794 2741 2907 3108 3402 3361 3625 3707 3341 3272 3540 3366 3241 3340 3078 2785 2732 2882 3012 3190 2936 2678 2677 2483 2374 2338 2365 2469 2491 2515 2485 2494 2345 2409 2380 2358 2358 2403 2401 2408 2412 2404 2368 2297 2355 2397 2387 2373 2288 2379 2376 2360 2357 2314 2168 2145 2134 2176 2202 2208 2221 2234 2251 2261 2292 2320 2417 2440 2406 2376 2464 2506 2473 2449 2397 2354 2366 2478 2538 2644 2558 2568 2621 2656 2708 2751 2783 2826 2899 2811 2843 2958 2991 3045 3091 3103 3241 3342 3423 3359 2977 3229 2904 2958 3127 3485 3787 3458 3314 3521 3578 3189 2981 3096 3478 3765 3811 3831 3686 3451 3374 3500 3652 3761 3863 -9999 -9999 -9999 -9999 -9999 -9999 -9999 -9999 -9999 -9999 -9999
-9999 -9999 -9999 -9999 -9999 -9999 -9999 -9999 -9999 -9999 -9999 -9999 -9999 -9999 -9999 -9999 -9999 -9999 -9999 -9999 -9999 -9999 -9999 -9999 -9999 -9999 -9999 -9999 -9999 -9999 -9999 -9999 -9999 -9999 -9999 -9999 -9999 -9999 2381 2494 2120 1882 1869 1802 1751 1571 1583 1701 1910 1887 1764 1729 1745 1866 1946 1952 1935 1889 1884 1916 1821 1678 1712 1759 1740 1753 1963 2019 1972 1926 2053 2258 2361 2496 2518 2449 2447 2344 2335 2561 2812 2917 3140 3027 2852 2865 3145 3003 3169 3195 3222 3300 3173 3127 2989 2738 2479 2102 1980 1729 1541 1848 2094 2558 2513 2355 2122 2113 1951 1806 1877 2054 2419 2393 2054 1898 1890 2106 2325 1964 1921 1988 2282 2578 2682 2962 3036 2720 2683 2784 2769 2501 2368 1895 1614 1583 1544 1561 2069 2375 2414 2380 2347 2300 2445 2472 2516 2751 2571 2594 2710 2691 2316 2146 2047 2278 2609 2808 2876 3103 3419 3626 3600 3615 3467 3289 3370 3481 3501 3725 3576 3476 3261 3196 3337 3470 3488 3429 3215 3102 3049 2832 2698 2891 2881 2598 2651 2657 2676 2922 2883 2942 3254 3290 3090 3305 3415 3345 3271 3236 3316 3361 3335 3403 3309 3182 3184 2907 2889 3133 3219 3276 3269 3063 2896 2599 2329 2608 2875 2752 2487 2268 2254 2348 2637 2599 2579 2643 2835 3078 3372 3666 3804 3853 3558 3466 3486 3574 3229 2933 2924 3111 2917 2580 2568 2821 3068 3219 3042 2868 2579 2462 2371 2311 2294 2412 2385 2387 2393 2300 2387 2342 2281 2360 2371 2352 2377 2395 2382 2336 2340 2277 2356 2351 2351 2342 2254 2321 2347 2337 2160 2130 2175 2191 2210 2224 2235 2237 2239 2262 2321 2305 2308 2424 2450 2470 2487 2500 2446 2493 2517 2554 2491 2413 2366 2397 2535 2679 2628 2593 2659 2732 2809 2829 2878 2955 2944 2823 2830 2857 2897 3009 3126 3232 3407 3509 3533 3145 3119 3253 2941 2890 3129 3520 3802 3561 3473 3803 3403 3118 2993 3421 3593 3615 3632 3666 3571 3511 3535 3598 -9999 -9999 -9999 -9999 -9999 -9999 -9999 -9999 -9999 -9999 -9999 -9999 -9999
-9999 -9999 -9999 -9999 -9999 -9999 -9999 -9999 -9999 -9999 -9999 -9999 -9999 -9999 -9999 -9999 -9999 -9999 -9999 -9999 -9999 -9999 -9999 -9999 -9999 -9999 -9999 -9999 -9999 -9999 -9999 -9999 -9999 -9999 -9999 -9999 -9999 2404 2305 2449 2081 1694 1591 1598 1753 1813 1948 2029 1950 1895 1862 1889 1896 1916 1915 1893 1827 1755 1780 1799 1631 1594 1625 1746 1808 1818 1714 1734 1755 1814 1888 2067 2086 2058 2088 2071 2102 2174 2289 2561 2895 3072 3431 3236 3174 3208 3324 3290 3318 3392 3294 3323 3217 2845 2653 2258 2110 1878 1731 1481 1717 1911 2073 2451 2124 1853 1778 1747 1653 1859 2150 2300 2490 2182 1977 1891 1711 2052 2142 1956 1780 2036 2285 2520 2675 2986 2818 2696 2547 2466 2347 2125 2026 1697 1512 1530 1591 1774 2097 2221 2068 2060 2038 2162 2213 2316 2528 2806 2907 2933 2919 2695 2705 2678 2494 2154 2368 2695 2864 2996 3079 3322 3460 3449 3572 3546 3520 3628 3771 3653 3473 3395 3444 3674 3568 3450 3376 3185 2935 2862 2821 2843 3033 3116 3159 2866 2600 2482 2478 2540 2613 2826 3139 3085 3020 3235 3184 3103 3169 3176 3202 3184 3193 3296 3340 3323 3238 3098 2842 2828 2905 3014 2897 2883 2789 2474 2261 2595 2759 2580 2244 2275 2452 2539 2729 2899 2850 2875 2904 3166 3353 3633 3804 3834 3745 3587 3551 3299 3267 2936 2767 2733 2825 2692 2528 2673 3013 3069 2851 2809 2803 2689 2519 2466 2277 2296 2360 2327 2337 2288 2355 2325 2245 2304 2340 2343 2370 2373 2358 2347 2332 2212 2329 2262 2270 2289 2284 2204 2202 2159 2117 2160 2191 2200 2215 2230 2244 2277 2271 2252 2279 2328 2374 2357 2352 2377 2395 2471 2537 2558 2567 2577 2597 2511 2446 2448 2409 2529 2712 2727 2693 2732 2764 2767 2817 2899 3048 3121 3121 3229 3134 3010 2913 3361 3348 3358 3509 3685 3259 3208 3337 3154 2925 3073 3427 3532 3753 3685 3693 3483 3000 3135 3325 3438 3580 3805 4079 3934 3881 -9999 -9999 -9999 -9999 -9999 -9999 -9999 -9999 -9999 -9999 -9999 -9999 -9999 -9999
-9999 -9999 -9999 -9999 -9999 -9999 -9999 -9999 -9999 -9999 -9999 -9999 -9999 -9999 -9999 -9999 -9999 -9999 -9999 -9999 -9999 -9999 -9999 -9999 -9999 -9999 -9999 -9999 -9999 -9999 -9999 -9999 -9999 -9999 -9999 -9999 -9999 2347 2257 2372 2115 1694 1513 1732 2005 2007 2062 1966 1912 1887 1878 1896 1912 1860 1846 1811 1631 1568 1600 1599 1603 1673 1654 1636 1669 1676 1796 1857 1940 1794 1806 1913 1936 1954 2002 2201 2224 2231 2302 2534 2886 3051 3409 3291 3239 3344 3363 3411 3302 3220 3017 3129 3126 2763 2564 2132 1903 1665 1585 1483 1848 2140 2157 2298 2061 1759 1610 1616 1762 2033 2169 2167 2314 2057 1883 1811 1680 2030 2065 1739 1791 2095 2493 2639 2750 2938 2693 2677 2542 2358 2163 1945 1860 1537 1495 1514 1757 1910 2138 2105 1958 1956 2028 2114 2273 2386 2629 2896 3101 3027 2941 2940 2971 2759 2634 2309 2282 2678 2839 2783 3011 3308 3269 3296 3394 3536 3596 3599 3580 3615 3500 3500 3595 3584 3398 3276 3220 3029 2899 3000 2907 2950 3166 3232 3284 2988 2681 2565 2510 2417 2476 2715 2948 2929 2960 3026 3034 3025 3111 3104 3151 3184 3143 3195 3262 3291 3261 3137 3005 2742 2707 2808 2697 2676 2660 2417 2257 2591 2608 2498 2195 2358 2488 2604 2833 3061 3041 2994 3082 3265 3477 3719 3680 3771 3702 3435 3372 3146 3147 2970 2767 2602 2708 2538 2437 2710 2956 2969 2745 2653 2785 2676 2562 2483 2339 2240 2361 2348 2287 2279 2341 2332 2238 2281 2293 2327 2330 2352 2347 2311 2309 2202 2294 2283 2221 2249 2312 2178 2144 2118 2138 2165 2189 2196 2213 2227 2255 2291 2311 2289 2275 2304 2320 2407 2442 2439 2431 2414 2436 2478 2501 2579 2622 2571 2470 2463 2402 2507 2640 2711 2741 2757 2827 2864 2934 2965 3038 3275 3260 3344 3236 3227 2990 3278 3497 3357 3460 3812 3528 3229 3450 3480 3090 2951 3224 3391 3568 3531 3749 3698 3110 3089 3305 3433 3575 3829 4125 -9999 -9999 -9999 -9999 -9999 -9999 -9999 -9999 -9999 -9999 -9999 -9999 -9999 -9999 -9999 -9999
-9999 -9999 -9999 -9999 -9999 -9999 -9999 -9999 -9999 -9999 -9999 -9999 -9999 -9999 -9999 -9999 -9999 -9999 -9999 -9999 -9999 -9999 -9999 -9999 -9999 -9999 -9999 -9999 -9999 -9999 -9999 -9999 -9999 -9999 -9999 2396 2344 2366 2301 2174 1930 1572 1445 1752 2053 1971 1953 1870 1848 1828 1767 1718 1565 1566 1611 1640 1724 1986 2075 2066 2008 1846 1777 1822 1730 1846 2110 2210 2250 2205 2258 2347 2288 2166 2427 2448 2478 2481 2802 2763 2825 2943 3236 3438 3339 3423 3362 3064 2850 2735 2561 2678 2628 2625 2639 2242 2057 1754 1632 1450 1791 2193 2340 2258 1884 1660 1528 1692 1970 1823 1727 1804 1868 1973 1723 1580 1800 1744 1711 1498 1566 1727 2027 2174 2349 2420 2236 2019 1950 1905 1718 1561 1489 1606 1933 1790 1604 1720 1959 1823 1907 2021 2251 2404 2409 2415 2535 2740 3010 3224 3276 3256 3027 2747 2654 2512 2219 2489 2493 2700 2824 2953 2928 3038 3211 3160 3218 3180 3272 3408 3643 3776 3529 3287 3109 3084 3031 3070 3090 3236 3073 3172 3165 3490 3422 3073 3040 2994 2843 2764 2381 2446 2572 2663 2800 2702 2933 2963 3081 3129 3138 3143 3151 3081 3133 3138 3158 3224 3212 3012 2898 2667 2504 2379 2353 2262 2191 2406 2227 2163 2288 2562 2856 2879 2928 3141 3295 3315 3454 3399 3716 3548 3407 3373 3379 3571 3514 3230 2943 2914 2799 2475 2332 2540 2662 2714 2603 2773 2754 2680 2499 2538 2417 2402 2355 2182 2339 2328 2270 2236 2316 2317 2272 2276 2246 2265 2298 2300 2323 2311 2307 2202 2171 2265 2207 2167 2186 2126 2108 2133 2151 2171 2183 2188 2211 2291 2288 2360 2372 2372 2366 2289 2299 2338 2355 2405 2464 2530 2562 2558 2562 2591 2560 2606 2615 2586 2594 2472 2615 2653 2724 2834 2975 2970 3115 2959 3167 3145 3262 3482 3437 3486 3219 2995 3509 3646 3500 3669 3944 3673 3346 3464 3395 3137 2996 3055 3272 3601 3822 3790 3724 3623 3586 3578 3639 3781 -9999 -9999 -9999 -9999 -9999 -9999 -9999 -9999 -9999 -9999 -9999 -9999 -9999 -9999 -9999 -9999 -9999
-9999 -9999 -9999 -9999 -9999 -9999 -9999 -9999 -9999 -9999 -9999 -9999 -9999 -9999 -9999 -9999 -9999 -9999 -9999 -9999 -9999 -9999 -9999 -9999 -9999 -9999 -9999 -9999 -9999 -9999 -9999 -9999 -9999 -9999 2350 2284 2232 2286 2153 2016 1748 1446 1572 1934 1868 1846 1791 1741 1791 1643 1490 1613 1737 1860 1872 1852 1853 1819 2106 2078 2073 2013 1977 1961 1935 1920 2211 2517 2655 2488 2505 2658 2527 2362 2704 2837 2805 2682 2983 3218 3002 3046 3178 3464 3336 3223 2902 2642 2477 2391 2196 2185 2250 2198 2219 2095 1966 1668 1471 1590 1947 2080 2012 2019 1746 1522 1539 1592 1490 1440 1381 1422 1479 1488 1466 1511 1434 1423 1454 1453 1448 1570 1644 1616 1741 1788 1627 1498 1494 1532 1599 1706 1785 2000 2213 2180 1747 1595 1779 1887 2135 2205 2292 2641 2792 2750 2788 2843 3017 3299 3458 3317 3145 3016 2960 2838 2594 2276 2303 2372 2525 2649 2805 2745 2781 2958 3027 3136 3299 3566 3794 3772 3471 3206 3302 3329 3241 3473 3342 3434 3293 3319 3307 3657 3525 3357 3322 3106 3044 2778 2530 2315 2422 2467 2419 2628 2856 2973 3091 3125 3163 3157 3162 3106 3024 3028 3069 3158 3219 3178 3174 3066 2865 2690 2573 2306 2157 2207 2348 2407 2368 2635 2969 3150 3101 3100 3182 3315 3591 3479 3485 3540 3411 3101 3107 3205 3264 3326 2986 2715 2567 2390 2289 2314 2376 2373 2492 2700 2554 2492 2399 2436 2368 2336 2306 2157 2323 2310 2223 2181 2298 2287 2299 2158 2269 2224 2246 2225 2280 2206 2219 2176 2139 2148 2135 2121 2088 2115 2132 2143 2158 2175 2189 2237 2279 2353 2361 2370 2386 2416 2434 2447 2440 2344 2324 2349 2368 2418 2515 2549 2578 2648 2664 2591 2726 2733 2750 2691 2477 2556 2708 2907 3145 3237 3274 3056 3239 3452 3217 3234 3626 3636 3444 3373 3081 3307 3389 3525 3622 3767 3397 3429 3870 3446 3278 3317 3206 3348 3762 3933 4212 4153 3985 3996 3905 -9999 -9999 -9999 -9999 -9999 -9999 -9999 -9999 -9999 -9999 -9999 -9999 -9999 -9999 -9999 -9999 -9999 -9999
-9999 -9999 -9999 -9999 -9999 -9999 -9999 -9999 -9999 -9999 -9999 -9999 -9999 -9999 -9999 -9999 -9999 -9999 -9999 -9999 -9999 -9999 -9999 -9999 -9999 -9999 -9999 -9999 -9999 2166 2115 2106 2184 2214 2207 2224 2178 2209 2038 1873 1603 1516 1536 1720 1634 1598 1602 1591 1493 1496 1794 1808 1959 2075 2137 2162 2162 1990 2096 2155 2317 2374 2318 2331 2310 2330 2336 2469 2765 2938 2934 2949 2843 2636 2909 3161 3126 2931 3100 3207 3272 3229 3339 3431 3275 3199 3030 2894 2657 2563 2207 1889 1967 2001 2075 2059 1739 1569 1460 1638 1858 1647 1615 1680 1457 1409 1375 1315 1349 1413 1555 1645 1560 1655 1615 1664 1790 1724 1764 1816 1795 1521 1470 1490 1504 1478 1581 1888 1729 1878 1901 2164 2178 2185 2505 2296 1942 1857 1646 1836 2224 2439 2566 2756 2942 2997 3176 3230 3182 3438 3562 3442 3310 3228 3238 3030 2682 2391 2526 2816 2631 2540 2690 2807 2890 2911 2946 2956 3122 3415 3790 3676 3483 3310 3511 3708 3513 3504 3671 3542 3382 3478 3403 3672 3631 3321 3059 2843 2750 2616 2536 2398 2370 2291 2433 2710 2999 3139 3026 2940 3129 3139 3093 3055 2957 2851 2965 3097 3196 3272 3250 3198 2869 2567 2424 2203 2314 2655 2661 2510 2391 2707 2911 2941 3056 3234 3315 3439 3453 3237 3155 3342 3423 3263 2996 2788 2951 3280 3197 2853 2739 2629 2572 2302 2214 2305 2382 2480 2477 2405 2336 2369 2333 2290 2253 2135 2296 2257 2204 2147 2268 2258 2302 2207 2130 2164 2214 2191 2124 2117 2116 2122 2109 2105 2073 2093 2114 2130 2143 2161 2177 2243 2269 2265 2260 2255 2289 2299 2307 2331 2382 2441 2444 2487 2484 2391 2380 2357 2450 2602 2635 2676 2713 2718 2689 2724 2787 2859 2663 2527 2763 2971 3191 3290 3433 3222 3096 3545 3593 3655 3415 3709 3848 3687 3411 3172 3258 3624 3680 3743 3606 3562 3760 3804 3442 3537 3435 3266 3474 3663 4022 3841 -9999 -9999 -9999 -9999 -9999 -9999 -9999 -9999 -9999 -9999 -9999 -9999 -9999 -9999 -9999 -9999 -9999 -9999 -9999 -9999 -9999
-9999 -9999 -9999 -9999 -9999 -9999 -9999 -9999 -9999 -9999 -9999 -9999 -9999 -9999 -9999 -9999 -9999 -9999 -9999 -9999 -9999 -9999 -9999 -9999 -9999 -9999 2191 2191 2145 2126 2024 2053 2055 2126 2045 2120 2250 2275 2090 1767 1661 1435 1410 1557 1537 1487 1496 1413 1525 1709 1833 1874 1964 2051 2153 2210 2285 2221 2080 2256 2477 2659 2493 2535 2591 2509 2511 2431 2594 3160 3135 3033 2843 2825 3017 3236 3172 3020 3223 3244 3342 3319 3437 3281 3278 3197 2924 2670 2527 2389 2091 1796 1755 1957 2029 1922 1713 1506 1396 1606 1683 1538 1497 1494 1400 1390 1351 1304 1416 1517 1715 1806 1742 1865 1927 2034 2014 1952 2001 2040 2040 1724 1682 1683 1717 1696 1814 1929 1725 1919 2012 2239 2370 2301 2524 2393 2127 2022 1747 1861 2233 2246 2433 2648 2751 2876 3132 3357 3338 3459 3536 3488 3295 3064 3031 2914 2619 2476 2651 2895 2784 2668 2703 2774 2952 3044 3127 3094 3114 3442 3786 3832 3558 3381 3536 3896 3745 3564 3797 3561 3443 3529 3455 3625 3559 3229 2959 2732 2691 2597 2435 2508 2390 2298 2376 2597 2913 3063 2888 2859 3003 3046 3094 2983 2857 2880 2995 3120 3230 3218 3117 3118 2866 2525 2405 2144 2405 2798 2636 2513 2380 2614 2697 2765 3000 3062 3172 3305 3449 3276 3029 3159 3290 3209 3010 2689 2808 3099 3240 2989 2927 2820 2609 2350 2247 2218 2319 2428 2412 2391 2289 2333 2337 2278 2250 2124 2273 2264 2162 2139 2257 2226 2286 2253 2106 2131 2165 2110 2093 2092 2095 2099 2088 2071 2079 2104 2124 2154 2141 2146 2186 2239 2269 2288 2328 2336 2369 2358 2402 2388 2355 2417 2454 2497 2535 2495 2426 2411 2387 2539 2587 2702 2738 2766 2741 2777 2804 2902 2703 2547 2808 2970 3129 3227 3436 3350 3149 3475 3634 3718 3502 3748 3886 3689 3396 3215 3250 3521 3740 3717 3727 3640 3663 3800 3638 3581 3457 3312 3415 3593 3839 3702 -9999 -9999 -9999 -9999 -9999 -9999 -9999 -9999 -9999 -9999 -9999 -9999 -9999 -9999 -9999 -9999 -9999 -9999 -9999 -9999 -9999
-9999 -9999 -9999 -9999 -9999 -9999 -9999 -9999 -9999 -9999 -9999 -9999 -9999 -9999 -9999 -9999 -9999 -9999 -9999 -9999 -9999 -9999 -9999 -9999 -9999 2092 2114 2063 2071 1999 2003 1949 1918 1902 1867 2051 2225 2171 2125 1794 1629 1605 1429 1378 1350 1523 1531 1430 1633 1802 1843 1862 1869 2000 2080 2044 2264 2486 2334 2236 2425 2780 3004 3143 3047 2889 2888 2732 2743 3133 3388 3147 3045 3008 3203 3355 3351 3252 3225 3132 3337 3305 3115 3013 2812 2878 2770 2476 2226 2125 2008 1781 1560 1622 1655 1707 1716 1454 1331 1592 1509 1391 1376 1341 1286 1276 1302 1412 1739 1807 1912 2013 2208 2276 2369 2442 2497 2481 2512 2608 2488 2258 1921 2007 1941 1937 2237 1881 1763 2107 2335 2386 2510 2761 2867 2519 2198 2052 1715 1858 2025 2119 2273 2420 2768 2930 3010 3101 3205 3399 3520 3393 3170 2971 2833 2650 2631 2802 2937 3178 3140 2873 2796 2809 2882 2984 3261 3433 3223 3362 3684 3810 3649 3514 3600 3690 3656 3709 3818 3780 3626 3484 3418 3445 3457 3302 3003 3025 2858 2718 2693 2697 2396 2284 2293 2616 2928 2922 2644 2680 2857 2964 3079 2915 2606 2854 3006 3100 3149 3116 2987 2726 2743 2500 2355 2123 2492 2951 2715 2544 2441 2695 2754 2784 2821 2913 3188 3349 3459 3283 3108 2882 2848 2715 2623 2526 2636 2899 3115 3089 3087 2856 2569 2482 2394 2210 2231 2327 2398 2374 2269 2249 2228 2235 2214 2104 2224 2242 2112 2140 2213 2141 2186 2169 2110 2074 2064 2066 2043 2045 2053 2062 2083 2095 2116 2132 2154 2170 2184 2189 2186 2182 2199 2254 2358 2367 2391 2422 2417 2460 2442 2468 2450 2510 2563 2588 2584 2534 2410 2545 2543 2550 2589 2640 2749 2822 2923 2982 2621 2604 2851 3050 3241 3453 3541 3584 3574 3475 3520 3752 3856 3761 3789 3833 3377 3325 3298 3427 3539 3639 3688 3750 3852 3751 3663 3626 3602 3487 3423 3419 3522 3665 -9999 -9999 -9999 -9999 -9999 -9999 -9999 -9999 -9999 -9999 -9999 -9999 -9999 -9999 -9999 -9999 -9999 -9999 -9999 -9999 -9999
-9999 -9999 -9999 -9999 -9999 -9999 -9999 -9999 -9999 -9999 -9999 -9999 -9999 -9999 -9999 -9999 -9999 -9999 -9999 -9999 -9999 -9999 -9999 -9999 2013 1975 2015 2018 2004 1948 1829 1870 1799 1734 2006 2119 2126 1885 1813 1685 1598 1363 1302 1445 1580 1640 1651 1752 1646 1638 1705 1668 1947 2138 2266 2286 2210 2495 2781 2815 2589 2538 2814 3001 3150 3200 3204 3043 3014 3175 3455 3325 3222 3193 3354 3309 3197 2997 2823 2856 3147 3273 3044 2726 2497 2429 2588 2479 2236 2110 1955 1743 1452 1523 1566 1632 1670 1434 1342 1336 1368 1260 1249 1328 1380 1359 1584 1642 1783 1920 2051 2170 2484 2632 2718 2778 2814 2903 2847 2973 2850 2466 2240 2360 2208 2178 2355 2003 1929 1918 2153 2493 2650 2993 2985 2603 2285 2113 1764 1863 1953 1993 2065 2281 2541 2587 2614 2812 3122 3410 3493 3622 3364 3135 3081 2774 2860 3134 3249 3410 3111 2915 3144 3235 3051 3011 3262 3422 3515 3444 3767 3904 3848 3639 3460 3289 3246 3431 3572 3593 3394 3066 2943 3112 3226 3373 3241 3072 3048 3120 2975 2850 2761 2586 2222 2367 2651 2648 2458 2728 3034 3076 3050 2775 2462 2623 2782 2929 3118 3115 3049 2805 2553 2312 2229 2226 2608 2968 2631 2512 2508 2796 3149 3235 3111 3185 3218 3103 3076 3133 3327 3219 3116 2987 2878 2503 2379 2627 2661 2805 2835 2642 2593 2466 2468 2351 2143 2216 2319 2301 2259 2260 2171 2136 2125 2099 2204 2179 2091 2107 2144 2076 2048 2044 2050 2053 2045 2032 2065 2072 2078 2103 2108 2115 2179 2215 2244 2239 2216 2212 2222 2228 2217 2209 2217 2329 2423 2450 2458 2484 2509 2525 2537 2546 2548 2582 2600 2647 2551 2522 2674 2754 2796 2854 2691 2729 2973 3008 2691 2610 2756 3139 3448 3565 3682 3710 3766 3702 3755 3553 3684 4017 3987 4116 4100 3853 3773 3684 3587 3696 3821 3895 3980 3759 3513 3531 3640 3899 3614 3516 3539 -9999 -9999 -9999 -9999 -9999 -9999 -9999 -9999 -9999 -9999 -9999 -9999 -9999 -9999 -9999 -9999 -9999 -9999 -9999 -9999 -9999 -9999
-9999 -9999 -9999 -9999 -9999 -9999 -9999 -9999 -9999 -9999 -9999 -9999 -9999 -9999 -9999 -9999 -9999 -9999 -9999 -9999 -9999 1959 1951 1972 1880 1870 1908 1925 1851 1798 1678 1803 1780 1647 1910 1931 1832 1719 1671 1474 1344 1350 1403 1447 1607 1696 1748 1802 1877 1952 1999 1983 1786 1823 2048 2189 2406 2409 2515 2673 2970 2970 2903 2951 2999 3278 3285 3238 3210 3292 3396 3351 3276 3238 3035 2935 2869 2605 2484 2628 2955 2909 3007 2800 2506 2301 2118 2149 1976 1904 1815 1768 1522 1396 1486 1575 1580 1529 1434 1275 1314 1401 1411 1429 1451 1522 1507 1558 1539 1592 1953 2093 2424 2691 2991 3059 3076 3171 3119 3151 3155 2960 2655 2510 2462 2347 2572 2477 2399 2190 2225 2700 2958 3115 2708 2447 2128 2018 1832 1990 2187 2254 2336 2184 2344 2439 2580 2825 2917 3173 3270 3350 3457 3436 3304 3095 3007 3011 3038 3426 3272 3049 3185 3342 3448 3171 3212 3389 3717 3666 3626 3703 3755 3470 3252 3003 3016 3135 3225 3234 3125 2903 2724 2878 2933 3134 3425 3316 3315 3422 3155 2865 2607 2457 2221 2210 2303 2285 2504 2857 2965 2950 2998 2779 2422 2484 2595 2786 2734 2594 2597 2563 2482 2386 2217 2323 2732 2957 2588 2492 2570 2855 3122 3274 3596 3416 3173 3150 2933 2773 2971 3239 3351 3177 2946 2707 2534 2276 2366 2464 2546 2425 2420 2340 2309 2290 2258 2105 2231 2296 2263 2160 2181 2149 2050 2091 2180 2124 2079 2034 2027 2031 2032 2035 2020 2032 2052 2068 2081 2090 2095 2106 2116 2178 2222 2234 2236 2260 2284 2290 2254 2255 2238 2252 2269 2265 2276 2387 2433 2434 2500 2535 2558 2591 2610 2634 2648 2686 2701 2503 2579 2719 2834 2910 2972 2882 2854 3182 3080 2942 2785 2654 2903 3072 3283 3436 3783 3916 3795 3921 3755 3849 3998 4105 4158 4075 4029 3968 3796 3767 3945 3921 3775 3526 3312 3284 3404 3606 3788 3709 -9999 -9999 -9999 -9999 -9999 -9999 -9999 -9999 -9999 -9999 -9999 -9999 -9999 -9999 -9999 -9999 -9999 -9999 -9999 -9999 -9999 -9999 -9999
-9999 -9999 -9999 -9999 -9999 -9999 -9999 -9999 -9999 -9999 -9999 -9999 -9999 -9999 -9999 -9999 -9999 -9999 -9999 -9999 1958 1899 1880 1956 1823 1855 1887 1866 1776 1729 1750 1665 1746 1642 1826 1860 1751 1578 1519 1386 1298 1483 1536 1526 1595 1727 1756 1845 1860 1923 2000 2045 1997 1871 1844 1993 2179 2527 2685 2637 2817 3138 3061 3099 3063 3207 3391 3312 3272 3397 3324 3130 3026 3090 2906 2789 2786 2494 2280 2473 2745 2729 2802 2643 2592 2357 1992 1931 1855 1822 1812 1678 1511 1324 1396 1571 1512 1374 1315 1281 1358 1450 1497 1500 1535 1618 1686 1696 1849 1515 1892 2099 2314 2346 2658 2751 2871 3053 3104 3255 3304 3168 2854 2663 2649 2496 2756 2705 2589 2408 2262 2664 2941 3037 2701 2400 2152 2056 1912 2029 2313 2465 2509 2267 2303 2307 2392 2533 2727 2991 3084 3153 3282 3537 3415 3327 3148 3169 3103 3381 3448 3122 3242 3374 3505 3284 3238 3386 3610 3666 3722 3823 3618 3407 3150 2927 2842 2912 3130 2958 2863 2726 2678 2776 2882 3143 3476 3431 3410 3442 3150 2822 2688 2569 2306 2139 2191 2317 2574 2845 2882 2773 2911 2742 2458 2294 2447 2657 2542 2407 2403 2392 2314 2409 2219 2257 2626 2796 2551 2483 2582 2796 3101 3259 3560 3403 3134 3133 3072 2806 2768 3081 3143 3153 2982 2676 2527 2304 2287 2356 2410 2402 2331 2313 2298 2258 2280 2101 2177 2270 2263 2194 2102 2115 2035 2080 2126 2066 2029 2027 2024 2026 2026 2014 2022 2053 2062 2076 2083 2093 2097 2111 2124 2186 2194 2209 2256 2272 2294 2303 2314 2269 2247 2266 2350 2293 2308 2369 2355 2417 2396 2408 2443 2564 2623 2669 2674 2727 2665 2577 2664 2702 2770 2861 2989 2976 2769 3142 3317 3209 2892 2693 2773 2863 2974 3127 3604 3913 3896 3931 3773 3717 3765 3840 3903 3887 3877 3937 3871 3831 3879 3834 3635 3386 3200 3276 3463 3515 3740 -9999 -9999 -9999 -9999 -9999 -9999 -9999 -9999 -9999 -9999 -9999 -9999 -9999 -9999 -9999 -9999 -9999 -9999 -9999 -9999 -9999 -9999 -9999 -9999
-9999 -9999 -9999 -9999 -9999 -9999 -9999 -9999 -9999 -9999 -9999 -9999 -9999 -9999 -9999 -9999 -9999 -9999 -9999 -9999 1908 1858 1760 1832 1698 1738 1726 1674 1552 1591 1553 1475 1542 1570 1600 1729 1569 1434 1382 1303 1482 1551 1580 1603 1595 1676 1734 1835 1924 1925 1988 2062 2231 2304 2134 2042 1995 2288 2633 2747 2898 3046 3153 3330 3353 3247 3361 3394 3264 3061 2735 2563 2480 2611 2680 2463 2607 2471 2177 2122 2304 2297 2386 2584 2213 2150 2235 1876 1637 1625 1531 1444 1360 1263 1340 1280 1216 1269 1307 1350 1388 1483 1538 1668 1681 1764 1921 2029 2083 1728 1587 1713 1884 2091 2075 2125 2472 2518 2603 2927 3106 3223 3192 3085 3031 2896 3055 2950 2733 2459 2483 2892 3143 2928 2727 2456 2202 2114 1993 2196 2408 2537 2673 2449 2580 2600 2743 2697 2843 2772 2796 2964 3217 3391 3571 3593 3400 3383 3274 3393 3630 3282 3343 3539 3929 3586 3394 3437 3584 3707 3875 3858 3695 3356 3178 2895 2772 2627 2675 2610 2586 2592 2654 2905 3045 3203 3313 3210 3068 3086 3025 2822 2789 2773 2461 2070 2210 2326 2617 2580 2672 2620 2480 2614 2355 2163 2338 2340 2213 2155 2130 2046 2131 2108 2110 2134 2246 2344 2392 2436 2657 2942 3187 3248 3459 3354 3020 2867 2954 2977 2638 2681 2760 2821 2700 2538 2468 2428 2313 2186 2186 2274 2325 2299 2262 2202 2251 2157 2067 2118 2251 2133 2066 2040 2014 2030 2003 2006 2009 2009 1998 1998 2017 2051 2057 2067 2074 2081 2085 2091 2097 2145 2179 2174 2215 2253 2273 2295 2316 2327 2350 2327 2277 2288 2361 2428 2335 2499 2549 2549 2596 2557 2599 2582 2609 2631 2711 2805 2581 2742 2809 2812 2897 2999 3096 3111 3017 2815 3013 3132 2964 2978 3162 3206 3175 3036 3045 3308 3407 3482 3340 3228 3226 3337 3441 3484 3503 3615 3659 3619 3576 3517 3284 3165 3221 3353 3360 3503 -9999 -9999 -9999 -9999 -9999 -9999 -9999 -9999 -9999 -9999 -9999 -9999 -9999 -9999 -9999 -9999 -9999 -9999 -9999 -9999 -9999 -9999 -9999 -9999 -9999
-9999 -9999 -9999 -9999 -9999 -9999 -9999 -9999 -9999 -9999 -9999 -9999 -9999 -9999 -9999 -9999 -9999 -9999 1897 1855 1837 1775 1755 1611 1629 1539 1510 1473 1444 1405 1403 1374 1399 1443 1519 1521 1525 1319 1275 1379 1500 1560 1600 1663 1699 1777 1807 1897 1947 2025 2066 2055 2341 2575 2530 2352 2210 2178 2276 2315 2588 2955 3279 3390 3343 3467 3377 2966 2835 2635 2490 2213 2066 2060 2274 2263 2127 2152 2173 1809 1921 2072 1947 2261 2240 2068 1807 1699 1533 1486 1412 1331 1195 1202 1224 1263 1294 1331 1342 1389 1529 1606 1590 1780 1786 1894 2087 2177 2281 2059 1796 1706 1687 1724 1925 2034 2061 2218 2540 2662 2642 2734 2965 3238 3418 3325 3226 3102 2985 2618 2780 3148 3059 2721 2460 2311 2212 2128 2182 2402 2575 2610 2914 2743 2761 2920 2992 3018 3113 3114 3117 3024 3095 3379 3524 3753 3666 3476 3420 3472 3757 3515 3434 3617 3817 3637 3526 3531 3709 3802 3898 3722 3584 3341 3136 3039 2910 2717 2602 2467 2448 2517 2717 2902 2857 2840 3037 2918 2825 2856 2999 2844 2751 2645 2298 2127 2172 2382 2501 2385 2230 2270 2213 2231 2120 2109 2112 2000 2016 2057 2112 2133 2266 2299 2320 2282 2429 2507 2519 2557 2810 2935 3164 3372 3511 3194 2968 2891 2655 2704 2677 2471 2407 2461 2430 2397 2339 2324 2343 2317 2262 2132 2211 2294 2264 2194 2113 2190 2082 2039 2128 2167 2051 2023 1996 1996 1986 1979 1978 2005 2046 2062 2068 2075 2082 2085 2085 2085 2097 2129 2167 2196 2218 2203 2213 2228 2261 2293 2332 2348 2373 2392 2308 2326 2428 2451 2478 2501 2440 2528 2645 2738 2745 2736 2802 2760 2666 2760 2652 2803 2892 2925 2964 3080 3235 3297 3228 3257 2935 2927 2927 3184 3591 3690 3643 3303 2913 2872 2894 2936 2944 2962 2970 3044 3116 3146 3149 3201 3227 3236 3197 3195 3122 3254 3327 3453 -9999 -9999 -9999 -9999 -9999 -9999 -9999 -9999 -9999 -9999 -9999 -9999 -9999 -9999 -9999 -9999 -9999 -9999 -9999 -9999 -9999 -9999 -9999 -9999 -9999 -9999 -9999
-9999 -9999 -9999 -9999 -9999 -9999 -9999 -9999 -9999 -9999 -9999 -9999 -9999 -9999 -9999 -9999 -9999 -9999 1897 1763 1730 1699 1619 1484 1492 1440 1497 1404 1375 1335 1311 1324 1309 1288 1347 1427 1506 1292 1467 1484 1425 1504 1539 1668 1753 1817 1841 1880 1942 2081 2243 2345 2357 2719 2808 2753 2687 2453 2582 2579 2540 2746 3073 3391 3530 3340 3164 3106 3024 2956 2529 2181 2067 1841 1796 1804 1858 1801 1738 1782 1574 1764 1864 2013 1853 1750 1549 1426 1376 1361 1305 1185 1245 1285 1287 1338 1344 1366 1402 1579 1738 1859 1738 1725 1875 2031 2146 2236 2348 2118 1962 1978 1990 1819 1760 1886 2025 2080 2317 2307 2483 2784 3073 3340 3540 3448 3314 3049 2939 2778 2996 3032 2899 2722 2609 2358 2293 2380 2369 2677 2945 2926 2993 3086 2948 3046 3262 3284 3325 3306 3342 3374 3331 3306 3438 3778 3550 3825 3821 3665 3799 3755 3559 3576 3805 3872 3860 3773 3747 3839 3714 3710 3619 3390 3223 3121 3069 3003 2799 2570 2480 2338 2342 2530 2540 2671 2844 2814 2680 2827 2926 2901 2765 2684 2398 2120 2047 2218 2238 2067 1966 1956 1972 1958 1984 2068 2137 2164 2291 2414 2504 2459 2344 2603 2756 2528 2551 2677 2836 2908 2923 3237 3318 3317 3537 3461 3145 3019 2755 2554 2418 2453 2555 2460 2305 2325 2325 2262 2190 2169 2239 2276 2086 2209 2245 2243 2118 2152 2104 2065 2008 2045 1987 1981 1975 1964 1968 1979 2021 2042 2058 2076 2084 2092 2106 2113 2115 2104 2139 2188 2192 2210 2226 2220 2269 2280 2305 2326 2351 2357 2384 2421 2426 2373 2468 2532 2579 2634 2630 2692 2514 2784 2856 2951 2993 3002 2800 2832 2782 2728 2841 3043 3127 3234 3270 3363 3426 3478 3422 3291 3031 3105 3449 3614 3636 3370 3096 2903 2830 2763 2991 3175 3207 3034 2984 2966 2960 2989 3039 3162 3290 3324 3276 3428 3492 -9999 -9999 -9999 -9999 -9999 -9999 -9999 -9999 -9999 -9999 -9999 -9999 -9999 -9999 -9999 -9999 -9999 -9999 -9999 -9999 -9999 -9999 -9999 -9999 -9999 -9999 -9999 -9999
-9999 -9999 -9999 -9999 -9999 -9999 -9999 -9999 -9999 -9999 -9999 -9999 -9999 -9999 -9999 -9999 -9999 -9999 1912 1787 1763 1635 1487 1403 1407 1372 1482 1384 1292 1290 1246 1234 1212 1216 1260 1296 1296 1494 1577 1624 1622 1462 1527 1660 1753 1853 1880 1953 2093 2176 2326 2465 2542 2592 2855 2985 3123 2750 2909 2870 2929 2876 3065 3261 3324 3510 3313 3289 3251 2856 2512 2391 2226 2170 2056 1847 1712 1687 1657 1604 1471 1471 1579 1561 1517 1481 1407 1354 1310 1267 1234 1215 1274 1384 1446 1363 1412 1495 1537 1717 1911 1866 1817 1872 1995 2208 2287 2389 2533 2402 2291 2307 2021 1922 2012 1937 1939 1969 2064 2336 2519 2881 2952 3325 3445 3341 3224 3129 3010 2936 3103 3361 3246 3049 2812 2469 2423 2557 2723 2773 3116 3295 3206 3303 3189 3224 3475 3531 3523 3650 3699 3540 3437 3435 3456 3740 3531 3433 3454 3502 3599 3675 3950 4088 3940 3858 3871 3797 3978 3875 3640 3550 3491 3618 3473 3336 3363 3105 2909 2723 2698 2505 2477 2224 2351 2653 2838 2705 2596 2650 2747 2825 2621 2506 2284 2120 1970 2011 1928 1995 2108 2064 2158 2190 2234 2298 2262 2278 2559 2631 2704 2595 2425 2700 2704 2822 2834 2854 3063 3089 3216 3390 3566 3618 3580 3411 3142 3075 2873 2639 2512 2371 2336 2287 2257 2206 2184 2245 2214 2169 2099 2107 2175 2062 2125 2218 2163 2032 2083 2078 2033 1978 1957 1952 1962 1986 2015 2024 2038 2045 2058 2080 2102 2144 2121 2139 2153 2181 2168 2139 2174 2226 2248 2271 2291 2302 2326 2348 2374 2388 2418 2445 2467 2483 2508 2588 2638 2698 2741 2758 2587 2738 2895 3013 3064 3120 3016 2936 2981 2712 2814 3119 3319 3299 3291 3313 3394 3583 3654 3659 3407 3177 3279 3498 3712 3591 3310 3175 3063 2848 2897 3180 3315 3431 3324 3222 3203 3172 3214 3295 3385 3561 3468 3389 -9999 -9999 -9999 -9999 -9999 -9999 -9999 -9999 -9999 -9999 -9999 -9999 -9999 -9999 -9999 -9999 -9999 -9999 -9999 -9999 -9999 -9999 -9999 -9999 -9999 -9999 -9999 -9999 -9999
-9999 -9999 -9999 -9999 -9999 -9999 -9999 -9999 -9999 -9999 -9999 -9999 -9999 -9999 -9999 -9999 -9999 -9999 1879 1749 1711 1572 1458 1403 1355 1356 1467 1407 1283 1258 1225 1198 1203 1239 1335 1386 1489 1596 1616 1653 1670 1611 1521 1593 1799 1890 1921 1978 2101 2342 2299 2425 2678 2750 2888 3007 3197 2968 3090 3103 3040 2977 3168 3272 3353 3431 3122 2992 2976 2878 2688 2462 2448 2360 2197 1878 1840 1844 1801 1873 1593 1389 1407 1414 1371 1379 1356 1306 1288 1245 1161 1233 1284 1446 1524 1446 1393 1534 1619 1795 2012 1904 1866 1953 2028 2267 2400 2495 2700 2543 2491 2407 2136 2005 2179 2164 2058 2138 2019 2312 2506 2677 2824 3254 3389 3176 3120 3173 3090 3112 3270 3332 3231 3134 2780 2447 2618 2675 2954 2963 3179 3384 3306 3401 3310 3384 3474 3464 3486 3609 3697 3638 3546 3554 3515 3723 3567 3350 3400 3489 3574 3758 3864 3987 3928 3744 3821 3705 3764 3844 3668 3581 3416 3461 3439 3362 3390 3202 2969 2856 2794 2586 2380 2179 2394 2594 2718 2712 2582 2557 2715 2754 2685 2578 2363 2244 2047 1946 1996 2104 2323 2205 2250 2343 2409 2446 2376 2364 2487 2741 2847 2694 2460 2731 2855 2880 3045 3025 3063 3211 3238 3284 3512 3620 3628 3351 3284 3159 2937 2678 2679 2516 2451 2366 2323 2254 2223 2154 2128 2097 2089 2067 2126 2034 2071 2181 2154 2051 2021 2054 1998 1964 1947 1948 1973 2008 2016 2033 2048 2074 2097 2075 2123 2163 2142 2151 2157 2199 2196 2150 2153 2186 2209 2243 2281 2300 2333 2367 2387 2407 2444 2475 2490 2535 2533 2620 2685 2735 2776 2801 2719 2643 2839 3021 3115 3161 3029 2870 3076 2776 2770 3055 3315 3238 3318 3396 3519 3647 3748 3771 3535 3220 3246 3432 3716 3688 3418 3251 3145 2918 2874 3119 3282 3517 3494 3396 3349 3264 3289 3331 3360 -9999 -9999 -9999 -9999 -9999 -9999 -9999 -9999 -9999 -9999 -9999 -9999 -9999 -9999 -9999 -9999 -9999 -9999 -9999 -9999 -9999 -9999 -9999 -9999 -9999 -9999 -9999 -9999 -9999 -9999 -9999 -9999
-9999 -9999 -9999 -9999 -9999 -9999 -9999 -9999 -9999 -9999 -9999 -9999 -9999 -9999 -9999 -9999 -9999 -9999 1877 1792 1756 1500 1429 1389 1326 1301 1411 1346 1222 1202 1180 1242 1264 1282 1383 1432 1516 1620 1645 1650 1671 1690 1708 1714 1577 1665 1733 1720 2010 2320 2513 2500 2600 2795 3025 3129 3276 3171 3136 3210 3357 3096 3267 3326 3215 3034 2675 2554 2593 2701 2820 2801 2769 2643 2403 2246 2317 2264 2183 2038 1828 1752 1484 1385 1344 1299 1238 1239 1265 1231 1216 1254 1317 1412 1468 1573 1510 1557 1662 1875 2043 1992 1984 2121 2285 2368 2449 2513 2776 2854 2630 2496 2419 2272 2215 2233 2389 2451 2135 2193 2282 2571 2950 3150 3044 2878 3093 3236 3307 3409 3353 3538 3511 3164 2833 2559 2839 3023 3201 3435 3463 3538 3501 3394 3257 3231 3274 3322 3457 3532 3606 3868 3692 3685 3666 3567 3361 3350 3518 3576 3664 3715 3673 3680 3707 3541 3645 3616 3474 3677 3597 3519 3379 3290 3434 3181 3205 3322 3171 2931 2813 2601 2411 2214 2126 2265 2526 2590 2526 2394 2660 2744 2564 2577 2576 2193 1925 2041 2249 2420 2448 2398 2282 2585 2802 2719 2708 2690 2558 2751 2860 2619 2617 2682 2792 3116 3195 3420 3202 3312 3575 3470 3408 3521 3709 3659 3493 3442 3177 2946 2727 2539 2495 2410 2397 2375 2370 2326 2287 2274 2260 2148 2054 2008 2026 2062 2121 2031 1958 1952 1934 1938 1957 1963 1997 2015 2070 2076 2052 2082 2144 2143 2154 2150 2198 2166 2169 2208 2233 2201 2175 2217 2289 2349 2328 2346 2362 2407 2458 2483 2514 2565 2607 2614 2520 2724 2790 2824 2875 2913 2947 2747 2687 3139 3169 3140 3007 2909 3058 3022 2928 2822 3037 3091 3333 3522 3748 3692 3799 3881 3670 3334 3236 3313 3648 3827 3595 3352 3259 3091 2897 3011 3147 3486 3662 3645 3586 3385 3374 3437 -9999 -9999 -9999 -9999 -9999 -9999 -9999 -9999 -9999 -9999 -9999 -9999 -9999 -9999 -9999 -9999 -9999 -9999 -9999 -9999 -9999 -9999 -9999 -9999 -9999 -9999 -9999 -9999 -9999 -9999 -9999 -9999 -9999
-9999 -9999 -9999 -9999 -9999 -9999 -9999 -9999 -9999 -9999 -9999 -9999 -9999 -9999 -9999 -9999 -9999 -9999 1905 1785 1667 1449 1378 1335 1275 1257 1333 1212 1169 1176 1234 1247 1292 1317 1389 1465 1574 1619 1587 1650 1737 1782 1772 1805 1982 2113 2177 2011 1826 1989 2349 2436 2716 2954 3139 3160 3216 3275 3201 3220 3315 3262 3299 2938 2750 2599 2389 2217 2260 2599 2654 2404 2329 2426 2651 2498 2420 2067 2072 1991 1819 1796 1725 1528 1414 1360 1281 1262 1182 1154 1222 1272 1336 1454 1498 1564 1650 1797 1733 1587 1777 1990 2089 2307 2543 2745 2716 2820 2950 3086 2883 2792 2756 2650 2435 2422 2639 2685 2414 2274 2350 2518 2570 2722 2671 2789 2905 2986 3087 3354 3592 3518 3484 3125 2870 2698 2974 3082 3376 3507 3382 3353 3210 3120 3209 3295 3515 3419 3683 3631 3650 3858 3692 3589 3527 3337 3155 3350 3489 3664 3848 3629 3482 3475 3721 3523 3478 3596 3400 3389 3566 3541 3366 3185 3343 3091 2965 3168 3225 3040 2915 2712 2581 2431 2351 2082 2238 2345 2205 2518 2681 2757 2576 2423 2101 1922 2216 2396 2648 2730 2737 2599 2388 2778 3100 3149 3103 3042 2787 3094 3112 2739 2699 2996 3072 3203 3461 3520 3388 3381 3658 3503 3447 3477 3338 3314 3096 3224 3272 3090 2878 2667 2601 2496 2409 2266 2217 2240 2196 2267 2244 2243 2194 2036 1979 1999 2021 1938 1924 1925 1941 1950 1963 1978 1995 2071 2112 2121 2136 2097 2107 2155 2183 2190 2212 2228 2202 2214 2265 2245 2246 2328 2395 2504 2513 2542 2624 2613 2596 2602 2635 2671 2726 2738 2620 2597 2645 2888 2972 3024 3048 2769 2855 3218 3326 3209 3347 3193 3153 3305 3285 3123 2989 3056 3123 3179 3304 3396 3633 3832 3740 3547 3386 3299 3542 3866 3756 3494 3373 3177 3062 3019 3084 3380 3590 3697 3706 3498 3477 -9999 -9999 -9999 -9999 -9999 -9999 -9999 -9999 -9999 -9999 -9999 -9999 -9999 -9999 -9999 -9999 -9999 -9999 -9999 -9999 -9999 -9999 -9999 -9999 -9999 -9999 -9999 -9999 -9999 -9999 -9999 -9999 -9999 -9999
-9999 -9999 -9999 -9999 -9999 -9999 -9999 -9999 -9999 -9999 -9999 -9999 -9999 -9999 -9999 -9999 -9999 -9999 1943 1822 1715 1494 1396 1353 1282 1242 1208 1160 1189 1206 1227 1269 1333 1363 1438 1543 1538 1626 1658 1722 1705 1784 1793 1918 2053 2105 2216 2364 2310 2034 2114 2169 2421 2792 2721 2698 2758 2993 3230 3301 3332 2977 2772 2622 2589 2334 2135 1953 2078 2380 2610 2383 2236 2154 2442 2337 2174 2024 1683 1822 1729 1719 1639 1547 1474 1412 1263 1226 1143 1180 1258 1305 1395 1496 1569 1695 1808 2031 2067 1960 1749 1717 1809 2144 2394 2626 2693 2648 2659 2916 3128 3118 3035 2829 2626 2608 2778 2816 2509 2385 2367 2405 2543 2484 2510 2596 2754 2990 3040 3303 3526 3544 3387 3114 2977 2876 2981 3142 3452 3558 3397 3266 3053 3219 3513 3462 3479 3558 3603 3711 3829 3605 3462 3483 3384 3159 3078 3274 3364 3539 3654 3628 3456 3331 3457 3486 3356 3309 3398 3207 3373 3403 3256 3117 3191 2908 2789 2905 2959 3012 3084 2877 2610 2484 2413 2199 2049 2030 2156 2491 2685 2417 2193 2061 1909 2163 2453 2697 2980 3010 3099 2918 2595 2784 3218 3450 3387 3237 2973 3182 3233 2933 2796 3055 3255 3418 3637 3600 3611 3499 3583 3568 3479 3322 3053 2889 2803 2883 2929 2830 2718 2532 2492 2433 2374 2321 2294 2270 2160 2053 2092 2165 2086 2096 2075 1948 1936 1915 1932 1936 1942 1950 2003 2042 2053 2098 2126 2136 2154 2167 2182 2149 2145 2211 2229 2261 2247 2240 2302 2320 2344 2398 2489 2566 2620 2661 2739 2763 2801 2727 2836 2800 2841 2864 2891 2892 2726 3033 3121 3158 3233 3151 3176 3374 3442 3601 3623 3525 3360 3366 3417 3474 3439 3267 3173 3185 3172 3297 3404 3496 3723 3746 3519 3384 3475 3810 3873 3603 3486 3320 3113 3011 3037 3258 3492 3685 3722 3591 -9999 -9999 -9999 -9999 -9999 -9999 -9999 -9999 -9999 -9999 -9999 -9999 -9999 -9999 -9999 -9999 -9999 -9999 -9999 -9999 -9999 -9999 -9999 -9999 -9999 -9999 -9999 -9999 -9999 -9999 -9999 -9999 -9999 -9999 -9999
-9999 -9999 -9999 -9999 -9999 -9999 -9999 -9999 -9999 -9999 -9999 -9999 -9999 -9999 -9999 -9999 -9999 -9999 1947 1768 1701 1512 1369 1355 1275 1273 1179 1159 1202 1218 1242 1287 1396 1435 1454 1533 1614 1645 1671 1717 1789 1791 1799 1937 2150 2110 2177 2341 2462 2255 2114 2093 2330 2550 2499 2590 2808 2924 3183 3257 3228 2914 2595 2438 2407 2316 2041 1880 2033 2188 2482 2445 2282 1991 2319 2256 2094 1868 1658 1603 1577 1538 1497 1402 1383 1316 1234 1182 1194 1224 1239 1303 1391 1530 1591 1749 1977 2152 2185 2193 1998 1820 1750 1991 2208 2345 2495 2458 2542 2794 3114 3239 3151 2944 2734 2692 2832 2877 2650 2496 2482 2537 2609 2433 2469 2518 2715 2997 3091 3304 3526 3536 3385 3199 3082 2983 3068 3187 3486 3544 3401 3328 3057 3215 3545 3688 3518 3623 3683 3849 3832 3655 3461 3296 3375 3210 3020 3285 3431 3595 3797 3719 3574 3361 3277 3377 3410 3290 3237 3158 3323 3390 3212 3035 3145 2849 2704 2720 2817 2878 2968 2943 2643 2471 2390 2396 2169 1980 2090 2440 2564 2175 2009 1913 1949 2265 2591 2755 3163 3236 3154 2949 2756 2775 3205 3529 3526 3258 3047 3253 3203 2888 2952 2980 3098 3398 3625 3566 3555 3505 3468 3375 3504 3390 3067 2795 2644 2705 2782 2675 2612 2510 2436 2417 2368 2330 2312 2323 2242 2079 2017 2103 2042 2016 2005 1945 1911 1914 1932 1934 1939 1981 2033 2016 2058 2095 2121 2132 2158 2178 2192 2208 2168 2186 2243 2271 2284 2273 2313 2421 2467 2485 2534 2666 2664 2703 2812 2817 2829 2826 2936 2891 2912 2940 2967 2932 2897 3144 3186 3225 3335 3287 3282 3434 3560 3678 3599 3568 3357 3329 3374 3548 3648 3385 3225 3288 3335 3248 3346 3388 3690 3817 3629 3472 3461 3766 3911 3671 3557 3372 3143 3049 3059 3219 3453 3661 -9999 -9999 -9999 -9999 -9999 -9999 -9999 -9999 -9999 -9999 -9999 -9999 -9999 -9999 -9999 -9999 -9999 -9999 -9999 -9999 -9999 -9999 -9999 -9999 -9999 -9999 -9999 -9999 -9999 -9999 -9999 -9999 -9999 -9999 -9999 -9999 -9999
-9999 -9999 -9999 -9999 -9999 -9999 -9999 -9999 -9999 -9999 -9999 -9999 -9999 -9999 -9999 -9999 -9999 1980 1942 1817 1756 1599 1347 1288 1272 1255 1149 1172 1219 1272 1336 1328 1412 1472 1574 1646 1684 1700 1744 1802 1852 1888 1885 2018 2087 2215 2351 2570 2651 2545 2332 2330 2348 2470 2697 2821 3012 3063 3197 3229 3281 2991 2648 2278 2124 1970 2108 1767 1779 1928 2184 2302 2284 1864 1949 2137 2065 1782 1580 1453 1363 1404 1519 1298 1169 1145 1115 1202 1248 1273 1314 1293 1351 1456 1537 1819 2109 2414 2468 2362 2398 2318 2169 1863 2061 2094 2190 2277 2529 2828 3083 3164 3331 3143 2957 2912 3029 3147 2909 2894 2901 2817 2534 2563 2604 2808 2689 2926 3019 3079 3284 3539 3542 3307 3152 3171 3269 3330 3529 3369 3384 3377 3067 3156 3409 3516 3761 3731 3743 3790 3912 3743 3584 3270 3155 3022 2912 3128 3310 3634 3597 3567 3462 3509 3227 3029 3229 3112 3114 2948 3196 3219 3154 2866 2943 2676 2576 2448 2557 2673 2668 2637 2617 2600 2593 2577 2467 2190 2035 2041 2147 1889 1901 1954 2186 2454 2766 2942 3368 3453 3352 3329 2865 2858 3084 3567 3616 3361 3232 3442 3283 3003 3129 3320 3378 3404 3191 3136 3156 3115 3181 3025 3157 3112 3029 2818 2581 2467 2444 2562 2447 2400 2322 2380 2347 2348 2272 2252 2187 2107 2069 1961 1930 1914 1910 1902 1914 1944 1944 1955 1969 1973 1986 2000 2053 2095 2129 2138 2156 2185 2205 2225 2236 2215 2254 2330 2344 2392 2313 2420 2550 2502 2665 2706 2743 2754 2833 2953 2908 2939 3087 3005 3125 3160 3122 2920 3157 3308 3310 3376 3461 3466 3487 3490 3651 3702 3623 3744 3591 3227 3232 3456 3834 3688 3314 3403 3607 3278 3395 3476 3554 3896 3947 3742 3499 3665 3877 3879 3720 3333 3256 3303 3313 3209 3413 3611 -9999 -9999 -9999 -9999 -9999 -9999 -9999 -9999 -9999 -9999 -9999 -9999 -9999 -9999 -9999 -9999 -9999 -9999 -9999 -9999 -9999 -9999 -9999 -9999 -9999 -9999 -9999 -9999 -9999 -9999 -9999 -9999 -9999 -9999 -9999 -9999 -9999
-9999 -9999 -9999 -9999 -9999 -9999 -9999 -9999 -9999 -9999 -9999 -9999 -9999 -9999 -9999 -9999 -9999 1934 1871 1858 1808 1684 1373 1302 1256 1201 1145 1172 1264 1297 1431 1373 1509 1558 1636 1732 1792 1850 1830 1863 1924 1982 1999 2176 2379 2376 2353 2489 2670 2763 2673 2682 2727 2823 2906 3064 3245 3315 3144 3019 2823 2600 2285 2244 2261 1975 1745 1735 1646 1888 2087 1991 1883 1750 1823 1995 1846 1666 1571 1482 1390 1301 1345 1172 1102 1129 1183 1257 1313 1380 1505 1503 1566 1396 1547 1840 1915 2209 2427 2570 2666 2689 2533 2226 2263 2328 2538 2491 2519 2600 2749 2902 3147 3362 3261 3317 3386 3353 3281 3015 2890 2705 2681 2817 2846 2970 2916 2934 2900 3033 3285 3454 3558 3453 3226 3306 3606 3500 3249 3181 3154 3211 3186 2965 3211 3314 3499 3797 3612 3597 3700 3495 3327 3122 2917 2798 2988 3323 3366 3596 3510 3275 3306 3238 3182 2894 3104 2986 2860 2849 2896 2977 2989 2802 2658 2573 2568 2368 2379 2420 2411 2471 2439 2378 2406 2407 2458 2485 2386 2051 1867 1921 2097 2199 2317 2576 2907 3100 3481 3532 3395 3265 3138 3325 3242 3539 3705 3529 3353 3554 3497 3209 3198 3376 3213 2989 3027 2946 2717 2673 2814 2717 2748 2729 2679 2556 2609 2588 2407 2263 2345 2199 2222 2236 2388 2297 2268 2098 2063 1966 1921 1900 1890 1893 1894 1910 1952 2002 1990 2050 2096 2082 2085 2111 2111 2066 2071 2089 2153 2171 2198 2226 2239 2274 2304 2315 2382 2486 2609 2597 2599 2644 2518 2530 2486 2484 2619 2786 3049 3115 3092 3226 3273 3208 2829 2950 3113 3378 3454 3507 3624 3644 3587 3238 3435 3840 3849 3719 3657 3293 3257 3368 3658 3731 3454 3430 3752 3537 3305 3385 3643 3941 4033 4002 3676 3752 -9999 -9999 3707 3404 3399 3501 3487 3302 3403 3582 -9999 -9999 -9999 -9999 -9999 -9999 -9999 -9999 -9999 -9999 -9999 -9999 -9999 -9999 -9999 -9999 -9999 -9999 -9999 -9999 -9999 -9999 -9999 -9999 -9999 -9999 -9999 -9999 -9999 -9999 -9999 -9999 -9999 -9999 -9999 -9999 -9999
-9999 -9999 -9999 -9999 -9999 -9999 -9999 -9999 -9999 -9999 -9999 -9999 -9999 -9999 -9999 -9999 2009 1962 1882 1720 1641 1533 1361 1305 1229 1206 1140 1202 1297 1329 1415 1479 1555 1592 1614 1677 1853 1911 1937 1950 2014 2068 2148 2287 2491 2580 2629 2637 2586 2676 2722 2811 2998 3158 3176 3129 3150 3231 2841 2664 2424 2249 2196 1992 1895 1850 2019 1772 1608 1823 1883 1925 1922 1568 1671 1820 1843 1700 1518 1486 1375 1333 1257 1187 1152 1208 1265 1349 1365 1521 1769 1818 1934 1750 1592 1476 1791 2112 2352 2680 2930 2825 2681 2469 2638 2600 2896 2988 2734 2956 3159 3273 3162 3447 3568 3567 3462 3369 3155 2939 2866 2910 2798 3044 3148 3076 3201 3227 3163 3001 3075 3237 3342 3511 3558 3438 3467 3352 3331 3391 3193 3122 3033 2924 2918 3041 3349 3512 3531 3494 3607 3391 3156 2928 2821 2681 2973 3150 3212 3373 3319 3178 3065 3062 2946 2829 2760 2735 2669 2718 2630 2721 2688 2638 2542 2631 2549 2462 2290 2250 2318 2423 2253 2371 2282 2246 2342 2273 2133 1922 1946 1998 2191 2269 2447 2617 2852 3033 3406 3716 3333 3329 3378 3295 3329 3483 3633 3603 3447 3680 3640 3341 3346 3286 3135 2912 2747 2676 2765 2687 2446 2540 2448 2376 2340 2305 2223 2194 2254 2172 2328 2120 2073 2200 2273 2196 2132 2048 1931 1893 1885 1879 1891 1899 1904 1937 2048 2094 2032 2017 2129 2141 2146 2144 2154 2138 2137 2119 2165 2180 2230 2338 2330 2391 2483 2352 2423 2684 2610 2808 2898 2942 2901 2939 2990 2942 2751 2693 2844 3041 3260 3279 3269 3071 2934 3160 3347 3412 3585 3650 3771 3626 3412 3123 3404 3801 3934 3882 3759 3613 3564 3562 3724 3879 3744 3632 3590 3714 3490 3433 3437 3620 3865 4027 3746 -9999 -9999 -9999 -9999 -9999 -9999 3581 -9999 -9999 -9999 -9999 -9999 -9999 -9999 -9999 -9999 -9999 -9999 -9999 -9999 -9999 -9999 -9999 -9999 -9999 -9999 -9999 -9999 -9999 -9999 -9999 -9999 -9999 -9999 -9999 -9999 -9999 -9999 -9999 -9999 -9999 -9999 -9999 -9999 -9999 -9999 -9999 -9999
-9999 -9999 -9999 -9999 -9999 -9999 -9999 -9999 -9999 -9999 -9999 -9999 -9999 -9999 -9999 -9999 -9999 1963 1865 1834 1810 1628 1387 1292 1226 1199 1139 1239 1348 1393 1467 1518 1597 1645 1721 1762 1763 1859 1896 1993 2088 2127 2183 2332 2492 2599 2623 2446 2385 2526 2584 2742 2901 3045 3053 3051 3135 3256 2849 2657 2367 2169 2017 1922 1933 1759 1990 1775 1606 1590 1738 1737 1841 1560 1575 1751 1786 1573 1453 1470 1389 1362 1234 1154 1199 1235 1345 1582 1521 1472 1914 2030 2095 2022 1819 1518 1647 2001 2228 2584 2841 2635 2647 2549 2756 2823 3129 3109 2975 3050 3351 3494 3330 3359 3611 3542 3409 3260 3085 3037 2969 3056 2877 2986 3120 3171 3229 3312 3223 3112 3078 3180 3286 3473 3578 3536 3407 3343 3444 3378 3301 3249 3146 3088 2863 2990 3349 3346 3393 3549 3627 3463 3266 3026 2857 2613 2875 2950 3018 3194 3164 3196 2950 2909 2816 2737 2666 2642 2598 2590 2554 2632 2550 2518 2475 2673 2660 2475 2277 2162 2233 2375 2186 2337 2287 2140 2219 2036 1919 1905 2083 2058 2138 2186 2341 2531 2785 2940 3338 3757 3381 3413 3456 3304 3358 3471 3657 3780 3572 3565 3518 3343 3318 3096 3042 3001 2842 2641 2553 2557 2502 2351 2420 2390 2278 2192 2158 2084 2123 2209 2312 2131 2042 2129 2174 2107 2057 1982 1887 1876 1873 1885 1894 1902 1916 1964 2076 2102 2112 2041 2115 2158 2166 2167 2172 2164 2150 2133 2173 2196 2251 2385 2406 2419 2558 2374 2521 2770 2795 2737 2807 2996 3063 3029 3096 3078 3006 2903 2752 2966 3332 3336 3260 3061 3016 3363 3359 3424 3495 3732 3790 3449 3279 3231 3325 3636 3832 4053 3821 3758 3744 3729 3818 3980 3920 3829 3614 3701 3535 3549 3524 3775 3759 -9999 -9999 -9999 -9999 -9999 -9999 -9999 -9999 -9999 -9999 -9999 -9999 -9999 -9999 -9999 -9999 -9999 -9999 -9999 -9999 -9999 -9999 -9999 -9999 -9999 -9999 -9999 -9999 -9999 -9999 -9999 -9999 -9999 -9999 -9999 -9999 -9999 -9999 -9999 -9999 -9999 -9999 -9999 -9999 -9999 -9999 -9999 -9999 -9999 -9999
-9999 -9999 -9999 -9999 -9999 -9999 -9999 -9999 -9999 -9999 -9999 -9999 -9999 -9999 -9999 -9999 -9999 2011 1960 1921 1883 1661 1444 1318 1226 1154 1196 1226 1261 1306 1338 1466 1560 1638 1707 1821 1898 1919 1957 2060 2141 2265 2289 2378 2421 2209 2154 2391 2587 2796 2945 2858 2769 2863 3037 3043 3301 3264 3022 2790 2454 2242 2080 1961 1866 1842 1614 1599 1659 1488 1417 1485 1557 1522 1444 1599 1610 1462 1390 1371 1248 1167 1090 1181 1434 1582 1698 1969 1877 1671 1766 2112 2450 2182 2063 1930 1722 1733 1894 2259 2213 2110 2142 2422 2844 3202 3393 3430 3328 3401 3401 3483 3497 3451 3430 3318 3130 3141 3224 3264 3214 3138 3136 3091 3163 3356 3369 3493 3395 3252 3289 3258 3284 3424 3631 3530 3524 3494 3527 3453 3505 3484 3267 3072 2776 2834 3122 3197 3396 3668 3598 3252 2981 2771 2732 2489 2748 2742 2872 2976 3081 2890 2831 2719 2765 2719 2547 2527 2497 2434 2443 2511 2433 2355 2407 2618 2623 2406 2353 2103 2079 2253 2083 2170 2139 1943 1858 1929 1971 2169 2219 2326 2328 2469 2576 2716 2714 2802 3052 3358 3626 3718 3460 3500 3616 3496 3548 3886 3872 3523 3455 3433 3282 2979 2836 2674 2776 2884 2711 2626 2398 2388 2232 2190 2160 2135 2128 2094 2022 2016 2087 2108 2015 2038 2011 1965 1938 1877 1866 1874 1881 1892 1901 1952 1983 2006 2061 2105 2141 2155 2035 2174 2201 2205 2203 2195 2175 2181 2212 2247 2343 2484 2504 2502 2638 2463 2414 2678 2657 2762 2825 3035 3013 3168 3289 3342 3287 3173 2795 2871 3279 3465 3212 3181 3020 3386 3596 3666 3622 3669 3567 3289 3358 3715 3460 3541 3697 3844 3780 3831 3927 3867 -9999 -9999 -9999 -9999 -9999 3708 3733 3759 3829 -9999 -9999 -9999 -9999 -9999 -9999 -9999 -9999 -9999 -9999 -9999 -9999 -9999 -9999 -9999 -9999 -9999 -9999 -9999 -9999 -9999 -9999 -9999 -9999 -9999 -9999 -9999 -9999 -9999 -9999 -9999 -9999 -9999 -9999 -9999 -9999 -9999 -9999 -9999 -9999 -9999 -9999 -9999 -9999 -9999 -9999 -9999 -9999 -9999 -9999 -9999 -9999
-9999 -9999 -9999 -9999 -9999 -9999 -9999 -9999 -9999 -9999 -9999 -9999 -9999 -9999 -9999 -9999 -9999 2015 1931 1896 1817 1606 1388 1293 1205 1150 1284 1373 1464 1510 1588 1529 1496 1552 1589 1550 1571 1678 1691 1692 1997 1960 2000 2159 1974 2249 2395 2611 2835 2907 3114 3217 3062 3129 3240 3203 3301 3314 3157 2998 2822 2574 2322 2224 2250 2005 1893 1789 1748 1677 1542 1304 1276 1311 1317 1523 1439 1314 1274 1205 1111 1116 1227 1383 1609 1788 2001 2080 1813 1656 1816 2014 2296 2463 2480 2582 2018 1778 1720 1736 1829 2112 2313 2696 3003 2959 3179 3253 3285 3200 3159 3185 3311 3523 3304 3185 2932 2912 2954 3122 3236 3321 3198 3134 3121 2992 3076 3230 3269 3391 3588 3397 3400 3540 3478 3287 3359 3462 3558 3643 3380 3255 3027 2865 2668 2800 3039 3179 3449 3598 3524 3412 3318 3103 2999 2726 2336 2431 2634 2716 2956 2917 2689 2615 2580 2645 2598 2500 2426 2348 2401 2524 2489 2266 2314 2534 2533 2314 2219 2139 2009 2122 1984 2050 1981 1853 2171 2305 2308 2437 2534 2579 2615 2633 2855 2992 3044 3081 3089 3320 3420 3439 3674 3635 3629 3648 3739 3605 3717 3607 3680 3576 3320 3127 3019 2701 2504 2784 2626 2580 2460 2399 2321 2298 2268 2247 2270 2301 2175 2030 1956 2005 1948 1907 1890 1864 1856 1860 1872 1878 1884 1956 1992 2063 2074 2090 2103 2107 2163 2175 2206 2093 2147 2235 2242 2225 2207 2209 2261 2312 2436 2522 2525 2604 2696 2563 2476 2706 2971 3107 3102 3110 3263 3346 3411 3427 3272 3004 2892 2989 3389 3463 3365 3360 3045 3256 3540 3929 4017 3709 3419 3462 3627 3644 3813 3580 3663 3606 3832 4009 3992 -9999 -9999 -9999 -9999 -9999 -9999 -9999 -9999 -9999 -9999 -9999 -9999 -9999 -9999 -9999 -9999 -9999 -9999 -9999 -9999 -9999 -9999 -9999 -9999 -9999 -9999 -9999 -9999 -9999 -9999 -9999 -9999 -9999 -9999 -9999 -9999 -9999 -9999 -9999 -9999 -9999 -9999 -9999 -9999 -9999 -9999 -9999 -9999 -9999 -9999 -9999 -9999 -9999 -9999 -9999 -9999 -9999 -9999 -9999 -9999 -9999 -9999
-9999 -9999 -9999 -9999 -9999 -9999 -9999 -9999 -9999 -9999 -9999 -9999 -9999 -9999 -9999 -9999 -9999 2042 1959 1842 1741 1687 1417 1198 1323 1359 1373 1455 1560 1600 1705 1769 1777 1756 1902 2008 2068 2140 2147 2074 2081 1987 1987 2001 2150 2234 2349 2505 2777 2856 3073 3133 3283 3252 3353 3334 3259 3128 2776 2663 2399 2372 2158 1826 2036 2197 2234 2281 2208 2052 1954 1659 1558 1303 1183 1276 1297 1221 1183 1078 1212 1335 1494 1701 1997 2124 2119 1902 1891 1790 1885 2051 2131 2324 2452 2692 2478 2145 1998 1872 1868 1997 2088 2339 2588 2596 2765 2747 2810 2997 3132 3197 3392 3408 3286 3214 3039 2815 2686 2822 2908 3046 2836 2747 2730 2879 3040 3269 3376 3538 3528 3586 3653 3630 3360 3123 3158 3165 3307 3524 3374 3285 3008 2689 2585 2665 2887 3033 3222 3320 3493 3447 3300 3036 2918 2710 2426 2307 2433 2565 2595 2801 2663 2600 2464 2483 2549 2475 2354 2264 2345 2353 2440 2294 2218 2390 2396 2261 2123 2126 2051 1978 1924 1797 1824 2044 2351 2452 2452 2457 2530 2592 2708 2768 2868 2984 3053 3087 3188 3388 3543 3608 3527 3330 3221 3306 3408 3300 3542 3561 3478 3298 3247 2936 2796 2553 2360 2444 2415 2438 2284 2289 2376 2399 2322 2259 2175 2173 2106 2014 1934 1884 1885 1860 1845 1849 1855 1863 1878 1905 1946 2036 2052 2070 2102 2129 2152 2171 2171 2198 2239 2262 2159 2161 2281 2281 2289 2303 2359 2405 2499 2653 2711 2777 2700 2656 2564 2631 2881 3149 3230 3276 3340 3351 3504 3432 3094 3320 3089 3085 3481 3516 3403 3431 3178 3238 3579 3828 3909 3580 3424 3610 3779 3817 3920 3850 3848 3777 3940 -9999 -9999 -9999 -9999 -9999 -9999 -9999 -9999 -9999 -9999 -9999 -9999 -9999 -9999 -9999 -9999 -9999 -9999 -9999 -9999 -9999 -9999 -9999 -9999 -9999 -9999 -9999 -9999 -9999 -9999 -9999 -9999 -9999 -9999 -9999 -9999 -9999 -9999 -9999 -9999 -9999 -9999 -9999 -9999 -9999 -9999 -9999 -9999 -9999 -9999 -9999 -9999 -9999 -9999 -9999 -9999 -9999 -9999 -9999 -9999 -9999 -9999 -9999 -9999
-9999 -9999 -9999 -9999 -9999 -9999 -9999 -9999 -9999 -9999 -9999 -9999 -9999 -9999 -9999 -9999 -9999 2025 1834 1670 1616 1448 1295 1126 1397 1445 1510 1551 1662 1707 1786 1882 1901 1923 1978 1993 2088 2151 2189 2267 2323 2441 2465 2514 2489 2652 2729 2818 2943 3019 3011 3058 3286 3314 3217 3263 3209 2882 2759 2685 2343 1983 1741 1586 1596 1661 1787 2063 2065 1905 1814 1548 1486 1385 1283 1151 1124 1173 1071 1363 1641 1791 1916 2037 1932 1831 1742 1760 1843 1907 2073 2097 2218 2601 2572 2756 2900 2626 2494 2225 2098 2380 2426 2148 2242 2430 2715 2802 3115 3277 3089 2940 2982 2979 3305 3392 3176 2899 2637 2555 2658 2679 2611 2796 2858 2873 2943 3179 3335 3252 3172 3283 3357 3409 3393 3129 2912 2894 3118 3270 3193 3076 2815 2597 2472 2571 2768 2899 2874 3118 3309 3650 3280 3213 3212 2760 2516 2185 2201 2326 2599 2734 2483 2533 2485 2362 2424 2428 2271 2258 2189 2217 2275 2273 2099 2225 2216 2122 2075 1997 2038 2010 1828 1866 1943 1980 2090 2288 2342 2466 2584 2860 2990 3013 3079 3182 3296 3309 3330 3518 3451 3332 3233 3085 2955 3003 3083 3090 3291 3255 3186 3029 2944 2697 2589 2423 2346 2252 2277 2266 2189 2243 2289 2300 2256 2072 1986 2000 1919 1878 1864 1848 1837 1839 1847 1853 1856 1907 1983 1945 1997 2060 2088 2105 2094 2161 2197 2223 2234 2251 2292 2325 2245 2191 2331 2437 2483 2528 2596 2629 2584 2764 2821 2923 2881 2760 2716 2660 2798 3295 3322 3342 3431 3546 3541 3370 3227 3401 3140 3238 3553 3758 3572 3487 3389 3213 3412 3696 3867 3622 3486 3580 3628 3690 3686 3767 3814 4007 -9999 -9999 -9999 -9999 -9999 -9999 -9999 -9999 -9999 -9999 -9999 -9999 -9999 -9999 -9999 -9999 -9999 -9999 -9999 -9999 -9999 -9999 -9999 -9999 -9999 -9999 -9999 -9999 -9999 -9999 -9999 -9999 -9999 -9999 -9999 -9999 -9999 -9999 -9999 -9999 -9999 -9999 -9999 -9999 -9999 -9999 -9999 -9999 -9999 -9999 -9999 -9999 -9999 -9999 -9999 -9999 -9999 -9999 -9999 -9999 -9999 -9999 -9999 -9999 -9999
-9999 -9999 -9999 -9999 -9999 -9999 -9999 -9999 -9999 -9999 -9999 -9999 -9999 -9999 -9999 -9999 -9999 2068 1842 1658 1620 1505 1254 1123 1324 1433 1520 1611 1680 1717 1788 1877 1943 1931 1997 2053 2111 2194 2229 2301 2355 2416 2492 2604 2629 2753 2840 2905 2946 3011 3113 3107 3272 3281 3183 3197 3206 2848 2577 2449 2306 1952 1792 1780 1672 1429 1659 1899 1844 1900 1643 1415 1362 1287 1234 1210 1126 1086 1249 1513 1821 1957 2003 1843 1703 1659 1660 1736 1842 1915 2153 2325 2208 2614 2683 2837 3022 2844 2653 2239 2105 2363 2502 2339 2494 2554 2839 2977 3288 3217 3012 2885 2790 2831 3068 3236 3329 2998 2683 2495 2545 2580 2681 2803 2847 2948 2977 3136 3261 3150 3013 3121 3160 3266 3410 3212 2944 2812 2981 3171 3068 3036 2885 2600 2418 2468 2652 2736 2743 2985 3194 3455 3465 3294 3147 2852 2526 2211 2145 2205 2507 2489 2329 2339 2421 2421 2299 2335 2274 2347 2149 2143 2192 2197 2078 2114 2152 2074 2021 1956 1961 1944 1815 1987 2076 2181 2299 2470 2511 2637 2680 2772 2885 2956 3116 3160 3364 3481 3543 3422 3269 3198 3055 3046 2842 2915 2987 2915 3112 3075 3063 2953 2754 2463 2397 2317 2241 2266 2282 2257 2142 2190 2248 2250 2120 1982 1903 1878 1836 1831 1831 1830 1832 1839 1848 1878 1941 1988 2024 1967 2032 2075 2107 2136 2119 2177 2216 2250 2267 2288 2324 2366 2285 2335 2237 2239 2270 2337 2507 2709 2652 2811 2883 2981 2950 2811 2868 2804 2730 3094 3310 3479 3520 3524 3580 3392 3303 3470 3182 3298 3598 3884 3614 3497 3514 3235 3347 3663 3779 3725 3542 3606 3633 3573 3665 3759 3881 4086 -9999 -9999 -9999 -9999 -9999 -9999 -9999 -9999 -9999 -9999 -9999 -9999 -9999 -9999 -9999 -9999 -9999 -9999 -9999 -9999 -9999 -9999 -9999 -9999 -9999 -9999 -9999 -9999 -9999 -9999 -9999 -9999 -9999 -9999 -9999 -9999 -9999 -9999 -9999 -9999 -9999 -9999 -9999 -9999 -9999 -9999 -9999 -9999 -9999 -9999 -9999 -9999 -9999 -9999 -9999 -9999 -9999 -9999 -9999 -9999 -9999 -9999 -9999 -9999 -9999
-9999 -9999 -9999 -9999 -9999 -9999 -9999 -9999 -9999 -9999 -9999 -9999 -9999 -9999 -9999 -9999 -9999 1974 1934 1891 1860 1664 1355 1118 1183 1292 1519 1412 1515 1588 1608 1672 1756 1841 1977 2005 2107 2152 2179 2246 2448 2523 2596 2639 2712 2812 2835 2808 2875 2986 3106 3146 3109 3064 3146 3186 3205 2900 2532 2392 2218 2139 2264 2244 1983 1710 1414 1441 1499 1649 1408 1267 1212 1174 1082 1046 1056 1180 1320 1470 1763 1803 1587 1476 1506 1550 1644 1774 1968 2055 2313 2575 2522 2457 2529 2826 3206 2963 2818 2419 2231 2392 2527 2494 2629 2900 3217 3280 3150 3048 2857 2738 2515 2507 2655 2866 2897 2696 2539 2555 2660 2719 2870 3093 3075 3024 3137 3322 3339 3141 3010 2860 2852 3041 3106 2980 2791 2714 2748 2788 2873 2948 2735 2540 2402 2345 2471 2491 2704 2971 3171 3447 3556 3298 3158 2974 2867 2646 2541 2242 2189 2165 2149 2202 2395 2468 2405 2368 2174 2299 2329 2235 2079 2040 2074 2006 2064 2025 1947 1895 1853 1820 1934 2051 2111 2304 2427 2559 2638 2742 2867 2886 3065 3088 3138 3281 3376 3392 3329 3090 2845 2762 2713 2750 2549 2707 2699 2754 2762 2729 2699 2669 2488 2381 2342 2264 2200 2192 2210 2193 2157 2055 2205 2122 1939 1837 1822 1821 1820 1819 1833 1893 1859 2003 2005 2048 2052 2046 2064 2018 2035 2059 2146 2183 2198 2185 2253 2301 2338 2355 2404 2454 2443 2408 2471 2532 2500 2575 2470 2448 2862 2947 3058 3134 3064 3030 3011 3091 3037 3070 3141 3337 3659 3760 3561 3422 3378 3599 3306 3268 3435 3537 3684 3792 3622 3342 3368 3434 3459 3617 3671 3567 3613 3841 3707 3757 -9999 -9999 -9999 -9999 -9999 -9999 -9999 -9999 -9999 -9999 -9999 -9999 -9999 -9999 -9999 -9999 -9999 -9999 -9999 -9999 -9999 -9999 -9999 -9999 -9999 -9999 -9999 -9999 -9999 -9999 -9999 -9999 -9999 -9999 -9999 -9999 -9999 -9999 -9999 -9999 -9999 -9999 -9999 -9999 -9999 -9999 -9999 -9999 -9999 -9999 -9999 -9999 -9999 -9999 -9999 -9999 -9999 -9999 -9999 -9999 -9999 -9999 -9999 -9999 -9999 -9999 -9999
-9999 -9999 -9999 -9999 -9999 -9999 -9999 -9999 -9999 -9999 -9999 -9999 -9999 -9999 -9999 -9999 2026 1818 1611 1676 1760 1699 1379 1119 1164 1256 1425 1609 1763 1812 1888 1910 1969 1948 2019 2139 2193 2263 2338 2321 2393 2524 2589 2602 2664 2676 2715 2832 2933 3014 2909 2936 2839 3086 3214 3207 3169 2962 2877 2791 2591 2587 2568 2438 2288 1971 1712 1360 1215 1422 1190 1144 1100 1029 1111 1199 1267 1555 1501 1281 1295 1342 1337 1415 1504 1573 1743 1918 2120 2222 2455 2709 2968 3111 2965 2934 3134 2806 2657 2430 2518 2732 2842 2837 3025 3256 3192 3082 2884 2691 2635 2516 2345 2404 2415 2407 2436 2457 2556 2781 2867 2838 3083 3297 3353 3201 3250 3521 3531 3346 3233 2978 2848 2941 2918 3102 3008 2915 2669 2539 2591 2727 2701 2617 2514 2410 2344 2614 2685 2969 3261 3220 3252 3185 3147 3023 2789 2575 2491 2296 2108 2034 2149 2179 2361 2367 2247 2210 2112 2259 2267 2227 2226 2093 1976 1938 1962 1941 1862 1825 1785 1882 1990 2070 2161 2331 2358 2478 2552 2683 2822 3029 3116 3154 3334 3407 3256 3218 3184 3181 3019 2859 2582 2389 2313 2401 2430 2590 2643 2530 2483 2467 2467 2434 2395 2337 2245 2160 2137 2147 2116 1992 2048 1925 1813 1813 1806 1809 1826 1868 1987 2009 1991 1889 2027 2075 2082 2091 2100 2066 2124 2134 2139 2225 2235 2272 2280 2338 2382 2422 2458 2562 2569 2516 2586 2642 2683 2701 2771 2345 2647 2896 3052 3340 3298 3384 3319 3538 3540 3268 3271 3401 3686 3842 3691 3541 3395 3594 3457 3378 3427 3739 3889 3833 3562 3571 3458 3652 3726 3610 3744 3657 -9999 -9999 -9999 -9999 -9999 -9999 -9999 -9999 -9999 -9999 -9999 -9999 -9999 -9999 -9999 -9999 -9999 -9999 -9999 -9999 -9999 -9999 -9999 -9999 -9999 -9999 -9999 -9999 -9999 -9999 -9999 -9999 -9999 -9999 -9999 -9999 -9999 -9999 -9999 -9999 -9999 -9999 -9999 -9999 -9999 -9999 -9999 -9999 -9999 -9999 -9999 -9999 -9999 -9999 -9999 -9999 -9999 -9999 -9999 -9999 -9999 -9999 -9999 -9999 -9999 -9999 -9999 -9999 -9999 -9999 -9999
-9999 -9999 -9999 -9999 -9999 -9999 -9999 -9999 -9999 -9999 -9999 -9999 -9999 -9999 1973 1984 1994 1800 1443 1432 1513 1591 1567 1273 1130 1252 1521 1723 1841 1886 1973 1963 2016 2047 2122 2178 2200 2361 2413 2441 2535 2617 2633 2562 2725 2808 2868 2954 2834 2667 2481 2585 2982 2996 3079 3092 3145 3062 3005 2887 2670 2587 2435 2156 2021 1828 1858 1592 1390 1111 1057 1039 1144 1183 1246 1444 1563 1843 1868 1535 1415 1406 1405 1399 1585 1684 1886 2101 2300 2406 2648 2968 3204 3253 3084 2995 3186 2957 2793 2815 3009 3149 3196 3213 3205 3066 2958 2906 2689 2469 2341 2267 2526 3057 2930 2790 2468 2592 2768 2967 3096 3033 3098 3349 3466 3493 3396 3529 3671 3367 3184 2932 2787 2792 2737 2926 3160 3082 2918 2626 2481 2628 2863 2757 2551 2431 2250 2544 2831 3066 3023 2967 2810 2710 2696 2642 2491 2349 2287 2226 2123 2006 2045 2178 2321 2390 2292 2241 2063 2130 2189 2128 2092 2112 2036 1976 1946 1888 1860 1821 1776 1910 2033 2209 2282 2249 2348 2551 2623 2726 2863 3072 3116 3084 3241 3235 3040 2978 2917 2875 2778 2661 2534 2394 2253 2240 2279 2381 2368 2412 2391 2308 2281 2262 2257 2216 2149 2077 2054 2069 2109 1909 1833 1812 1802 1801 1815 1826 1881 1973 1996 2019 2029 2053 1988 1963 2047 2126 2135 2127 2168 2201 2223 2253 2302 2345 2402 2435 2478 2522 2573 2645 2750 2669 2848 2945 3014 3038 2910 2560 2446 2481 2621 2864 3091 3299 3470 3452 3606 3645 3551 3490 3432 3814 3750 3573 3462 3587 3492 3398 3598 3561 -9999 3739 3584 3559 3558 3588 3685 3731 3905 -9999 -9999 -9999 -9999 -9999 -9999 -9999 -9999 -9999 -9999 -9999 -9999 -9999 -9999 -9999 -9999 -9999 -9999 -9999 -9999 -9999 -9999 -9999 -9999 -9999 -9999 -9999 -9999 -9999 -9999 -9999 -9999 -9999 -9999 -9999 -9999 -9999 -9999 -9999 -9999 -9999 -9999 -9999 -9999 -9999 -9999 -9999 -9999 -9999 -9999 -9999 -9999 -9999 -9999 -9999 -9999 -9999 -9999 -9999 -9999 -9999 -9999 -9999 -9999 -9999 -9999 -9999 -9999 -9999 -9999 -9999 -9999
-9999 -9999 -9999 -9999 -9999 -9999 -9999 -9999 -9999 -9999 -9999 -9999 -9999 1989 1960 1941 1983 1815 1480 1363 1433 1506 1560 1250 1131 1267 1498 1616 1780 1875 1967 1963 2047 2068 2103 2194 2293 2311 2368 2500 2532 2575 2539 2567 2727 2820 2857 2874 2616 2521 2408 2623 2973 2968 3000 2951 3112 2987 2858 2701 2474 2340 2353 2074 2000 1692 1782 1590 1413 1133 1038 1122 1173 1227 1367 1563 1700 1983 1849 1624 1471 1435 1432 1468 1589 1705 1901 2183 2459 2544 2689 2963 3128 3216 3118 3036 3315 3073 2984 3002 3135 3292 3362 3247 3146 2946 2794 2758 2605 2395 2245 2305 2657 3051 2829 2658 2517 2668 2923 3048 3201 3139 3207 3424 3549 3514 3501 3644 3689 3641 3377 2958 2802 2645 2638 2850 3109 3107 2910 2636 2405 2495 2728 2718 2528 2407 2217 2449 2724 2922 2865 2792 2742 2566 2590 2551 2487 2394 2371 2284 2174 2057 2022 2162 2223 2333 2241 2181 2045 2095 2184 2121 2018 2112 2094 2023 2007 1943 1854 1802 1749 1922 2066 2179 2261 2360 2389 2506 2606 2797 2936 3072 2954 3021 3191 3179 3123 3084 2915 2697 2641 2608 2526 2461 2279 2155 2211 2290 2262 2370 2325 2256 2242 2193 2159 2146 2081 2035 2023 1992 2121 1930 1815 1807 1794 1800 1819 1846 1873 1959 1976 1986 2004 2044 2082 1991 1950 2114 2152 2158 2166 2222 2252 2301 2332 2390 2445 2505 2552 2594 2643 2685 2813 2766 2943 3121 3127 3152 3027 2664 2658 2479 2454 2697 2916 3081 3127 3318 3461 3646 3607 3531 3411 3788 3703 3564 3471 3662 3558 3486 -9999 -9999 -9999 -9999 -9999 -9999 -9999 -9999 -9999 -9999 -9999 -9999 -9999 -9999 -9999 -9999 -9999 -9999 -9999 -9999 -9999 -9999 -9999 -9999 -9999 -9999 -9999 -9999 -9999 -9999 -9999 -9999 -9999 -9999 -9999 -9999 -9999 -9999 -9999 -9999 -9999 -9999 -9999 -9999 -9999 -9999 -9999 -9999 -9999 -9999 -9999 -9999 -9999 -9999 -9999 -9999 -9999 -9999 -9999 -9999 -9999 -9999 -9999 -9999 -9999 -9999 -9999 -9999 -9999 -9999 -9999 -9999 -9999 -9999 -9999 -9999 -9999 -9999 -9999 -9999 -9999 -9999 -9999
-9999 -9999 -9999 -9999 -9999 -9999 -9999 -9999 -9999 -9999 -9999 -9999 -9999 2015 1963 1978 1995 1720 1350 1219 1256 1294 1377 1118 1216 1296 1383 1340 1577 1797 1872 1989 2039 2080 2167 2207 2305 2392 2421 2547 2582 2476 2553 2675 2773 2762 2686 2483 2249 2146 2420 2640 2606 2583 2799 2903 2840 2870 2623 2366 2047 1946 1974 1899 1753 1540 1505 1262 1182 1025 1060 1172 1277 1491 1675 1873 2000 2084 1765 1652 1580 1575 1602 1759 1759 1678 1636 1830 2208 2313 2383 2619 2738 3022 3192 3149 3268 3408 3323 3175 3514 3665 3663 3303 3033 2743 2516 2444 2433 2195 2610 2878 2953 2804 2840 2870 2779 2858 3064 3278 3309 3297 3497 3445 3315 3153 3148 3230 3294 3422 3211 3204 3012 2652 2534 2829 2942 2916 2792 2669 2363 2415 2701 2906 2655 2511 2216 2346 2607 2673 2630 2579 2498 2439 2408 2502 2481 2377 2412 2280 2182 2101 1954 2037 2127 2204 2243 2172 2038 2020 2143 2103 2019 1994 2022 2062 2006 1899 1832 1791 1747 1936 2044 2089 2162 2316 2498 2655 2691 2673 2765 2896 2975 3036 3149 3268 3307 3283 2950 2682 2571 2538 2449 2358 2214 2147 2095 2107 2184 2279 2243 2181 2164 2143 2091 1996 1964 1995 2038 1981 1901 1807 1806 1794 1788 1815 1841 1877 1929 1986 1995 2005 2020 2074 2115 2130 2151 1986 2165 2221 2231 2307 2330 2427 2480 2509 2500 2753 2726 2780 2834 2783 3001 3070 2900 3113 3433 3437 3160 3105 2838 2548 2589 2643 2619 2831 2982 3289 3356 3502 3597 3663 3452 3815 3782 3673 3614 3740 3685 -9999 -9999 -9999 -9999 -9999 -9999 -9999 -9999 -9999 -9999 -9999 -9999 -9999 -9999 -9999 -9999 -9999 -9999 -9999 -9999 -9999 -9999 -9999 -9999 -9999 -9999 -9999 -9999 -9999 -9999 -9999 -9999 -9999 -9999 -9999 -9999 -9999 -9999 -9999 -9999 -9999 -9999 -9999 -9999 -9999 -9999 -9999 -9999 -9999 -9999 -9999 -9999 -9999 -9999 -9999 -9999 -9999 -9999 -9999 -9999 -9999 -9999 -9999 -9999 -9999 -9999 -9999 -9999 -9999 -9999 -9999 -9999 -9999 -9999 -9999 -9999 -9999 -9999 -9999 -9999 -9999 -9999 -9999 -9999
-9999 -9999 -9999 -9999 -9999 -9999 -9999 -9999 -9999 -9999 -9999 -9999 -9999 2040 1936 1930 2001 2002 1529 1207 1087 1087 1130 1250 1544 1637 1842 1643 1429 1531 1834 2017 2101 2135 2211 2300 2380 2506 2479 2467 2503 2510 2619 2503 2379 2412 2266 2157 1949 2249 2457 2315 2194 2560 2703 2819 2903 2724 2644 2565 2294 2018 1528 1697 1648 1335 1141 1051 994 1075 1123 1268 1313 1411 1622 1850 1964 2259 2086 1961 1912 1917 1870 2022 2296 2306 2231 1817 1848 1923 2049 2332 2753 3074 3249 3401 3402 3577 3633 3350 3589 3465 3419 3327 3141 2732 2446 2313 2178 2502 2941 2902 2797 2941 2951 3094 3092 3063 3350 3485 3581 3461 3375 3520 3444 3126 2845 2852 2902 3133 3037 2846 2886 2551 2370 2693 2728 2688 2634 2348 2419 2474 2509 2729 2687 2587 2390 2146 2261 2498 2480 2370 2274 2279 2320 2427 2358 2339 2382 2316 2245 2125 2020 1910 2025 2222 2294 2199 2065 1961 2034 2041 1983 1899 1941 1970 1988 1942 1862 1757 1755 1912 2026 2147 2211 2306 2443 2528 2587 2761 2911 2873 2887 2918 3160 3219 3066 3026 2849 2781 2745 2708 2685 2638 2469 2217 2135 2051 2034 2096 2092 2168 2071 2018 2033 1942 1907 1882 1842 1818 1829 1806 1799 1802 1854 1911 1883 1919 1958 1953 2007 2044 2081 2117 2217 2233 2182 2180 2031 2264 2288 2356 2442 2486 2574 2732 2707 2618 2864 2990 3165 3058 3009 3137 3184 3095 3396 3593 3511 3161 2834 2791 2858 2821 2940 2716 2707 2958 3317 3632 3743 3792 3553 3657 3800 3824 3697 -9999 -9999 -9999 -9999 -9999 -9999 -9999 -9999 -9999 -9999 -9999 -9999 -9999 -9999 -9999 -9999 -9999 -9999 -9999 -9999 -9999 -9999 -9999 -9999 -9999 -9999 -9999 -9999 -9999 -9999 -9999 -9999 -9999 -9999 -9999 -9999 -9999 -9999 -9999 -9999 -9999 -9999 -9999 -9999 -9999 -9999 -9999 -9999 -9999 -9999 -9999 -9999 -9999 -9999 -9999 -9999 -9999 -9999 -9999 -9999 -9999 -9999 -9999 -9999 -9999 -9999 -9999 -9999 -9999 -9999 -9999 -9999 -9999 -9999 -9999 -9999 -9999 -9999 -9999 -9999 -9999 -9999 -9999 -9999 -9999 -9999
-9999 -9999 -9999 -9999 -9999 -9999 -9999 -9999 2022 -9999 -9999 -9999 -9999 2150 1960 1894 1926 1738 1255 1271 1400 1391 1461 1317 1594 1715 1857 1878 1838 1877 1831 1996 2119 2180 2313 2400 2275 2210 2285 2435 2565 2621 2557 2210 1938 1993 1841 1746 2115 1945 1898 1896 2219 2564 2798 2870 2551 2241 1991 2098 2101 1794 1510 1277 1280 1166 1108 1012 1065 1157 1159 1134 1145 1299 1642 2011 2175 2455 2358 2092 2121 2143 2220 2281 2430 2520 2272 2225 2076 1941 2289 2324 2618 2964 3097 3469 3476 3290 3294 3314 3305 3245 3122 2898 3083 2846 2432 2237 2277 2638 2514 2507 2724 2741 2961 3113 3321 3334 3177 3214 3348 3364 3133 3138 3081 3175 2922 2594 2606 2876 2879 2577 2602 2415 2248 2627 2646 2608 2450 2186 2186 2225 2400 2666 2647 2603 2657 2416 2049 2267 2324 2249 2187 2264 2317 2468 2406 2260 2227 2380 2446 2292 2069 1950 1968 2189 2316 2299 2110 1967 1922 1978 1970 1895 1852 1887 1938 1987 1913 1774 1729 1905 2030 2128 2119 2230 2402 2560 2632 2765 2807 2717 2880 2980 3142 2883 2786 2819 2887 2882 2888 2866 2809 2683 2433 2209 2132 2038 1984 1956 1954 2054 2149 1966 1929 1882 1881 1792 1769 1771 1772 1830 1977 2007 1932 1935 1940 1941 2017 2024 2058 2104 2114 2146 2231 2276 2255 2318 2145 2065 2127 2255 2505 2668 2677 2687 2876 2839 2882 3005 3167 3369 3270 3242 3401 3236 3293 3401 3435 3272 2966 3069 3102 2966 3078 3113 2986 2915 3255 3680 3833 3960 3911 3875 3796 -9999 -9999 -9999 -9999 -9999 -9999 -9999 -9999 -9999 -9999 -9999 -9999 -9999 -9999 -9999 -9999 -9999 -9999 -9999 -9999 -9999 -9999 -9999 -9999 -9999 -9999 -9999 -9999 -9999 -9999 -9999 -9999 -9999 -9999 -9999 -9999 -9999 -9999 -9999 -9999 -9999 -9999 -9999 -9999 -9999 -9999 -9999 -9999 -9999 -9999 -9999 -9999 -9999 -9999 -9999 -9999 -9999 -9999 -9999 -9999 -9999 -9999 -9999 -9999 -9999 -9999 -9999 -9999 -9999 -9999 -9999 -9999 -9999 -9999 -9999 -9999 -9999 -9999 -9999 -9999 -9999 -9999 -9999 -9999 -9999 -9999 -9999 -9999
-9999 -9999 -9999 -9999 -9999 -9999 -9999 1895 1922 2076 -9999 -9999 2027 2076 1995 1819 1869 1562 1103 1425 1612 1536 1508 1525 1477 1550 1808 1897 1964 1955 1994 2090 2155 2190 2290 2414 2262 2228 2351 2575 2677 2639 2513 2147 1829 1837 1667 1852 1858 1721 1790 1941 2360 2688 2704 2718 2324 2109 1758 1837 1891 1611 1465 1198 1198 1130 1084 1008 1081 1239 1291 1262 1217 1221 1528 1901 2093 2398 2287 2179 2294 2379 2482 2505 2638 2743 2375 2384 2188 2038 2235 2582 2697 2945 3121 3549 3566 3246 3199 3133 3048 2950 2865 2713 2884 2853 2502 2304 2278 2626 2432 2475 2575 2699 2976 3137 3138 3166 2995 3072 3198 3171 3127 2936 2892 3026 2946 2566 2494 2707 2801 2535 2472 2296 2230 2597 2583 2559 2400 2102 2093 2230 2507 2699 2675 2622 2672 2393 2065 2201 2216 2187 2162 2278 2345 2533 2528 2342 2211 2346 2409 2223 2057 2016 1891 2082 2181 2285 2114 1974 1903 1916 1976 1888 1820 1868 1897 1926 1937 1703 1755 1888 1928 2011 2075 2232 2446 2612 2611 2633 2715 2699 2840 2938 3138 2867 2696 2765 2833 2778 2876 2886 2774 2642 2394 2185 2126 2039 1995 1921 1906 2017 2102 1973 1919 1903 1826 1768 1766 1764 1812 1816 1877 1928 1935 1946 1967 1975 2054 2055 2119 2154 2176 2225 2293 2332 2329 2324 2306 2091 2068 2284 2368 2514 2544 2586 2779 2841 2859 2902 3135 3388 3425 3334 3371 3480 3357 3336 3440 3370 3124 3132 3174 3161 3232 3341 3210 3055 3300 3704 3865 4014 -9999 -9999 -9999 -9999 -9999 -9999 -9999 -9999 -9999 -9999 -9999 -9999 -9999 -9999 -9999 -9999 -9999 -9999 -9999 -9999 -9999 -9999 -9999 -9999 -9999 -9999 -9999 -9999 -9999 -9999 -9999 -9999 -9999 -9999 -9999 -9999 -9999 -9999 -9999 -9999 -9999 -9999 -9999 -9999 -9999 -9999 -9999 -9999 -9999 -9999 -9999 -9999 -9999 -9999 -9999 -9999 -9999 -9999 -9999 -9999 -9999 -9999 -9999 -9999 -9999 -9999 -9999 -9999 -9999 -9999 -9999 -9999 -9999 -9999 -9999 -9999 -9999 -9999 -9999 -9999 -9999 -9999 -9999 -9999 -9999 -9999 -9999 -9999 -9999 -9999 -9999
-9999 -9999 -9999 -9999 -9999 -9999 1881 1708 1818 1928 2092 1994 1888 1862 1575 1452 1477 1235 1154 1663 1816 1903 1669 1844 1687 1715 1762 1943 2005 2036 2046 2099 2192 2251 2381 2416 2307 2023 2097 2252 2369 2343 2238 2034 1638 1518 1752 1651 1624 2005 2206 2260 2500 2448 2080 2125 1885 1807 1697 1480 1357 1323 1167 1078 1059 1003 1009 1125 1201 1483 1644 1756 1727 1315 1362 1793 1905 2173 2312 2291 2406 2534 2794 2975 3040 3115 2847 2753 2489 2440 2384 2657 3045 3040 3334 3769 3638 3696 3601 3259 3005 2769 2678 2405 2347 2522 2310 2198 2283 2574 2698 2709 2761 2991 3085 3020 2831 2784 2884 2711 2799 2771 3052 2790 2631 2820 2887 2587 2404 2287 2585 2312 2116 2075 2426 2558 2451 2330 2333 1999 2182 2335 2633 2629 2662 2597 2465 2321 2166 1968 2065 2031 2152 2209 2238 2435 2394 2266 2196 2141 2289 2389 2240 2125 1932 1977 2062 2173 2190 2023 1902 1882 1983 1925 1864 1784 1804 1850 1827 1700 1843 2037 2101 2148 2142 2242 2405 2385 2439 2521 2665 2696 2594 2700 2910 2884 2579 2577 2619 2705 2729 2700 2660 2548 2308 2113 2065 1999 1988 1945 1920 1892 1982 1904 1894 1819 1790 1755 1747 1811 2035 1974 1880 1854 1852 1937 2026 2069 2195 2171 2266 2289 2364 2417 2365 2520 2457 2342 2516 2365 2262 2107 2214 2310 2323 2413 2691 2545 2632 2644 2854 3130 3297 3398 3575 3487 3461 3499 3747 3567 3410 3463 3538 3554 3606 3738 3642 3464 3455 3757 -9999 -9999 -9999 -9999 -9999 -9999 -9999 -9999 -9999 -9999 -9999 -9999 -9999 -9999 -9999 -9999 -9999 -9999 -9999 -9999 -9999 -9999 -9999 -9999 -9999 -9999 -9999 -9999 -9999 -9999 -9999 -9999 -9999 -9999 -9999 -9999 -9999 -9999 -9999 -9999 -9999 -9999 -9999 -9999 -9999 -9999 -9999 -9999 -9999 -9999 -9999 -9999 -9999 -9999 -9999 -9999 -9999 -9999 -9999 -9999 -9999 -9999 -9999 -9999 -9999 -9999 -9999 -9999 -9999 -9999 -9999 -9999 -9999 -9999 -9999 -9999 -9999 -9999 -9999 -9999 -9999 -9999 -9999 -9999 -9999 -9999 -9999 -9999 -9999 -9999 -9999 -9999 -9999
-9999 -9999 -9999 -9999 -9999 1941 1843 1617 1632 1772 1981 1847 1690 1679 1565 1202 1108 1272 1606 1682 1765 2085 2127 2136 1912 1897 1812 2020 2072 2100 2085 2186 2228 2259 2337 2446 2263 1883 1835 1916 2071 1924 1852 1696 1463 1417 1429 1557 1865 2197 2453 2479 2488 2236 1802 1609 1444 1518 1515 1396 1186 1097 1021 968 995 1125 1272 1348 1499 1764 1992 2120 1914 1533 1323 1439 1513 1707 1849 1883 2159 2407 2605 2758 3004 3130 3283 3043 2960 2852 2779 2797 3364 3327 3338 3562 3405 3478 3629 3568 3399 3120 2925 2530 2286 2130 2101 2307 2658 2711 2914 3026 3019 3190 3106 2955 2635 2426 2592 2630 2441 2501 2838 2763 2596 2467 2772 2607 2402 2102 2073 1949 2009 2309 2495 2602 2322 2159 1967 1950 2271 2410 2569 2430 2490 2395 2227 2159 2046 1900 1912 1910 2038 2081 2133 2252 2285 2361 2311 2138 2102 2251 2263 2126 1992 1841 1996 2051 2173 2073 1911 1853 1913 1993 1925 1881 1807 1728 1713 1877 1942 1997 2141 2270 2349 2345 2388 2359 2389 2533 2678 2674 2382 2451 2575 2596 2544 2619 2606 2470 2512 2435 2458 2285 2103 1986 1936 1924 1932 2004 1977 1893 1837 1815 1818 1780 1744 1740 1841 1941 2005 1998 1993 2013 2009 1904 1903 2023 2205 2284 2318 2439 2502 2594 2528 2674 2564 2447 2556 2526 2404 2258 2321 2258 2199 2212 2346 2389 2448 2542 2676 2830 2948 3020 3170 3341 3438 3462 3604 3555 3479 3403 3418 3610 3779 3762 3722 3633 3681 -9999 -9999 -9999 -9999 -9999 -9999 -9999 -9999 -9999 -9999 -9999 -9999 -9999 -9999 -9999 -9999 -9999 -9999 -9999 -9999 -9999 -9999 -9999 -9999 -9999 -9999 -9999 -9999 -9999 -9999 -9999 -9999 -9999 -9999 -9999 -9999 -9999 -9999 -9999 -9999 -9999 -9999 -9999 -9999 -9999 -9999 -9999 -9999 -9999 -9999 -9999 -9999 -9999 -9999 -9999 -9999 -9999 -9999 -9999 -9999 -9999 -9999 -9999 -9999 -9999 -9999 -9999 -9999 -9999 -9999 -9999 -9999 -9999 -9999 -9999 -9999 -9999 -9999 -9999 -9999 -9999 -9999 -9999 -9999 -9999 -9999 -9999 -9999 -9999 -9999 -9999 -9999 -9999 -9999
-9999 -9999 -9999 -9999 -9999 2045 1762 1626 1500 1605 1698 1626 1536 1460 1330 1048 1118 1395 1634 1635 1757 2102 2258 2195 2001 1898 1914 2054 2167 2116 2160 2248 2309 2366 2315 2335 2233 1960 1744 1675 1789 1561 1437 1306 1516 1680 1671 1749 2050 2292 2345 2332 2233 2110 1903 1737 1413 1139 1102 1041 1015 981 1011 1154 1218 1294 1496 1800 1902 2168 2426 2491 2464 2235 1952 1717 1555 1576 1712 1744 2142 2139 2296 2631 2952 3100 3253 3440 3370 3239 3150 3122 3491 3594 3516 3305 3043 3245 3465 3446 3304 3164 3068 2833 2508 2256 2238 2349 2693 2749 3038 3118 3235 3313 3101 2945 2684 2401 2231 2319 2250 2369 2609 2605 2512 2342 2220 2273 2322 2106 1862 2006 2089 2396 2745 2421 2121 1985 1841 2121 2457 2465 2341 2242 2254 2192 2271 2177 2079 1980 1910 1829 1926 2078 2111 2061 2225 2337 2338 2256 2090 2060 2217 2243 2077 1938 1865 1936 2061 2044 1935 1870 1894 2018 1905 1835 1806 1709 1853 1986 2027 2092 2155 2205 2262 2382 2481 2527 2520 2550 2675 2479 2249 2254 2327 2309 2433 2515 2512 2484 2266 2138 2257 2073 2003 1900 1821 1865 1793 1812 1819 1826 1815 1823 1798 1747 1725 1757 1966 1991 1988 2048 2091 2156 2130 2185 2070 1958 2021 2164 2407 2548 2669 2779 2829 2852 2724 2626 2808 2543 2517 2433 2585 2447 2362 2457 2316 2256 2364 2448 2600 2650 2696 2749 2828 2993 3103 3117 3231 3214 3228 3246 3332 3563 3608 3674 3812 3793 -9999 -9999 -9999 -9999 -9999 -9999 -9999 -9999 -9999 -9999 -9999 -9999 -9999 -9999 -9999 -9999 -9999 -9999 -9999 -9999 -9999 -9999 -9999 -9999 -9999 -9999 -9999 -9999 -9999 -9999 -9999 -9999 -9999 -9999 -9999 -9999 -9999 -9999 -9999 -9999 -9999 -9999 -9999 -9999 -9999 -9999 -9999 -9999 -9999 -9999 -9999 -9999 -9999 -9999 -9999 -9999 -9999 -9999 -9999 -9999 -9999 -9999 -9999 -9999 -9999 -9999 -9999 -9999 -9999 -9999 -9999 -9999 -9999 -9999 -9999 -9999 -9999 -9999 -9999 -9999 -9999 -9999 -9999 -9999 -9999 -9999 -9999 -9999 -9999 -9999 -9999 -9999 -9999 -9999 -9999
-9999 -9999 -9999 -9999 2239 1991 1801 1635 1509 1370 1437 1598 1471 1286 1093 1197 1423 1603 1765 1952 1954 2146 2251 2126 1916 1919 2025 2098 2207 2155 2240 2308 2361 2347 2250 2132 2044 1927 1749 1377 1411 1210 1351 1696 1906 2159 2097 2011 2187 2340 2132 1956 1809 1966 1926 1717 1328 1044 938 983 1065 1150 1315 1400 1537 1652 1503 1649 1773 2056 2359 2449 2449 2483 2319 1926 1758 1872 2177 2360 2186 2222 2175 2375 2568 2658 2870 2996 3214 3391 3437 3359 3672 3731 3527 3268 2926 2843 2964 2959 3041 3010 2950 2721 2437 2349 2334 2489 2546 2675 2864 2961 3262 3214 2932 2852 2877 2604 2408 2063 2148 2491 2794 2870 2724 2486 2339 2145 2074 1970 1841 2091 2223 2626 2656 2554 2161 1957 1933 2351 2296 2262 2157 2074 2003 2030 2200 2274 2166 2042 1987 1851 1853 1922 1929 2058 2128 2301 2271 2114 2068 1954 2108 2189 2101 1995 1791 1808 1922 2057 1955 1873 1804 1940 2042 1848 1675 1802 1929 1968 1964 2032 2151 2258 2310 2395 2499 2596 2566 2696 2737 2503 2433 2369 2318 2046 2211 2379 2318 2214 2050 1910 1919 1875 1803 1710 1699 1698 1705 1724 1730 1729 1722 1716 1712 1719 1744 1902 1963 1996 2063 2143 2218 2320 2335 2403 2424 2272 2009 2007 2185 2362 2431 2577 2777 2886 2910 2886 2979 2799 2698 2587 2751 2670 2538 2711 2587 2567 2370 2320 2358 2426 2561 2542 2636 2733 2798 2917 2980 2930 2998 3047 3108 3279 3435 3519 3691 -9999 -9999 -9999 -9999 -9999 -9999 -9999 -9999 -9999 -9999 -9999 -9999 -9999 -9999 -9999 -9999 -9999 -9999 -9999 -9999 -9999 -9999 -9999 -9999 -9999 -9999 -9999 -9999 -9999 -9999 -9999 -9999 -9999 -9999 -9999 -9999 -9999 -9999 -9999 -9999 -9999 -9999 -9999 -9999 -9999 -9999 -9999 -9999 -9999 -9999 -9999 -9999 -9999 -9999 -9999 -9999 -9999 -9999 -9999 -9999 -9999 -9999 -9999 -9999 -9999 -9999 -9999 -9999 -9999 -9999 -9999 -9999 -9999 -9999 -9999 -9999 -9999 -9999 -9999 -9999 -9999 -9999 -9999 -9999 -9999 -9999 -9999 -9999 -9999 -9999 -9999 -9999 -9999 -9999 -9999 -9999
-9999 2215 2153 2160 2091 2065 1830 1656 1653 1523 1295 1495 1446 1232 1035 1379 1570 1715 1810 2154 2173 2248 2276 2113 1954 1995 2042 2155 2175 2213 2283 2357 2361 2359 2248 2094 1953 1917 1844 1514 1259 1325 1571 1884 2153 2227 2158 2140 2289 2260 2023 1876 1580 1793 1738 1550 1281 1034 978 1033 1133 1183 1352 1549 1619 1809 1735 1775 1895 2165 2472 2383 2324 2319 2260 1837 1663 1816 2039 2345 2319 2406 2337 2658 2567 2630 2677 2883 3137 3294 3541 3596 3563 3579 3578 3244 2804 2632 2674 2712 2860 2900 2857 2625 2361 2338 2334 2449 2530 2692 2881 2972 3268 3246 2914 2761 2668 2562 2289 2033 2175 2470 2731 2809 2638 2409 2246 2095 2044 1927 1844 2079 2255 2594 2580 2475 2213 1912 1973 2286 2228 2168 2066 1982 1942 1991 2155 2255 2164 2061 2005 1874 1789 1862 1924 1996 2117 2274 2302 2201 2062 1932 2111 2121 2145 1984 1816 1765 1900 2032 1945 1871 1804 2004 1979 1824 1681 1880 1969 2008 2028 2062 2172 2324 2355 2466 2496 2531 2528 2704 2772 2480 2415 2389 2350 2175 2108 2269 2139 2091 1979 1885 1842 1815 1696 1689 1691 1692 1697 1705 1707 1710 1709 1708 1721 1727 1790 1892 1999 2032 2118 2184 2317 2442 2441 2471 2594 2432 2115 1938 2079 2258 2336 2511 2658 2749 2858 2977 3088 2943 2838 2724 2810 2752 2637 2825 2680 2603 2494 2499 2447 2366 2400 2428 2520 2627 2727 2720 2793 2867 2921 2995 3073 3219 3384 3469 3605 3757 -9999 -9999 -9999 -9999 -9999 -9999 -9999 -9999 -9999 -9999 -9999 -9999 -9999 -9999 -9999 -9999 -9999 -9999 -9999 -9999 -9999 -9999 -9999 -9999 -9999 -9999 -9999 -9999 -9999 -9999 -9999 -9999 -9999 -9999 -9999 -9999 -9999 -9999 -9999 -9999 -9999 -9999 -9999 -9999 -9999 -9999 -9999 -9999 -9999 -9999 -9999 -9999 -9999 -9999 -9999 -9999 -9999 -9999 -9999 -9999 -9999 -9999 -9999 -9999 -9999 -9999 -9999 -9999 -9999 -9999 -9999 -9999 -9999 -9999 -9999 -9999 -9999 -9999 -9999 -9999 -9999 -9999 -9999 -9999 -9999 -9999 -9999 -9999 -9999 -9999 -9999 -9999 -9999 -9999 -9999
-9999 2196 1895 1854 1893 1757 1988 1908 1751 1515 1371 1203 1175 1112 1100 1483 1667 1659 1848 2137 2293 2304 2271 2052 1995 2054 2194 2279 2205 2247 2347 2450 2396 2351 2200 2007 1721 1589 1579 1493 1182 1416 1592 1851 2002 2171 2025 1987 2203 2113 1720 1603 1492 1284 1318 1207 1044 967 1112 1195 1447 1535 1470 1502 1514 1720 2027 2240 2246 2462 2733 2484 2346 2113 1971 1737 1745 1709 1885 2054 2289 2479 2568 2750 2983 3087 3013 2980 3070 3294 3549 3572 3546 3356 3234 3072 2968 2785 2608 2449 2522 2701 2730 2473 2193 2242 2314 2385 2487 2685 2878 3004 3330 3236 2910 2715 2411 2187 2103 1957 2119 2378 2664 2753 2590 2321 2145 1957 2007 1887 1794 2057 2233 2554 2474 2335 2158 1950 1943 2125 2004 1931 1933 1863 1902 1947 2058 2264 2179 2069 1999 1910 1802 1789 1844 1995 2166 2265 2202 2057 2093 1889 2070 2135 2072 1965 1804 1736 1842 1946 2051 2026 1772 1955 1775 1708 1818 2079 2139 2103 2108 2142 2236 2346 2390 2531 2416 2360 2456 2463 2471 2199 2167 2162 2111 2039 1905 1918 1948 1865 1840 1806 1709 1680 1677 1684 1695 1729 1723 1722 1733 1716 1716 1743 1778 1858 1896 1985 2073 2089 2228 2411 2602 2690 2776 2532 2267 2194 2088 2190 2059 2019 2109 2306 2341 2562 2573 2764 2837 3004 3079 3027 3012 2949 2928 3024 2972 2837 2814 2731 2625 2666 2597 2658 2611 2558 2532 2613 2803 2730 2796 2975 3110 3068 3075 3157 3256 3463 3705 -9999 -9999 -9999 -9999 -9999 -9999 -9999 -9999 -9999 -9999 -9999 -9999 -9999 -9999 -9999 -9999 -9999 -9999 -9999 -9999 -9999 -9999 -9999 -9999 -9999 -9999 -9999 -9999 -9999 -9999 -9999 -9999 -9999 -9999 -9999 -9999 -9999 -9999 -9999 -9999 -9999 -9999 -9999 -9999 -9999 -9999 -9999 -9999 -9999 -9999 -9999 -9999 -9999 -9999 -9999 -9999 -9999 -9999 -9999 -9999 -9999 -9999 -9999 -9999 -9999 -9999 -9999 -9999 -9999 -9999 -9999 -9999 -9999 -9999 -9999 -9999 -9999 -9999 -9999 -9999 -9999 -9999 -9999 -9999 -9999 -9999 -9999 -9999 -9999 -9999 -9999 -9999 -9999 -9999
-9999 2251 1961 1858 1627 1567 1682 1870 1792 1601 1457 1461 1358 1114 1095 1472 1520 1546 1771 2008 1955 1987 1940 1842 1984 2060 2242 2263 2304 2315 2348 2392 2184 2121 2118 2038 1909 1596 1474 1254 1135 1435 1583 1817 2067 1989 1851 1702 1883 1951 1682 1644 1288 1122 1013 965 969 1191 1387 1491 1702 1878 1848 1880 1789 1780 1959 2306 2513 2718 2737 2484 2373 2102 1974 1963 1914 1874 1942 2224 2603 2797 2985 3119 3196 3117 3206 3103 3228 3251 3502 3618 3377 3290 3259 3516 3285 2867 2706 2427 2332 2642 2702 2241 2148 2214 2251 2298 2480 2690 2960 3102 3356 3132 2867 2731 2650 2370 2027 1880 2058 2348 2636 2644 2611 2446 2114 1886 2026 1909 1754 1936 2030 2271 2309 2212 2136 2037 1801 1872 1850 1886 1845 1757 1887 1954 2064 2197 2238 2112 2072 1950 1833 1756 1820 2000 2072 2134 2104 2054 1899 1857 2021 2103 1959 1943 1809 1727 1870 1961 1992 2015 1971 1745 1626 1910 2018 2011 2067 2125 2091 2113 2192 2348 2432 2384 2256 2255 2206 2342 2132 1995 1920 1943 1978 1979 1781 1744 1782 1761 1693 1670 1656 1660 1689 1722 1733 1799 1894 1842 1771 1882 1864 1889 1910 1936 1982 2088 2239 2271 2427 2564 2843 2955 2660 2403 2299 2391 2411 2446 2207 2141 2093 2064 2180 2282 2357 2433 2529 2783 2771 2819 2993 3165 3058 2932 3133 3173 3141 3077 2908 2949 3045 3000 2901 2885 2905 2766 2676 2797 2771 2773 2812 2872 3064 3159 3164 3496 3826 -9999 -9999 -9999 -9999 -9999 -9999 -9999 -9999 -9999 -9999 -9999 -9999 -9999 -9999 -9999 -9999 -9999 -9999 -9999 -9999 -9999 -9999 -9999 -9999 -9999 -9999 -9999 -9999 -9999 -9999 -9999 -9999 -9999 -9999 -9999 -9999 -9999 -9999 -9999 -9999 -9999 -9999 -9999 -9999 -9999 -9999 -9999 -9999 -9999 -9999 -9999 -9999 -9999 -9999 -9999 -9999 -9999 -9999 -9999 -9999 -9999 -9999 -9999 -9999 -9999 -9999 -9999 -9999 -9999 -9999 -9999 -9999 -9999 -9999 -9999 -9999 -9999 -9999 -9999 -9999 -9999 -9999 -9999 -9999 -9999 -9999 -9999 -9999 -9999 -9999 -9999 -9999 -9999 -9999
-9999 2188 1936 1863 1740 1508 1499 1572 1539 1366 1308 1288 1424 1240 1013 1393 1516 1623 1726 1872 1890 1700 1694 1823 2002 2048 2089 2139 2252 2310 2315 2324 2161 2026 1907 1837 1673 1536 1391 1101 1234 1573 1636 1801 1788 1856 1726 1567 1541 1620 1322 1204 995 940 1177 1281 1307 1395 1587 1709 1895 2100 2278 2283 2247 2193 2230 2450 2514 2717 2969 2673 2567 2340 2428 2096 2185 2338 2413 2435 2681 2796 3102 3310 3397 3304 3517 3288 3467 3474 3434 3555 3383 3312 3212 3159 3051 2726 2577 2153 2232 2327 2214 2105 2165 2073 2074 2129 2304 2512 2749 2891 3259 3304 2980 2858 2687 2403 1956 1825 1980 2454 2721 2588 2458 2255 2145 1813 1964 2031 1713 1781 1880 2132 2168 2087 1973 1900 1814 1726 1786 1810 1705 1780 1888 1934 2029 2156 2326 2192 2112 1968 1858 1726 1821 1862 2031 1970 1963 1945 1823 1921 2050 2100 1976 1873 1794 1706 1794 1852 1921 1915 1884 1839 1613 1759 1807 1907 2057 2001 1946 1908 1992 2123 2162 2074 1982 2051 2054 1895 1964 1915 1768 1761 1852 1770 1773 1726 1670 1652 1645 1654 1676 1705 1787 1844 1868 1825 1848 1864 1877 1833 1910 1955 2006 2006 2136 2319 2450 2548 2610 2711 2974 2882 2682 2621 2551 2597 2645 2526 2177 2422 2416 2101 2189 2141 2133 2189 2285 2431 2442 2486 2614 2737 2803 2684 2872 2918 2835 2869 2898 2977 2913 2915 2985 3133 3196 3108 3057 3168 2963 3024 3022 2986 3121 3239 3346 3378 3605 -9999 -9999 -9999 -9999 -9999 -9999 -9999 -9999 -9999 -9999 -9999 -9999 -9999 -9999 -9999 -9999 -9999 -9999 -9999 -9999 -9999 -9999 -9999 -9999 -9999 -9999 -9999 -9999 -9999 -9999 -9999 -9999 -9999 -9999 -9999 -9999 -9999 -9999 -9999 -9999 -9999 -9999 -9999 -9999 -9999 -9999 -9999 -9999 -9999 -9999 -9999 -9999 -9999 -9999 -9999 -9999 -9999 -9999 -9999 -9999 -9999 -9999 -9999 -9999 -9999 -9999 -9999 -9999 -9999 -9999 -9999 -9999 -9999 -9999 -9999 -9999 -9999 -9999 -9999 -9999 -9999 -9999 -9999 -9999 -9999 -9999 -9999 -9999 -9999 -9999 -9999 -9999 -9999 -9999
-9999 2266 2015 1860 1678 1521 1376 1464 1426 1289 1240 1260 1306 1294 983 1330 1441 1572 1714 1878 1885 1626 1678 1978 2105 2101 2040 2163 2248 2308 2274 2174 2134 2058 1720 1711 1511 1386 1345 1152 1236 1478 1577 1660 1761 1786 1685 1580 1345 1408 1166 1048 910 1134 1243 1188 1339 1394 1387 1528 1843 2001 2111 2410 2469 2415 2423 2674 2797 2822 3059 2798 2672 2553 2558 2209 2311 2598 2649 2508 2864 2933 3278 3589 3444 3404 3550 3391 3436 3510 3568 3406 3176 3005 2927 2878 2886 2605 2417 2068 2284 2034 1965 2109 2258 2252 2180 2189 2262 2501 2745 2899 3249 3144 2762 2644 2421 2196 1919 1805 1966 2510 2675 2590 2529 2317 2027 1766 1904 2165 1826 1661 1781 1970 2099 2044 1866 1806 1725 1644 1794 1756 1663 1794 1884 1931 2036 2180 2298 2222 2069 1924 1814 1701 1756 1923 1968 1899 1949 1894 1795 1910 2022 2058 2036 1913 1766 1691 1755 1840 1901 1899 1808 1779 1609 1741 1806 1928 2014 2014 1916 1791 1801 1878 1927 2002 1860 1908 1925 1825 1926 1916 1739 1718 1705 1688 1650 1643 1644 1642 1657 1667 1740 1737 1830 1866 1858 1840 1853 1892 1924 1955 1877 2018 2050 2120 2151 2294 2483 2568 2780 2815 3031 2926 2833 2746 2705 2752 2580 2469 2226 2447 2444 2172 2273 2355 2269 2241 2239 2256 2283 2345 2397 2483 2544 2522 2629 2654 2648 2675 2748 2789 2785 2792 2840 3000 3207 3198 3225 3268 3130 3181 3173 3046 3196 3206 3331 3445 3597 -9999 -9999 -9999 -9999 -9999 -9999 -9999 -9999 -9999 -9999 -9999 -9999 -9999 -9999 -9999 -9999 -9999 -9999 -9999 -9999 -9999 -9999 -9999 -9999 -9999 -9999 -9999 -9999 -9999 -9999 -9999 -9999 -9999 -9999 -9999 -9999 -9999 -9999 -9999 -9999 -9999 -9999 -9999 -9999 -9999 -9999 -9999 -9999 -9999 -9999 -9999 -9999 -9999 -9999 -9999 -9999 -9999 -9999 -9999 -9999 -9999 -9999 -9999 -9999 -9999 -9999 -9999 -9999 -9999 -9999 -9999 -9999 -9999 -9999 -9999 -9999 -9999 -9999 -9999 -9999 -9999 -9999 -9999 -9999 -9999 -9999 -9999 -9999 -9999 -9999 -9999 -9999 -9999 -9999
-9999 2264 1941 1830 1699 1534 1554 1341 1255 1179 1241 1077 1065 1119 999 1211 1327 1613 1863 2000 1824 1519 1687 2040 1861 1876 1968 2159 2259 2176 2205 1904 1895 1856 1762 1468 1352 1190 1245 1025 1213 1270 1350 1465 1399 1626 1622 1613 1383 1120 948 890 1104 1179 1360 1502 1486 1750 1708 1618 1484 1599 1799 1997 2141 2313 2627 2977 3106 3138 3323 3059 2874 2815 2617 2456 2542 2895 2966 2824 3099 3260 3303 3569 3417 3257 3185 3137 3210 3281 3564 3265 2988 2713 2633 2492 2570 2381 2242 2040 1996 1953 2190 2326 2506 2558 2576 2552 2450 2567 2816 3022 3279 2951 2529 2471 2380 2129 1825 1755 1906 2390 2573 2422 2328 2246 2162 1760 1757 2064 2163 1968 1805 1608 1916 1899 1750 1676 1577 1628 1753 1663 1696 1826 1939 1974 2045 2102 2112 2115 2072 2001 1893 1685 1700 1817 1894 1838 1893 1771 1802 1881 1965 2003 1851 1900 1684 1689 1765 1834 1901 1955 1804 1694 1587 1684 1769 1916 1980 1878 1848 1703 1665 1692 1730 1822 1743 1778 1763 1720 1748 1696 1634 1625 1619 1619 1629 1642 1672 1688 1719 1745 1783 1808 1797 1863 1868 1891 1935 2009 2028 1945 2010 1915 2010 2210 2370 2448 2487 2533 2678 2945 3110 3099 3026 2893 2799 2821 2596 2437 2293 2570 2566 2266 2300 2585 2507 2558 2494 2513 2558 2527 2675 2814 2695 2582 2690 2809 3028 3031 2985 3084 3199 3132 2934 2881 2919 2928 3092 3042 3214 3445 3377 3281 3250 3437 -9999 -9999 -9999 -9999 -9999 -9999 -9999 -9999 -9999 -9999 -9999 -9999 -9999 -9999 -9999 -9999 -9999 -9999 -9999 -9999 -9999 -9999 -9999 -9999 -9999 -9999 -9999 -9999 -9999 -9999 -9999 -9999 -9999 -9999 -9999 -9999 -9999 -9999 -9999 -9999 -9999 -9999 -9999 -9999 -9999 -9999 -9999 -9999 -9999 -9999 -9999 -9999 -9999 -9999 -9999 -9999 -9999 -9999 -9999 -9999 -9999 -9999 -9999 -9999 -9999 -9999 -9999 -9999 -9999 -9999 -9999 -9999 -9999 -9999 -9999 -9999 -9999 -9999 -9999 -9999 -9999 -9999 -9999 -9999 -9999 -9999 -9999 -9999 -9999 -9999 -9999 -9999 -9999 -9999 -9999 -9999 -9999
2433 2158 1926 1895 1737 1877 1583 1679 1535 1502 1501 1309 1201 1009 1050 1222 1335 1537 1675 1893 1736 1444 1552 1832 1599 1716 1923 2021 1980 1901 1917 1880 1543 1482 1628 1438 1282 1261 1233 984 1207 1352 1366 1235 1179 1306 1355 1324 1198 957 945 1052 1340 1502 1632 1702 1723 1871 2127 1957 1661 1934 1885 2017 2113 2203 2426 2733 2885 3135 3296 3143 3105 3148 2884 2733 2913 3047 3348 3097 3081 3327 3557 3499 3194 3034 2795 2737 2828 2998 3297 3319 3092 3073 2944 2637 2404 2234 2141 1893 1930 2015 2119 2377 2695 3002 2982 2968 2827 2787 2872 2996 2899 2574 2311 2203 2078 1972 1726 1718 1963 2465 2341 2210 2132 2054 1990 1673 1691 2029 2074 1999 1916 1756 1620 1762 1586 1523 1570 1691 1612 1572 1694 1807 1874 1897 1897 1936 1938 1947 1947 1881 1908 1719 1652 1774 1776 1824 1803 1757 1872 1994 1936 1936 1858 1734 1668 1760 1770 1819 2007 2000 1810 1673 1581 1641 1739 1875 1883 1741 1694 1579 1578 1577 1576 1598 1609 1600 1598 1598 1602 1607 1616 1622 1637 1649 1700 1708 1723 1741 1768 1772 1799 1831 1852 1875 1912 1985 2013 2053 2086 2045 2122 2152 2049 2012 2213 2313 2351 2449 2526 2612 2678 2731 2989 2832 2729 2718 2606 2493 2549 2640 2523 2265 2500 2687 2753 2806 2681 2868 2793 2676 2952 3149 3030 3038 2778 2852 2939 3065 3309 3357 3533 3420 3069 3037 3106 3030 3179 3122 3203 3382 -9999 -9999 -9999 -9999 -9999 -9999 -9999 -9999 -9999 -9999 -9999 -9999 -9999 -9999 -9999 -9999 -9999 -9999 -9999 -9999 -9999 -9999 -9999 -9999 -9999 -9999 -9999 -9999 -9999 -9999 -9999 -9999 -9999 -9999 -9999 -9999 -9999 -9999 -9999 -9999 -9999 -9999 -9999 -9999 -9999 -9999 -9999 -9999 -9999 -9999 -9999 -9999 -9999 -9999 -9999 -9999 -9999 -9999 -9999 -9999 -9999 -9999 -9999 -9999 -9999 -9999 -9999 -9999 -9999 -9999 -9999 -9999 -9999 -9999 -9999 -9999 -9999 -9999 -9999 -9999 -9999 -9999 -9999 -9999 -9999 -9999 -9999 -9999 -9999 -9999 -9999 -9999 -9999 -9999 -9999 -9999 -9999 -9999 -9999 -9999 -9999
2559 2450 2192 2085 2034 1899 1897 1967 1903 1673 1521 1250 1117 944 1158 1317 1258 1315 1464 1633 1718 1445 1321 1485 1440 1556 1661 1754 1900 1773 1751 1759 1451 1340 1361 1423 1320 1147 1091 955 1075 1171 1112 1062 1014 964 958 929 899 983 1269 1337 1401 1611 1842 1971 2044 2297 2410 2253 2088 1881 2155 2406 2501 2595 2599 2697 2771 3106 3379 3202 3269 3250 3015 2999 3100 3231 3456 3404 3540 3506 3280 3078 2897 2862 2555 2399 2734 2979 3303 3350 3321 3132 3057 2807 2372 2057 1925 1814 1775 2089 2259 2504 3000 3316 3372 3412 3330 3332 3370 3330 2920 2592 2361 2263 2072 1925 1750 1602 1860 2346 2155 2052 2025 1969 1892 1583 1728 1910 2001 1985 1933 1823 1666 1565 1620 1665 1658 1575 1529 1573 1675 1720 1699 1761 1770 1786 1788 1814 1818 1840 1784 1741 1667 1664 1772 1688 1683 1784 1920 1957 1810 1810 1736 1654 1691 1709 1775 1900 2001 1912 1742 1644 1565 1628 1732 1878 1743 1617 1582 1565 1635 1670 1673 1590 1597 1603 1608 1619 1669 1728 1760 1757 1691 1698 1728 1741 1770 1793 1818 1827 1830 1860 1892 1919 1916 2043 2138 2134 2177 2199 2100 2319 2362 2150 2041 2154 2286 2308 2299 2434 2609 2746 3068 3005 2952 2996 2835 2626 2730 2552 2434 2375 2535 2692 2781 3027 3015 3096 3076 2965 3001 3283 3368 3249 2965 3225 3097 2998 3228 3516 3550 3373 3083 3199 3384 3251 3230 3283 3330 3461 -9999 -9999 -9999 -9999 -9999 -9999 -9999 -9999 -9999 -9999 -9999 -9999 -9999 -9999 -9999 -9999 -9999 -9999 -9999 -9999 -9999 -9999 -9999 -9999 -9999 -9999 -9999 -9999 -9999 -9999 -9999 -9999 -9999 -9999 -9999 -9999 -9999 -9999 -9999 -9999 -9999 -9999 -9999 -9999 -9999 -9999 -9999 -9999 -9999 -9999 -9999 -9999 -9999 -9999 -9999 -9999 -9999 -9999 -9999 -9999 -9999 -9999 -9999 -9999 -9999 -9999 -9999 -9999 -9999 -9999 -9999 -9999 -9999 -9999 -9999 -9999 -9999 -9999 -9999 -9999 -9999 -9999 -9999 -9999 -9999 -9999 -9999 -9999 -9999 -9999 -9999 -9999 -9999 -9999 -9999 -9999 -9999 -9999 -9999 -9999 -9999
-9999 -9999 2303 2266 2225 2097 2062 1981 1848 1530 1334 1307 1170 944 1044 1176 1115 1275 1309 1585 1697 1462 1322 1312 1404 1498 1786 1683 1813 1737 1672 1650 1375 1300 1257 1348 1371 1221 1146 970 1079 1129 1065 965 890 893 895 918 991 1157 1398 1471 1590 1785 2059 2154 2156 2211 2317 2369 2147 1970 2203 2552 2691 2830 2822 2821 2843 3201 3492 3396 3407 3172 3062 3113 3345 3422 3259 3240 3325 3323 3331 3110 2739 2680 2510 2347 2777 2947 3051 3118 3187 2884 2775 2574 2460 2071 1943 1765 1842 2080 2311 2594 2956 3282 3214 3235 3240 3306 3375 3348 3202 2880 2574 2464 2231 2034 1773 1550 1717 2223 2056 1949 1950 1937 1891 1596 1588 1910 2003 1951 1915 1812 1689 1478 1687 1727 1675 1558 1530 1565 1624 1645 1639 1681 1722 1722 1741 1778 1767 1787 1733 1767 1683 1639 1746 1655 1702 1800 1937 1908 1793 1734 1743 1633 1726 1723 1815 1940 2005 1882 1726 1649 1560 1649 1765 1786 1662 1570 1567 1559 1663 1666 1685 1671 1640 1643 1666 1762 1826 1858 1784 1760 1706 1721 1740 1757 1791 1821 1847 1859 1859 1886 1925 1987 1996 1969 2109 2201 2257 2341 2186 2309 2416 2306 2163 2076 2140 2177 2279 2519 2572 2680 2914 2983 3077 3080 2878 2623 2630 2472 2496 2405 2421 2616 2673 2912 3030 3159 3236 3141 3174 3288 3455 3288 3053 3271 3254 3113 3170 3419 3619 3479 3145 3201 3468 3381 3231 3395 3334 -9999 -9999 -9999 -9999 -9999 -9999 -9999 -9999 -9999 -9999 -9999 -9999 -9999 -9999 -9999 -9999 -9999 -9999 -9999 -9999 -9999 -9999 -9999 -9999 -9999 -9999 -9999 -9999 -9999 -9999 -9999 -9999 -9999 -9999 -9999 -9999 -9999 -9999 -9999 -9999 -9999 -9999 -9999 -9999 -9999 -9999 -9999 -9999 -9999 -9999 -9999 -9999 -9999 -9999 -9999 -9999 -9999 -9999 -9999 -9999 -9999 -9999 -9999 -9999 -9999 -9999 -9999 -9999 -9999 -9999 -9999 -9999 -9999 -9999 -9999 -9999 -9999 -9999 -9999 -9999 -9999 -9999 -9999 -9999 -9999 -9999 -9999 -9999 -9999 -9999 -9999 -9999 -9999 -9999 -9999 -9999 -9999 -9999 -9999 -9999 -9999 -9999
-9999 -9999 -9999 -9999 2137 2093 2075 1975 1870 1584 1264 1184 1148 1207 972 915 954 1036 1172 1477 1598 1470 1176 1316 1483 1606 1652 1562 1478 1487 1409 1456 1346 1252 1189 1315 1340 1256 1192 1006 956 964 937 877 942 987 991 1051 1328 1475 1632 1679 1640 1655 1751 1750 1662 1831 2120 2263 2440 2411 2370 2605 2704 2958 3256 3193 3138 3320 3259 3218 3242 3348 3330 3349 3326 3030 2806 2823 2874 2831 2825 3010 2874 2716 2152 2157 2577 2713 2740 2696 2870 2752 2520 2245 2064 1902 1790 2028 2368 2431 2575 2999 3195 2967 2791 2786 2909 2851 3044 2966 2810 2744 2551 2467 2518 2166 1929 1576 1491 1758 1902 1803 1814 1890 1886 1625 1519 1907 1891 1830 1781 1757 1724 1483 1546 1570 1519 1486 1491 1490 1501 1523 1534 1546 1586 1630 1646 1666 1701 1697 1700 1793 1795 1626 1644 1697 1771 1873 1852 1777 1640 1626 1604 1691 1774 1786 1896 1982 1878 1807 1698 1601 1550 1630 1707 1625 1562 1558 1553 1632 1703 1774 1725 1749 1892 1922 1936 1903 1826 1766 1748 1750 1746 1751 1775 1790 1829 1869 1909 1923 1930 1963 2014 2102 2128 2128 2065 2283 2357 2422 2493 2265 2267 2449 2528 2223 2312 2429 2351 2329 2416 2514 2704 2847 3126 3125 2851 2655 2596 2746 2686 2558 2722 2642 2631 2689 2883 3021 3119 3237 3304 3504 3600 3475 3186 3473 3509 3348 3319 3529 3616 3470 3296 3180 3439 3541 3332 3528 3408 -9999 -9999 -9999 -9999 -9999 -9999 -9999 -9999 -9999 -9999 -9999 -9999 -9999 -9999 -9999 -9999 -9999 -9999 -9999 -9999 -9999 -9999 -9999 -9999 -9999 -9999 -9999 -9999 -9999 -9999 -9999 -9999 -9999 -9999 -9999 -9999 -9999 -9999 -9999 -9999 -9999 -9999 -9999 -9999 -9999 -9999 -9999 -9999 -9999 -9999 -9999 -9999 -9999 -9999 -9999 -9999 -9999 -9999 -9999 -9999 -9999 -9999 -9999 -9999 -9999 -9999 -9999 -9999 -9999 -9999 -9999 -9999 -9999 -9999 -9999 -9999 -9999 -9999 -9999 -9999 -9999 -9999 -9999 -9999 -9999 -9999 -9999 -9999 -9999 -9999 -9999 -9999 -9999 -9999 -9999 -9999 -9999 -9999 -9999 -9999 -9999 -9999
-9999 -9999 -9999 -9999 -9999 2212 2015 2021 1971 1804 1713 1547 1473 1369 1245 1049 900 1134 1297 1532 1484 1352 1157 1233 1393 1415 1446 1374 1242 1325 1246 1307 1340 1251 1092 1178 1181 1124 1074 990 930 904 896 957 1026 1124 1201 1169 1052 1221 1259 1243 1221 1257 1379 1378 1684 1981 2217 2264 2441 2648 2642 2815 2959 3193 3266 3311 3326 3342 3146 2889 2798 3077 3355 3332 3277 3172 2892 2562 2384 2394 2425 2667 2558 2427 2183 2052 2361 2384 2372 2464 2722 2473 2418 2049 1736 1969 2151 2357 2710 2908 3025 3237 3057 2752 2476 2474 2585 2482 2650 2687 2537 2238 2295 2260 1995 1916 1929 1746 1664 1428 1678 1556 1489 1463 1408 1479 1516 1535 1553 1547 1478 1431 1421 1414 1422 1429 1444 1462 1467 1473 1478 1484 1499 1509 1525 1551 1575 1610 1653 1599 1670 1729 1786 1668 1582 1726 1771 1775 1717 1583 1681 1738 1793 1860 1865 1883 1895 1832 1772 1733 1645 1571 1541 1623 1672 1557 1545 1543 1583 1724 1824 1859 1863 1780 1747 1790 1794 1792 1794 1791 1799 1794 1786 1792 1819 1836 1884 1910 1970 1997 2038 2158 2170 2259 2276 2339 2298 2151 2151 2385 2515 2515 2467 2435 2644 2499 2332 2289 2418 2599 2616 2719 2726 2802 2950 3105 2877 2695 2813 2816 2775 2675 2882 2969 2951 3088 2928 3019 3014 3063 3198 3389 3512 3503 3303 3454 3623 3514 3425 3700 3643 3520 3425 3255 3470 3625 3417 3581 3537 -9999 -9999 -9999 -9999 -9999 -9999 -9999 -9999 -9999 -9999 -9999 -9999 -9999 -9999 -9999 -9999 -9999 -9999 -9999 -9999 -9999 -9999 -9999 -9999 -9999 -9999 -9999 -9999 -9999 -9999 -9999 -9999 -9999 -9999 -9999 -9999 -9999 -9999 -9999 -9999 -9999 -9999 -9999 -9999 -9999 -9999 -9999 -9999 -9999 -9999 -9999 -9999 -9999 -9999 -9999 -9999 -9999 -9999 -9999 -9999 -9999 -9999 -9999 -9999 -9999 -9999 -9999 -9999 -9999 -9999 -9999 -9999 -9999 -9999 -9999 -9999 -9999 -9999 -9999 -9999 -9999 -9999 -9999 -9999 -9999 -9999 -9999 -9999 -9999 -9999 -9999 -9999 -9999 -9999 -9999 -9999 -9999 -9999 -9999 -9999 -9999 -9999
-9999 -9999 -9999 -9999 -9999 2055 2145 2027 1887 1730 1463 1304 1240 1137 1037 995 886 1002 1286 1415 1387 1210 1066 1205 1278 1272 1416 1340 1214 1150 1140 1197 1267 1249 1081 1065 1044 965 944 880 872 905 968 1012 1138 1414 1511 1578 1428 1241 1198 1182 1410 1504 1376 1340 1389 1547 1680 1755 1869 2139 2303 2544 2703 2673 2819 3146 3376 3265 3036 2755 2600 2780 2901 2799 2923 3185 2836 2576 2318 2191 2051 2266 2397 2294 1972 1883 1999 2136 2418 2532 2395 2150 1980 1723 2034 2303 2376 2535 2792 2977 3047 3026 2796 2797 2494 2288 2081 2160 2213 2294 2243 2133 1956 1961 1930 1591 1604 1546 1591 1380 1371 1550 1673 1775 1731 1432 1427 1399 1390 1367 1368 1369 1380 1388 1388 1392 1398 1395 1399 1401 1408 1420 1447 1475 1496 1510 1528 1596 1586 1618 1754 1837 1832 1765 1646 1635 1740 1712 1560 1675 1821 1878 1911 1817 1790 1776 1757 1740 1716 1686 1641 1563 1545 1562 1573 1532 1594 1692 1732 1873 1975 1924 1876 1828 1800 1779 1784 1813 1834 1836 1850 1845 1867 1900 1920 1997 2155 2091 2161 2215 2164 2273 2398 2501 2546 2567 2372 2435 2334 2258 2582 2750 2616 2623 2702 2586 2563 2563 2502 2484 2681 2820 3093 3145 3076 3148 2996 2840 2969 3126 3074 2949 2822 3012 3090 3180 3076 3221 3198 3153 3336 3290 3390 3626 3513 3450 3709 3627 3544 3618 3820 3722 3512 3340 3499 3635 3845 -9999 -9999 -9999 -9999 -9999 -9999 -9999 -9999 -9999 -9999 -9999 -9999 -9999 -9999 -9999 -9999 -9999 -9999 -9999 -9999 -9999 -9999 -9999 -9999 -9999 -9999 -9999 -9999 -9999 -9999 -9999 -9999 -9999 -9999 -9999 -9999 -9999 -9999 -9999 -9999 -9999 -9999 -9999 -9999 -9999 -9999 -9999 -9999 -9999 -9999 -9999 -9999 -9999 -9999 -9999 -9999 -9999 -9999 -9999 -9999 -9999 -9999 -9999 -9999 -9999 -9999 -9999 -9999 -9999 -9999 -9999 -9999 -9999 -9999 -9999 -9999 -9999 -9999 -9999 -9999 -9999 -9999 -9999 -9999 -9999 -9999 -9999 -9999 -9999 -9999 -9999 -9999 -9999 -9999 -9999 -9999 -9999 -9999 -9999 -9999 -9999 -9999 -9999 -9999
-9999 -9999 -9999 -9999 -9999 1847 1766 1805 1694 1637 1548 1521 1514 1381 1201 998 920 898 1118 1217 1109 1089 1011 1097 1206 1271 1362 1274 1255 1188 1056 1185 1168 1099 1012 954 937 896 877 867 908 985 1008 1208 1339 1371 1459 1567 1680 1529 1431 1388 1316 1519 1748 1702 1595 1502 1555 1638 1717 1811 1961 2181 2232 2507 2849 3146 3311 3243 2960 2710 2557 2288 2264 2348 2654 3176 2885 2594 2455 2474 2148 1836 1977 1887 1685 1891 2235 2447 2378 2105 1769 1845 1920 2203 2487 2684 2654 2367 2345 2550 2748 2623 2520 2441 2404 2289 2080 1808 1808 1848 1847 1783 1752 1769 1699 1539 1383 1447 1517 1655 1761 1827 1959 2192 1991 1814 1739 1612 1483 1449 1476 1408 1378 1384 1384 1385 1391 1388 1392 1393 1396 1402 1404 1406 1450 1483 1514 1555 1605 1705 1840 1871 1880 1827 1677 1566 1699 1657 1606 1721 1760 1767 1737 1682 1710 1696 1673 1698 1683 1649 1620 1550 1540 1536 1537 1556 1656 1714 1757 1837 1902 1960 1937 1908 1892 1849 1840 1837 1869 1895 1931 1970 2085 2103 2119 2044 2296 2303 2276 2423 2293 2326 2590 2788 2871 2660 2552 2502 2442 2351 2619 2869 2747 2772 2964 2908 2882 2712 2719 2703 2664 2739 3111 -9999 -9999 -9999 -9999 2996 3119 3301 3303 3072 2954 3111 3199 3243 3262 3328 3382 3355 3409 3502 3512 3554 3596 3597 3690 -9999 -9999 -9999 -9999 3734 3622 3438 3622 3794 -9999 -9999 -9999 -9999 -9999 -9999 -9999 -9999 -9999 -9999 -9999 -9999 -9999 -9999 -9999 -9999 -9999 -9999 -9999 -9999 -9999 -9999 -9999 -9999 -9999 -9999 -9999 -9999 -9999 -9999 -9999 -9999 -9999 -9999 -9999 -9999 -9999 -9999 -9999 -9999 -9999 -9999 -9999 -9999 -9999 -9999 -9999 -9999 -9999 -9999 -9999 -9999 -9999 -9999 -9999 -9999 -9999 -9999 -9999 -9999 -9999 -9999 -9999 -9999 -9999 -9999 -9999 -9999 -9999 -9999 -9999 -9999 -9999 -9999 -9999 -9999 -9999 -9999 -9999 -9999 -9999 -9999 -9999 -9999 -9999 -9999 -9999 -9999 -9999 -9999 -9999 -9999 -9999 -9999 -9999 -9999 -9999 -9999 -9999 -9999 -9999 -9999 -9999 -9999 -9999
-9999 -9999 -9999 -9999 -9999 1817 1640 1682 1621 1563 1451 1428 1399 1431 1255 1031 969 855 1006 1122 1062 962 1049 1177 1240 1289 1318 1265 1267 1207 1052 1112 1088 1047 963 936 900 864 864 886 977 1126 1123 1105 1351 1477 1501 1607 1653 1718 1647 1515 1492 1470 1794 1906 1815 1692 1790 1691 1736 1833 1939 2075 2178 2582 2940 3235 3364 3236 3011 2753 2567 2297 2071 2335 2602 3073 2846 2577 2252 2284 2224 1820 1870 1711 1710 2064 2431 2506 2173 1850 1744 2132 2247 2437 2419 2657 2598 2330 2181 2318 2500 2437 2375 2240 2189 2104 1930 1745 1780 1660 1633 1635 1589 1616 1462 1372 1519 1755 1842 1895 2019 2030 2174 2103 1999 1897 1824 1684 1502 1508 1520 1463 1463 1454 1446 1459 1446 1457 1455 1455 1450 1413 1412 1412 1411 1431 1521 1611 1671 1767 1824 1791 1823 1826 1682 1539 1669 1599 1630 1724 1682 1713 1670 1645 1660 1648 1660 1670 1648 1630 1607 1550 1538 1522 1523 1576 1694 1785 1843 1882 1919 2070 2091 1973 1968 1919 1892 1873 1915 1922 1996 2074 2256 2274 2198 2157 2407 2386 2338 2488 2350 2360 2539 2823 2914 2754 2655 2525 2486 2411 2669 2943 2844 2789 3072 3103 2888 2766 2841 2804 2798 2817 3063 -9999 -9999 -9999 -9999 -9999 -9999 -9999 3332 3170 3102 3210 3308 3308 3373 3364 3496 -9999 -9999 -9999 -9999 -9999 -9999 -9999 -9999 -9999 -9999 -9999 -9999 -9999 3624 3483 3575 3672 -9999 -9999 -9999 -9999 -9999 -9999 -9999 -9999 -9999 -9999 -9999 -9999 -9999 -9999 -9999 -9999 -9999 -9999 -9999 -9999 -9999 -9999 -9999 -9999 -9999 -9999 -9999 -9999 -9999 -9999 -9999 -9999 -9999 -9999 -9999 -9999 -9999 -9999 -9999 -9999 -9999 -9999 -9999 -9999 -9999 -9999 -9999 -9999 -9999 -9999 -9999 -9999 -9999 -9999 -9999 -9999 -9999 -9999 -9999 -9999 -9999 -9999 -9999 -9999 -9999 -9999 -9999 -9999 -9999 -9999 -9999 -9999 -9999 -9999 -9999 -9999 -9999 -9999 -9999 -9999 -9999 -9999 -9999 -9999 -9999 -9999 -9999 -9999 -9999 -9999 -9999 -9999 -9999 -9999 -9999 -9999 -9999 -9999 -9999 -9999 -9999 -9999 -9999 -9999 -9999
-9999 -9999 -9999 -9999 -9999 -9999 1508 1400 1404 1470 1249 1277 1295 1247 1211 1085 1023 875 853 909 937 1012 1076 1167 1282 1336 1323 1226 1163 1155 1148 973 958 922 895 872 863 883 916 1016 1040 1264 1405 1446 1288 1560 1663 1809 1862 1832 1953 1948 1627 1513 1810 1967 2187 2063 2197 2039 1913 2135 2303 2419 2431 2874 3082 2892 2933 3182 3165 2968 2815 2377 2007 2167 2424 2784 2610 2399 2067 1891 1986 1721 1548 1601 1927 2318 2240 2054 1781 1803 2135 2331 2241 2162 2249 2548 2556 2228 1918 1952 2049 2305 2222 1997 1805 1718 1695 1695 1548 1417 1318 1312 1309 1311 1312 1320 1432 1713 1790 1918 2035 2065 2044 1957 1827 1785 1714 1587 1592 1641 1622 1560 1588 1584 1622 1626 1529 1581 1648 1650 1692 1551 1545 1500 1477 1420 1517 1600 1641 1743 1708 1704 1726 1717 1704 1544 1553 1511 1597 1579 1547 1536 1526 1511 1514 1515 1505 1493 1506 1521 1529 1522 1521 1550 1629 1731 1826 1941 2041 1998 2023 2210 2286 2092 2094 2033 2136 2093 2163 2049 2168 2238 2410 2591 2457 2368 2602 2618 2576 2619 2435 2489 2581 2758 2912 2948 2794 2694 2649 2514 2707 3012 3062 2936 3065 3228 3016 3104 3051 3027 3138 3066 3357 -9999 -9999 -9999 -9999 -9999 -9999 -9999 -9999 -9999 3329 3282 3334 3470 3543 3556 -9999 -9999 -9999 -9999 -9999 -9999 -9999 -9999 -9999 -9999 -9999 -9999 -9999 -9999 3683 3617 3803 -9999 -9999 -9999 -9999 -9999 -9999 -9999 -9999 -9999 -9999 -9999 -9999 -9999 -9999 -9999 -9999 -9999 -9999 -9999 -9999 -9999 -9999 -9999 -9999 -9999 -9999 -9999 -9999 -9999 -9999 -9999 -9999 -9999 -9999 -9999 -9999 -9999 -9999 -9999 -9999 -9999 -9999 -9999 -9999 -9999 -9999 -9999 -9999 -9999 -9999 -9999 -9999 -9999 -9999 -9999 -9999 -9999 -9999 -9999 -9999 -9999 -9999 -9999 -9999 -9999 -9999 -9999 -9999 -9999 -9999 -9999 -9999 -9999 -9999 -9999 -9999 -9999 -9999 -9999 -9999 -9999 -9999 -9999 -9999 -9999 -9999 -9999 -9999 -9999 -9999 -9999 -9999 -9999 -9999 -9999 -9999 -9999 -9999 -9999 -9999 -9999 -9999 -9999 -9999 -9999 -9999
-9999 -9999 -9999 -9999 -9999 -9999 -9999 1468 1387 1285 1318 1261 1208 1081 1044 1038 1041 896 836 853 903 1013 1064 1118 1241 1296 1381 1293 1273 1226 1091 1060 897 874 863 864 992 1061 1101 1209 1190 1175 1314 1595 1581 1642 1645 1822 2171 2139 2054 2089 1911 1813 1738 1850 2201 2438 2482 2323 2302 2457 2555 2576 2586 2555 2544 2415 2500 2761 2626 2619 2468 2171 1929 2021 2205 2605 2508 2256 1987 1899 1609 1485 1685 1813 2136 2403 2082 1898 1724 2060 2242 2004 1936 2001 2195 2428 2420 2232 1964 1693 1702 1974 2227 2024 1787 1759 1457 1606 1398 1367 1454 1397 1481 1463 1465 1421 1530 1768 1825 1995 2041 1960 1916 1856 1836 1771 1695 1647 1708 1659 1587 1697 1756 1722 1636 1612 1689 1726 1732 1784 1755 1726 1775 1715 1711 1604 1456 1546 1700 1789 1583 1586 1596 1639 1666 1568 1494 1496 1502 1479 1476 1481 1486 1482 1484 1492 1503 1508 1512 1512 1520 1537 1679 1608 1651 1870 2047 2108 2194 2098 2147 2302 2388 2233 2244 2183 2245 2268 2339 2169 2175 2287 2495 2680 2731 2710 2743 2861 2756 2626 2603 2715 2768 2874 2957 3166 3016 2910 2773 2664 2775 2795 2934 3210 3193 3418 3247 3296 3234 3226 -9999 -9999 -9999 -9999 -9999 -9999 -9999 -9999 -9999 -9999 -9999 -9999 -9999 -9999 -9999 -9999 -9999 -9999 -9999 -9999 -9999 -9999 -9999 -9999 -9999 -9999 -9999 -9999 -9999 -9999 -9999 -9999 -9999 -9999 -9999 -9999 -9999 -9999 -9999 -9999 -9999 -9999 -9999 -9999 -9999 -9999 -9999 -9999 -9999 -9999 -9999 -9999 -9999 -9999 -9999 -9999 -9999 -9999 -9999 -9999 -9999 -9999 -9999 -9999 -9999 -9999 -9999 -9999 -9999 -9999 -9999 -9999 -9999 -9999 -9999 -9999 -9999 -9999 -9999 -9999 -9999 -9999 -9999 -9999 -9999 -9999 -9999 -9999 -9999 -9999 -9999 -9999 -9999 -9999 -9999 -9999 -9999 -9999 -9999 -9999 -9999 -9999 -9999 -9999 -9999 -9999 -9999 -9999 -9999 -9999 -9999 -9999 -9999 -9999 -9999 -9999 -9999 -9999 -9999 -9999 -9999 -9999 -9999 -9999 -9999 -9999 -9999 -9999 -9999 -9999 -9999 -9999 -9999 -9999 -9999 -9999 -9999 -9999 -9999 -9999 -9999
-9999 -9999 -9999 -9999 -9999 -9999 -9999 -9999 1440 1329 1160 1193 1183 1207 1164 1144 1051 901 879 826 853 914 991 1073 1142 1196 1337 1250 1142 1125 1098 983 863 863 865 936 1064 1236 1288 1290 1484 1383 1318 1653 1781 1972 2086 2000 2085 2376 2229 2257 2294 2126 2162 2132 2253 2422 2643 2735 2664 2383 2265 2160 2143 2057 2050 2150 2166 2294 2235 2132 2178 2168 1862 1906 2065 2244 2077 1952 1739 1635 1490 1462 1720 1900 1937 2040 1908 1716 1698 2055 2038 1898 1858 1803 1959 2103 2007 2004 2146 1771 1604 1596 1788 1699 1357 1572 1455 1351 1402 1445 1503 1505 1518 1584 1641 1551 1672 1728 1738 1820 1906 1962 1983 2038 2046 1918 1794 1795 1748 1713 1699 1781 1808 1831 1742 1794 1875 1880 1806 1893 1829 1844 1904 1850 1833 1896 1759 1471 1598 1516 1451 1454 1458 1468 1480 1484 1471 1465 1466 1481 1492 1496 1524 1553 1549 1540 1530 1542 1574 1593 1686 1711 1714 1821 1731 1861 2092 2234 2347 2213 2258 2490 2539 2411 2438 2392 2401 2524 2444 2309 2211 2257 2254 2356 2426 2446 2509 2754 2893 2772 2784 2950 3092 3244 3250 3330 3252 2944 2880 2885 2817 2962 2953 3101 3386 -9999 -9999 3363 -9999 -9999 -9999 -9999 -9999 -9999 -9999 -9999 -9999 -9999 -9999 -9999 -9999 -9999 -9999 -9999 -9999 -9999 -9999 -9999 -9999 -9999 -9999 -9999 -9999 -9999 -9999 -9999 -9999 -9999 -9999 -9999 -9999 -9999 -9999 -9999 -9999 -9999 -9999 -9999 -9999 -9999 -9999 -9999 -9999 -9999 -9999 -9999 -9999 -9999 -9999 -9999 -9999 -9999 -9999 -9999 -9999 -9999 -9999 -9999 -9999 -9999 -9999 -9999 -9999 -9999 -9999 -9999 -9999 -9999 -9999 -9999 -9999 -9999 -9999 -9999 -9999 -9999 -9999 -9999 -9999 -9999 -9999 -9999 -9999 -9999 -9999 -9999 -9999 -9999 -9999 -9999 -9999 -9999 -9999 -9999 -9999 -9999 -9999 -9999 -9999 -9999 -9999 -9999 -9999 -9999 -9999 -9999 -9999 -9999 -9999 -9999 -9999 -9999 -9999 -9999 -9999 -9999 -9999 -9999 -9999 -9999 -9999 -9999 -9999 -9999 -9999 -9999 -9999 -9999 -9999 -9999 -9999 -9999 -9999 -9999 -9999 -9999 -9999 -9999 -9999 -9999 -9999
-9999 -9999 -9999 -9999 -9999 -9999 -9999 -9999 -9999 -9999 1238 1104 1122 1138 1106 1087 1045 904 877 816 843 964 1047 1102 1222 1254 1336 1210 1139 1095 1077 920 863 863 905 957 1078 1265 1356 1341 1481 1498 1379 1466 1693 1921 2099 2179 2236 2215 2023 2075 2261 2323 2218 2169 2106 2169 2557 2621 2682 2334 2102 2012 1980 1881 1973 2120 1974 2050 2059 1911 1986 2233 1800 1904 2160 2073 1862 1767 1618 1561 1444 1465 1665 1880 1744 1845 1681 1564 1847 1993 1950 1891 1892 1765 1766 1888 1869 1835 2004 1850 1680 1446 1505 1406 1512 1594 1537 1410 1365 1450 1516 1583 1478 1544 1691 1617 1739 1820 1799 1807 1835 1919 1955 2050 2017 1868 1794 1856 1761 1772 1781 1766 1852 1918 1824 1907 1985 1889 1860 1912 1895 1942 1949 1905 1966 1998 1723 1468 1489 1442 1442 1448 1449 1451 1456 1457 1456 1465 1484 1491 1501 1525 1627 1574 1652 1690 1632 1603 1661 1676 1780 1836 1777 1867 1889 1795 2000 2164 2279 2309 2294 2535 2592 2508 2575 2543 2561 2547 2383 2330 2265 2344 2359 2390 2394 2415 2502 2695 2930 2909 2859 3079 3240 3371 3438 3384 3302 3017 3010 2969 2869 3093 3062 3239 -9999 -9999 -9999 -9999 -9999 -9999 -9999 -9999 -9999 -9999 -9999 -9999 -9999 -9999 -9999 -9999 -9999 -9999 -9999 -9999 -9999 -9999 -9999 -9999 -9999 -9999 -9999 -9999 -9999 -9999 -9999 -9999 -9999 -9999 -9999 -9999 -9999 -9999 -9999 -9999 -9999 -9999 -9999 -9999 -9999 -9999 -9999 -9999 -9999 -9999 -9999 -9999 -9999 -9999 -9999 -9999 -9999 -9999 -9999 -9999 -9999 -9999 -9999 -9999 -9999 -9999 -9999 -9999 -9999 -9999 -9999 -9999 -9999 -9999 -9999 -9999 -9999 -9999 -9999 -9999 -9999 -9999 -9999 -9999 -9999 -9999 -9999 -9999 -9999 -9999 -9999 -9999 -9999 -9999 -9999 -9999 -9999 -9999 -9999 -9999 -9999 -9999 -9999 -9999 -9999 -9999 -9999 -9999 -9999 -9999 -9999 -9999 -9999 -9999 -9999 -9999 -9999 -9999 -9999 -9999 -9999 -9999 -9999 -9999 -9999 -9999 -9999 -9999 -9999 -9999 -9999 -9999 -9999 -9999 -9999 -9999 -9999 -9999 -9999 -9999 -9999 -9999 -9999 -9999 -9999 -9999 -9999
-9999 -9999 -9999 -9999 -9999 -9999 -9999 -9999 -9999 -9999 -9999 -9999 1142 1027 1008 985 957 916 844 842 932 1031 1196 1221 1237 1263 1239 1147 1083 1074 1017 864 863 866 910 963 1087 1217 1334 1487 1528 1748 1811 1793 1713 1794 1976 2213 2232 2039 1797 1810 1917 2206 1925 1733 1666 1961 2112 2093 2091 2259 2096 1747 1597 1626 1947 1758 1605 1577 1616 1647 1760 1834 1784 1710 1850 1669 1571 1546 1414 1390 1402 1461 1432 1449 1469 1515 1663 1804 1988 1869 1807 1878 2039 1954 1600 1599 1594 1610 1555 1548 1518 1293 1327 1478 1520 1542 1615 1621 1496 1420 1627 1719 1639 1547 1606 1728 1724 1831 1885 1915 1952 1928 1942 1999 1897 1866 1898 1906 1895 1911 1911 1910 1964 2006 2003 1972 2123 2056 2039 2079 2075 2146 2211 2155 2047 1923 1640 1468 1537 1526 1527 1505 1470 1457 1460 1465 1470 1510 1580 1695 1756 1751 1757 1629 1756 1760 1813 1719 1785 1824 1811 1951 1998 1951 2081 2027 1924 2247 2337 2456 2438 2630 2768 2707 2782 2817 2688 2537 2489 2602 2428 2563 2703 2527 2601 2593 2579 2749 2936 3072 3161 3200 3372 3584 3629 3615 3376 3145 3251 3220 3162 3146 3300 -9999 -9999 -9999 -9999 -9999 -9999 -9999 -9999 -9999 -9999 -9999 -9999 -9999 -9999 -9999 -9999 -9999 -9999 -9999 -9999 -9999 -9999 -9999 -9999 -9999 -9999 -9999 -9999 -9999 -9999 -9999 -9999 -9999 -9999 -9999 -9999 -9999 -9999 -9999 -9999 -9999 -9999 -9999 -9999 -9999 -9999 -9999 -9999 -9999 -9999 -9999 -9999 -9999 -9999 -9999 -9999 -9999 -9999 -9999 -9999 -9999 -9999 -9999 -9999 -9999 -9999 -9999 -9999 -9999 -9999 -9999 -9999 -9999 -9999 -9999 -9999 -9999 -9999 -9999 -9999 -9999 -9999 -9999 -9999 -9999 -9999 -9999 -9999 -9999 -9999 -9999 -9999 -9999 -9999 -9999 -9999 -9999 -9999 -9999 -9999 -9999 -9999 -9999 -9999 -9999 -9999 -9999 -9999 -9999 -9999 -9999 -9999 -9999 -9999 -9999 -9999 -9999 -9999 -9999 -9999 -9999 -9999 -9999 -9999 -9999 -9999 -9999 -9999 -9999 -9999 -9999 -9999 -9999 -9999 -9999 -9999 -9999 -9999 -9999 -9999 -9999 -9999 -9999 -9999 -9999 -9999 -9999 -9999
-9999 -9999 -9999 -9999 -9999 -9999 -9999 -9999 -9999 -9999 -9999 -9999 1101 1067 1048 1025 945 870 808 867 922 1054 1185 1206 1180 1186 1158 1125 1039 1028 941 863 863 863 901 958 1076 1271 1359 1385 1452 1692 1713 1822 2146 2099 2139 1940 1784 1880 1769 1620 1808 1907 1824 1628 1426 1873 1645 1685 1685 1906 2099 1821 1616 1605 1724 1370 1243 1329 1431 1346 1426 1421 1468 1453 1552 1414 1366 1360 1475 1529 1565 1648 1825 1796 1968 2004 2040 2119 2044 1871 1717 1695 1722 1732 1538 1319 1329 1316 1270 1312 1281 1335 1468 1434 1509 1541 1618 1728 1626 1529 1740 1851 1678 1663 1713 1650 1818 1836 1865 1938 2027 2065 2126 2038 1969 2027 2048 2023 2111 2126 2059 2074 2123 2168 2173 2205 2308 2279 2338 2398 2419 2337 2146 2012 1779 1660 1491 1519 1571 1609 1558 1537 1544 1552 1581 1617 1638 1683 1720 1748 1801 1799 1690 1844 1834 1857 1836 1868 1948 1962 2000 2114 2225 2017 2082 2300 2142 2035 2151 2401 2665 2701 2788 3043 3083 2839 2866 2747 2685 2697 2580 2682 2946 2721 2735 2728 2732 2751 2970 3136 3313 3456 3599 3805 3663 3496 3401 3318 3452 3468 3319 3388 -9999 -9999 -9999 -9999 -9999 -9999 -9999 -9999 -9999 -9999 -9999 -9999 -9999 -9999 -9999 -9999 -9999 -9999 -9999 -9999 -9999 -9999 -9999 -9999 -9999 -9999 -9999 -9999 -9999 -9999 -9999 -9999 -9999 -9999 -9999 -9999 -9999 -9999 -9999 -9999 -9999 -9999 -9999 -9999 -9999 -9999 -9999 -9999 -9999 -9999 -9999 -9999 -9999 -9999 -9999 -9999 -9999 -9999 -9999 -9999 -9999 -9999 -9999 -9999 -9999 -9999 -9999 -9999 -9999 -9999 -9999 -9999 -9999 -9999 -9999 -9999 -9999 -9999 -9999 -9999 -9999 -9999 -9999 -9999 -9999 -9999 -9999 -9999 -9999 -9999 -9999 -9999 -9999 -9999 -9999 -9999 -9999 -9999 -9999 -9999 -9999 -9999 -9999 -9999 -9999 -9999 -9999 -9999 -9999 -9999 -9999 -9999 -9999 -9999 -9999 -9999 -9999 -9999 -9999 -9999 -9999 -9999 -9999 -9999 -9999 -9999 -9999 -9999 -9999 -9999 -9999 -9999 -9999 -9999 -9999 -9999 -9999 -9999 -9999 -9999 -9999 -9999 -9999 -9999 -9999 -9999 -9999 -9999 -9999
-9999 -9999 -9999 -9999 -9999 -9999 -9999 -9999 -9999 -9999 -9999 -9999 1007 964 950 929 876 816 813 892 919 992 1108 1163 1161 1122 1039 1013 927 888 863 863 863 863 863 890 1013 1064 1061 1147 1259 1430 1507 1742 2080 2011 2008 1697 1465 1475 1399 1477 1785 1575 1557 1528 1231 1560 1361 1356 1304 1458 1570 1561 1519 1338 1334 1207 1315 1681 1768 1663 1691 1611 1521 1478 1451 1524 1754 1752 1920 1984 1966 2100 2208 2243 2336 2378 2226 2132 1938 1858 1939 1817 1695 1428 1316 1381 1424 1473 1555 1583 1441 1531 1571 1427 1557 1597 1704 1819 1808 1744 1749 1848 1808 1870 1828 1777 1733 1848 1903 2025 2184 2303 2381 2274 2109 2294 2366 2155 2290 2264 2248 2303 2323 2364 2346 2376 2455 2465 2338 2297 2196 2057 1878 1835 1719 1549 1491 1558 1573 1596 1617 1639 1665 1648 1706 1815 1816 1832 1769 1808 1855 1849 1830 1931 1925 1918 1886 2047 2169 2259 2269 2207 2367 2249 2236 2298 2469 2196 2237 2240 2486 2769 2933 3199 3226 3036 3111 3061 2877 2841 2803 2901 3153 3010 2865 2895 2896 2929 2965 2984 3060 3274 3451 3696 3811 3712 3486 3425 3518 3702 3516 -9999 -9999 -9999 -9999 -9999 -9999 -9999 -9999 -9999 -9999 -9999 -9999 -9999 -9999 -9999 -9999 -9999 -9999 -9999 -9999 -9999 -9999 -9999 -9999 -9999 -9999 -9999 -9999 -9999 -9999 -9999 -9999 -9999 -9999 -9999 -9999 -9999 -9999 -9999 -9999 -9999 -9999 -9999 -9999 -9999 -9999 -9999 -9999 -9999 -9999 -9999 -9999 -9999 -9999 -9999 -9999 -9999 -9999 -9999 -9999 -9999 -9999 -9999 -9999 -9999 -9999 -9999 -9999 -9999 -9999 -9999 -9999 -9999 -9999 -9999 -9999 -9999 -9999 -9999 -9999 -9999 -9999 -9999 -9999 -9999 -9999 -9999 -9999 -9999 -9999 -9999 -9999 -9999 -9999 -9999 -9999 -9999 -9999 -9999 -9999 -9999 -9999 -9999 -9999 -9999 -9999 -9999 -9999 -9999 -9999 -9999 -9999 -9999 -9999 -9999 -9999 -9999 -9999 -9999 -9999 -9999 -9999 -9999 -9999 -9999 -9999 -9999 -9999 -9999 -9999 -9999 -9999 -9999 -9999 -9999 -9999 -9999 -9999 -9999 -9999 -9999 -9999 -9999 -9999 -9999 -9999 -9999 -9999 -9999 -9999
-9999 -9999 -9999 -9999 -9999 -9999 -9999 -9999 -9999 -9999 -9999 -9999 962 953 896 874 851 770 832 883 897 959 1034 1125 1094 1070 1060 945 868 864 863 863 863 863 863 864 925 1017 1084 1194 1275 1534 1653 1856 1970 1816 1879 1749 1512 1332 1366 1538 1656 1449 1344 1331 1172 1410 1260 1205 1193 1251 1259 1233 1246 1182 1241 1435 1527 1654 1913 1849 1867 1857 1635 1584 1665 1700 1925 1964 2172 2218 2181 2342 2440 2453 2286 2280 2126 2031 1846 1959 1971 1744 1629 1413 1290 1433 1597 1634 1768 1557 1473 1553 1599 1479 1524 1591 1679 1843 1829 1803 1866 1901 1877 1924 1894 1835 1798 1862 1969 2127 2334 2393 2425 2288 2266 2324 2463 2242 2442 2355 2360 2492 2461 2513 2501 2447 2388 2339 2171 2117 2027 1933 1782 1738 1639 1506 1544 1566 1597 1643 1661 1644 1702 1746 1773 1777 1815 1852 1818 1838 1882 1887 1803 1973 1948 1970 1941 2104 2275 2361 2414 2346 2458 2408 2386 2303 2531 2362 2291 2376 2427 2728 2857 3155 3316 3149 3215 3241 3011 2968 2942 3042 3254 3108 2945 2963 2977 3028 3051 3043 3065 3153 3329 3592 3767 3668 3525 3521 3687 -9999 -9999 -9999 -9999 -9999 -9999 -9999 -9999 -9999 -9999 -9999 -9999 -9999 -9999 -9999 -9999 -9999 -9999 -9999 -9999 -9999 -9999 -9999 -9999 -9999 -9999 -9999 -9999 -9999 -9999 -9999 -9999 -9999 -9999 -9999 -9999 -9999 -9999 -9999 -9999 -9999 -9999 -9999 -9999 -9999 -9999 -9999 -9999 -9999 -9999 -9999 -9999 -9999 -9999 -9999 -9999 -9999 -9999 -9999 -9999 -9999 -9999 -9999 -9999 -9999 -9999 -9999 -9999 -9999 -9999 -9999 -9999 -9999 -9999 -9999 -9999 -9999 -9999 -9999 -9999 -9999 -9999 -9999 -9999 -9999 -9999 -9999 -9999 -9999 -9999 -9999 -9999 -9999 -9999 -9999 -9999 -9999 -9999 -9999 -9999 -9999 -9999 -9999 -9999 -9999 -9999 -9999 -9999 -9999 -9999 -9999 -9999 -9999 -9999 -9999 -9999 -9999 -9999 -9999 -9999 -9999 -9999 -9999 -9999 -9999 -9999 -9999 -9999 -9999 -9999 -9999 -9999 -9999 -9999 -9999 -9999 -9999 -9999 -9999 -9999 -9999 -9999 -9999 -9999 -9999 -9999 -9999 -9999 -9999 -9999 -9999 -9999
-9999 -9999 -9999 -9999 -9999 -9999 -9999 -9999 -9999 -9999 -9999 -9999 874 840 814 796 787 764 789 819 859 956 1056 1053 933 899 866 863 863 863 863 863 863 863 863 863 870 991 1037 1138 1298 1641 1774 1810 1760 1516 1547 1736 1628 1375 1225 1222 1178 1068 1075 1128 1157 1219 1470 1438 1392 1442 1391 1487 1604 1531 1708 1857 1861 1781 2038 2214 2115 1982 1872 1861 1964 2156 2256 2406 2414 2379 2426 2307 2394 2445 2006 1831 1933 1840 1648 1910 1990 1672 1527 1287 1494 1658 1815 1859 1717 1553 1580 1746 1733 1619 1583 1559 1625 1703 1788 1824 1887 1969 2005 2009 2023 1977 1933 1924 1926 2097 2372 2533 2554 2331 2467 2542 2589 2540 2491 2578 2671 2809 2807 2759 2478 2386 2192 2077 2026 1989 1885 1841 1704 1693 1550 1521 1616 1665 1625 1713 1754 1721 1737 1802 1825 1869 1857 1881 1898 1902 1927 1967 1870 1908 2045 2041 2096 2152 2274 2314 2423 2533 2710 2711 2655 2462 2542 2671 2528 2646 2594 2607 2750 2959 3208 3437 3425 3421 3234 3155 3191 3239 3478 3192 3151 3073 3125 3189 3232 3188 3186 3324 3276 3426 3517 -9999 3695 -9999 -9999 -9999 -9999 -9999 -9999 -9999 -9999 -9999 -9999 -9999 -9999 -9999 -9999 -9999 -9999 -9999 -9999 -9999 -9999 -9999 -9999 -9999 -9999 -9999 -9999 -9999 -9999 -9999 -9999 -9999 -9999 -9999 -9999 -9999 -9999 -9999 -9999 -9999 -9999 -9999 -9999 -9999 -9999 -9999 -9999 -9999 -9999 -9999 -9999 -9999 -9999 -9999 -9999 -9999 -9999 -9999 -9999 -9999 -9999 -9999 -9999 -9999 -9999 -9999 -9999 -9999 -9999 -9999 -9999 -9999 -9999 -9999 -9999 -9999 -9999 -9999 -9999 -9999 -9999 -9999 -9999 -9999 -9999 -9999 -9999 -9999 -9999 -9999 -9999 -9999 -9999 -9999 -9999 -9999 -9999 -9999 -9999 -9999 -9999 -9999 -9999 -9999 -9999 -9999 -9999 -9999 -9999 -9999 -9999 -9999 -9999 -9999 -9999 -9999 -9999 -9999 -9999 -9999 -9999 -9999 -9999 -9999 -9999 -9999 -9999 -9999 -9999 -9999 -9999 -9999 -9999 -9999 -9999 -9999 -9999 -9999 -9999 -9999 -9999 -9999 -9999 -9999 -9999 -9999 -9999 -9999 -9999 -9999 -9999 -9999 -9999 -9999 -9999
-9999 -9999 -9999 -9999 -9999 -9999 -9999 -9999 -9999 -9999 -9999 -9999 -9999 780 772 772 769 746 753 769 757 841 879 927 876 863 863 863 863 863 863 863 871 884 879 869 863 905 958 1071 1186 1330 1419 1536 1621 1311 1410 1425 1309 1238 1035 1002 1159 1350 1419 1578 1435 1523 1821 1962 1858 1972 1986 1997 1995 2003 1943 2154 2028 2184 2057 2171 2236 2391 2177 2136 2228 2378 2128 1976 1949 1886 1895 1828 1890 1906 1792 1541 1679 1506 1602 1576 1660 1471 1329 1325 1603 1970 2018 1917 1699 1753 1840 1944 2110 1920 1709 1653 1810 1870 1854 1859 1979 2127 2203 2189 2222 2164 2065 2089 2108 2114 2166 2394 2532 2535 2708 2693 2711 2800 2735 2879 2897 2862 2794 2675 2490 2488 2409 2164 2016 1924 1810 1722 1679 1627 1536 1628 1719 1759 1797 1733 1749 1759 1774 1858 1908 1906 1922 1913 1944 1989 1944 2048 2033 2035 1943 1973 2130 2356 2560 2657 2676 2777 2788 2884 2734 2734 2870 2853 2718 2618 2885 2764 2690 2888 3067 3365 3493 3567 3380 3348 3369 3357 3566 3405 3194 3189 3258 3351 3323 3276 3449 3330 3470 3425 -9999 -9999 -9999 -9999 -9999 -9999 -9999 -9999 -9999 -9999 -9999 -9999 -9999 -9999 -9999 -9999 -9999 -9999 -9999 -9999 -9999 -9999 -9999 -9999 -9999 -9999 -9999 -9999 -9999 -9999 -9999 -9999 -9999 -9999 -9999 -9999 -9999 -9999 -9999 -9999 -9999 -9999 -9999 -9999 -9999 -9999 -9999 -9999 -9999 -9999 -9999 -9999 -9999 -9999 -9999 -9999 -9999 -9999 -9999 -9999 -9999 -9999 -9999 -9999 -9999 -9999 -9999 -9999 -9999 -9999 -9999 -9999 -9999 -9999 -9999 -9999 -9999 -9999 -9999 -9999 -9999 -9999 -9999 -9999 -9999 -9999 -9999 -9999 -9999 -9999 -9999 -9999 -9999 -9999 -9999 -9999 -9999 -9999 -9999 -9999 -9999 -9999 -9999 -9999 -9999 -9999 -9999 -9999 -9999 -9999 -9999 -9999 -9999 -9999 -9999 -9999 -9999 -9999 -9999 -9999 -9999 -9999 -9999 -9999 -9999 -9999 -9999 -9999 -9999 -9999 -9999 -9999 -9999 -9999 -9999 -9999 -9999 -9999 -9999 -9999 -9999 -9999 -9999 -9999 -9999 -9999 -9999 -9999 -9999 -9999 -9999 -9999 -9999 -9999 -9999 -9999 -9999
-9999 -9999 -9999 -9999 -9999 -9999 -9999 -9999 -9999 -9999 -9999 -9999 -9999 757 787 843 838 788 821 873 887 976 869 863 863 863 863 863 863 863 863 868 896 916 924 869 863 864 879 937 1007 1112 1131 1229 1303 1160 1131 1150 1009 1098 1305 1433 1304 1574 1832 2041 2106 2346 2420 2432 2248 2404 2403 2531 2539 2294 2175 2275 2245 2317 2157 2197 2280 2521 2573 2481 2504 2279 2084 1800 1631 1652 1552 1576 1498 1529 1432 1329 1259 1238 1229 1432 1331 1305 1389 1587 1736 1819 1822 1851 1809 2029 1981 2100 2359 2085 1876 1797 1877 2160 2105 2034 2072 2222 2466 2560 2551 2491 2339 2419 2450 2398 2375 2363 2373 2595 2738 2899 2944 2907 3010 2905 2748 2601 2453 2542 2546 2512 2361 2202 2092 2030 2025 1942 1663 1557 1700 1631 1776 1878 1896 1888 1829 1881 1848 1897 1929 1986 1971 1977 2028 2107 2103 2027 2125 2216 2264 2240 2096 2182 2414 2486 2749 2899 2951 3058 2973 2856 3012 2852 2872 2799 2946 3000 2976 3027 3246 3391 3537 3670 3574 3535 3582 3513 3588 3499 3362 3339 3391 3583 3384 3374 3542 3570 3600 -9999 -9999 -9999 -9999 -9999 -9999 -9999 -9999 -9999 -9999 -9999 -9999 -9999 -9999 -9999 -9999 -9999 -9999 -9999 -9999 -9999 -9999 -9999 -9999 -9999 -9999 -9999 -9999 -9999 -9999 -9999 -9999 -9999 -9999 -9999 -9999 -9999 -9999 -9999 -9999 -9999 -9999 -9999 -9999 -9999 -9999 -9999 -9999 -9999 -9999 -9999 -9999 -9999 -9999 -9999 -9999 -9999 -9999 -9999 -9999 -9999 -9999 -9999 -9999 -9999 -9999 -9999 -9999 -9999 -9999 -9999 -9999 -9999 -9999 -9999 -9999 -9999 -9999 -9999 -9999 -9999 -9999 -9999 -9999 -9999 -9999 -9999 -9999 -9999 -9999 -9999 -9999 -9999 -9999 -9999 -9999 -9999 -9999 -9999 -9999 -9999 -9999 -9999 -9999 -9999 -9999 -9999 -9999 -9999 -9999 -9999 -9999 -9999 -9999 -9999 -9999 -9999 -9999 -9999 -9999 -9999 -9999 -9999 -9999 -9999 -9999 -9999 -9999 -9999 -9999 -9999 -9999 -9999 -9999 -9999 -9999 -9999 -9999 -9999 -9999 -9999 -9999 -9999 -9999 -9999 -9999 -9999 -9999 -9999 -9999 -9999 -9999 -9999 -9999 -9999 -9999 -9999 -9999
-9999 -9999 -9999 -9999 -9999 -9999 -9999 -9999 -9999 -9999 -9999 -9999 -9999 783 872 991 960 868 859 951 985 1024 956 929 904 879 863 863 863 863 863 872 929 937 937 869 863 863 866 909 962 1038 1047 1082 1115 1079 997 983 1081 1293 1508 1645 1518 1660 1927 2111 2424 2502 2581 2531 2479 2539 2555 2462 2467 2239 2320 2474 2423 2289 2207 2296 2347 2598 2518 2325 2364 2244 1965 1771 1490 1576 1455 1433 1368 1405 1280 1224 1271 1374 1274 1261 1279 1422 1550 1568 1633 1732 1795 1868 1936 2193 2158 2151 2381 2124 2061 1894 1915 2265 2274 2210 2155 2371 2539 2683 2728 2673 2529 2503 2617 2586 2509 2516 2477 2544 2730 2991 3065 3012 3065 2887 2773 2514 2371 2349 2352 2304 2204 2096 2149 2146 2112 1852 1590 1597 1802 1745 1703 1855 1910 1927 1875 1946 1912 1980 1965 2008 2009 2071 2123 2127 2197 2093 2162 2227 2369 2365 2152 2103 2275 2365 2550 2713 2909 3109 3095 3008 3060 3026 3006 2879 3097 3172 3145 3140 3351 -9999 -9999 -9999 3717 3626 3685 3651 3726 3533 3430 3381 3390 3562 3448 3444 3702 -9999 -9999 -9999 -9999 -9999 -9999 -9999 -9999 -9999 -9999 -9999 -9999 -9999 -9999 -9999 -9999 -9999 -9999 -9999 -9999 -9999 -9999 -9999 -9999 -9999 -9999 -9999 -9999 -9999 -9999 -9999 -9999 -9999 -9999 -9999 -9999 -9999 -9999 -9999 -9999 -9999 -9999 -9999 -9999 -9999 -9999 -9999 -9999 -9999 -9999 -9999 -9999 -9999 -9999 -9999 -9999 -9999 -9999 -9999 -9999 -9999 -9999 -9999 -9999 -9999 -9999 -9999 -9999 -9999 -9999 -9999 -9999 -9999 -9999 -9999 -9999 -9999 -9999 -9999 -9999 -9999 -9999 -9999 -9999 -9999 -9999 -9999 -9999 -9999 -9999 -9999 -9999 -9999 -9999 -9999 -9999 -9999 -9999 -9999 -9999 -9999 -9999 -9999 -9999 -9999 -9999 -9999 -9999 -9999 -9999 -9999 -9999 -9999 -9999 -9999 -9999 -9999 -9999 -9999 -9999 -9999 -9999 -9999 -9999 -9999 -9999 -9999 -9999 -9999 -9999 -9999 -9999 -9999 -9999 -9999 -9999 -9999 -9999 -9999 -9999 -9999 -9999 -9999 -9999 -9999 -9999 -9999 -9999 -9999 -9999 -9999 -9999 -9999 -9999 -9999 -9999 -9999 -9999 -9999 -9999
-9999 -9999 -9999 -9999 -9999 -9999 -9999 -9999 -9999 -9999 -9999 -9999 -9999 -9999 975 1156 1124 1105 949 1009 1003 1076 1022 1211 1247 1227 986 902 892 895 915 974 990 995 948 882 863 863 863 865 902 898 894 896 935 1088 1223 1466 1686 1651 1927 2096 2039 2209 2274 2282 2325 2203 2340 2344 2320 2484 2584 2453 2340 2414 2262 2277 2381 2397 2493 2549 2666 2643 2410 2134 1992 2029 1764 1632 1531 1359 1494 1316 1219 1205 1251 1475 1391 1350 1497 1690 1487 1465 1598 1733 1842 1939 2027 2050 2040 2314 2444 2481 2634 2474 2322 2173 1968 2202 2560 2560 2352 2596 2742 2865 2993 2878 2729 2673 2783 2977 2847 2891 2744 2788 2793 2911 2893 2847 2808 2607 2569 2402 2391 2257 2132 2087 2020 1943 1965 2007 1876 1608 1743 1870 1978 1965 1899 1755 1802 1997 1969 2085 2155 2168 2136 2184 2198 2205 2301 2205 2262 2157 2318 2431 2441 2554 2455 2282 2188 2240 2385 2524 2734 2962 3120 3316 3205 3187 3273 3104 3342 -9999 -9999 -9999 -9999 -9999 -9999 -9999 -9999 -9999 -9999 -9999 -9999 -9999 3561 3483 3469 3656 3595 3715 -9999 -9999 -9999 -9999 -9999 -9999 -9999 -9999 -9999 -9999 -9999 -9999 -9999 -9999 -9999 -9999 -9999 -9999 -9999 -9999 -9999 -9999 -9999 -9999 -9999 -9999 -9999 -9999 -9999 -9999 -9999 -9999 -9999 -9999 -9999 -9999 -9999 -9999 -9999 -9999 -9999 -9999 -9999 -9999 -9999 -9999 -9999 -9999 -9999 -9999 -9999 -9999 -9999 -9999 -9999 -9999 -9999 -9999 -9999 -9999 -9999 -9999 -9999 -9999 -9999 -9999 -9999 -9999 -9999 -9999 -9999 -9999 -9999 -9999 -9999 -9999 -9999 -9999 -9999 -9999 -9999 -9999 -9999 -9999 -9999 -9999 -9999 -9999 -9999 -9999 -9999 -9999 -9999 -9999 -9999 -9999 -9999 -9999 -9999 -9999 -9999 -9999 -9999 -9999 -9999 -9999 -9999 -9999 -9999 -9999 -9999 -9999 -9999 -9999 -9999 -9999 -9999 -9999 -9999 -9999 -9999 -9999 -9999 -9999 -9999 -9999 -9999 -9999 -9999 -9999 -9999 -9999 -9999 -9999 -9999 -9999 -9999 -9999 -9999 -9999 -9999 -9999 -9999 -9999 -9999 -9999 -9999 -9999 -9999 -9999 -9999 -9999 -9999 -9999 -9999 -9999 -9999 -9999 -9999 -9999 -9999
-9999 -9999 -9999 -9999 -9999 -9999 -9999 -9999 -9999 -9999 -9999 -9999 -9999 -9999 -9999 1312 1305 1306 1174 1139 1103 1210 1083 1173 1312 1235 1071 981 1058 1005 1022 1054 1056 1029 973 940 864 863 863 863 865 875 886 928 1059 1088 1184 1227 1433 1606 2037 2038 1897 1958 2315 2232 2059 2002 2064 2203 2435 2550 2500 2262 2230 2126 2077 2095 2059 2080 2379 2532 2448 2190 2269 2140 1962 1668 1712 1404 1198 1204 1207 1301 1441 1486 1599 1423 1570 1693 1812 2020 1889 1724 1596 1726 1886 2268 2345 2407 2267 2273 2381 2705 2959 2882 2630 2415 2127 2373 2502 2667 2662 2679 3019 3139 3045 3173 3074 2983 3010 3209 3279 3086 3016 3157 3109 3089 2956 2726 2550 2454 2414 2266 2194 2302 2306 2276 2310 2207 2005 1869 1714 1690 1818 1980 2154 2172 2106 1963 1925 1854 2057 2133 2187 2265 2371 2380 2363 2299 2355 2360 2350 2263 2423 2610 2574 2687 2574 2447 2439 2401 2336 2366 2608 2866 2905 3119 3356 3361 3442 3344 -9999 -9999 -9999 -9999 -9999 -9999 -9999 -9999 -9999 -9999 -9999 -9999 -9999 -9999 -9999 3726 3711 -9999 -9999 -9999 -9999 -9999 -9999 -9999 -9999 -9999 -9999 -9999 -9999 -9999 -9999 -9999 -9999 -9999 -9999 -9999 -9999 -9999 -9999 -9999 -9999 -9999 -9999 -9999 -9999 -9999 -9999 -9999 -9999 -9999 -9999 -9999 -9999 -9999 -9999 -9999 -9999 -9999 -9999 -9999 -9999 -9999 -9999 -9999 -9999 -9999 -9999 -9999 -9999 -9999 -9999 -9999 -9999 -9999 -9999 -9999 -9999 -9999 -9999 -9999 -9999 -9999 -9999 -9999 -9999 -9999 -9999 -9999 -9999 -9999 -9999 -9999 -9999 -9999 -9999 -9999 -9999 -9999 -9999 -9999 -9999 -9999 -9999 -9999 -9999 -9999 -9999 -9999 -9999 -9999 -9999 -9999 -9999 -9999 -9999 -9999 -9999 -9999 -9999 -9999 -9999 -9999 -9999 -9999 -9999 -9999 -9999 -9999 -9999 -9999 -9999 -9999 -9999 -9999 -9999 -9999 -9999 -9999 -9999 -9999 -9999 -9999 -9999 -9999 -9999 -9999 -9999 -9999 -9999 -9999 -9999 -9999 -9999 -9999 -9999 -9999 -9999 -9999 -9999 -9999 -9999 -9999 -9999 -9999 -9999 -9999 -9999 -9999 -9999 -9999 -9999 -9999 -9999 -9999 -9999 -9999 -9999 -9999 -9999 -9999 -9999
-9999 -9999 -9999 -9999 -9999 -9999 -9999 -9999 -9999 -9999 -9999 -9999 -9999 -9999 -9999 -9999 1377 1478 1464 1265 1218 1271 1192 1126 1247 1199 1112 1165 1127 1230 1158 1074 1166 1138 1063 1027 977 906 878 864 863 871 872 895 992 1286 1445 1538 1519 1455 1636 1659 1636 1689 1823 1887 1834 1913 2197 2270 2261 2355 2511 2535 2466 2398 2207 1937 1848 1969 2123 2266 2273 1911 1840 1782 1850 1710 1411 1421 1185 1236 1434 1546 1509 1682 1822 1776 1495 1507 1792 2071 2005 1844 1856 1939 2147 2275 2452 2754 2655 2542 2546 2531 2720 2815 2557 2490 2279 2570 2829 2908 2969 3027 3078 3248 3269 3258 3437 3243 3294 3475 3282 3296 3384 3313 3366 3120 2987 2937 2728 2528 2436 2266 2085 2071 2126 2126 2151 2034 1853 1749 1664 1800 1838 1995 2075 2137 2199 2228 2179 2037 1899 2134 2189 2327 2303 2447 2556 2561 2541 2590 2470 2398 2444 2618 2806 2893 2778 2588 2643 2773 2694 2464 2510 2559 2677 2856 3060 3354 -9999 -9999 -9999 -9999 -9999 -9999 -9999 -9999 -9999 -9999 -9999 -9999 -9999 -9999 -9999 -9999 -9999 -9999 -9999 -9999 -9999 -9999 -9999 -9999 -9999 -9999 -9999 -9999 -9999 -9999 -9999 -9999 -9999 -9999 -9999 -9999 -9999 -9999 -9999 -9999 -9999 -9999 -9999 -9999 -9999 -9999 -9999 -9999 -9999 -9999 -9999 -9999 -9999 -9999 -9999 -9999 -9999 -9999 -9999 -9999 -9999 -9999 -9999 -9999 -9999 -9999 -9999 -9999 -9999 -9999 -9999 -9999 -9999 -9999 -9999 -9999 -9999 -9999 -9999 -9999 -9999 -9999 -9999 -9999 -9999 -9999 -9999 -9999 -9999 -9999 -9999 -9999 -9999 -9999 -9999 -9999 -9999 -9999 -9999 -9999 -9999 -9999 -9999 -9999 -9999 -9999 -9999 -9999 -9999 -9999 -9999 -9999 -9999 -9999 -9999 -9999 -9999 -9999 -9999 -9999 -9999 -9999 -9999 -9999 -9999 -9999 -9999 -9999 -9999 -9999 -9999 -9999 -9999 -9999 -9999 -9999 -9999 -9999 -9999 -9999 -9999 -9999 -9999 -9999 -9999 -9999 -9999 -9999 -9999 -9999 -9999 -9999 -9999 -9999 -9999 -9999 -9999 -9999 -9999 -9999 -9999 -9999 -9999 -9999 -9999 -9999 -9999 -9999 -9999 -9999 -9999 -9999 -9999 -9999 -9999 -9999 -9999 -9999 -9999 -9999 -9999 -9999 -9999
-9999 -9999 -9999 -9999 -9999 -9999 -9999 -9999 -9999 -9999 -9999 -9999 -9999 -9999 -9999 -9999 -9999 -9999 1776 1447 1401 1426 1301 1172 1316 1328 1251 1342 1291 1313 1175 1150 1279 1314 1182 1180 1091 1014 992 1011 984 870 865 885 952 1107 1251 1341 1506 1771 1728 1752 1741 1879 1799 1851 1886 2134 2379 2408 2414 2348 2577 2505 2356 2106 2087 2007 1874 1714 1814 2077 2135 1896 1605 1439 1429 1467 1280 1175 1240 1289 1499 1771 1838 1807 2105 1854 1607 1561 1650 1793 1821 2031 2159 2337 2469 2625 2709 2945 2909 2933 2825 2758 2723 2813 2939 2739 2414 2533 2809 2946 3206 3297 3444 3496 3366 3358 3607 3426 3513 3417 3437 3648 3553 3486 3337 3181 3092 3081 2882 2654 2518 2357 2209 2066 1929 1872 1895 1830 1644 1664 1780 1839 1771 1863 1945 2135 2257 2294 2291 2240 2073 1967 2033 2164 2334 2440 2442 2552 2621 2695 2564 2578 2639 2713 2896 2974 2880 2754 2731 2854 2797 2607 2874 2775 2693 2867 3155 3423 -9999 -9999 -9999 -9999 -9999 -9999 -9999 -9999 -9999 -9999 -9999 -9999 -9999 -9999 -9999 -9999 -9999 -9999 -9999 -9999 -9999 -9999 -9999 -9999 -9999 -9999 -9999 -9999 -9999 -9999 -9999 -9999 -9999 -9999 -9999 -9999 -9999 -9999 -9999 -9999 -9999 -9999 -9999 -9999 -9999 -9999 -9999 -9999 -9999 -9999 -9999 -9999 -9999 -9999 -9999 -9999 -9999 -9999 -9999 -9999 -9999 -9999 -9999 -9999 -9999 -9999 -9999 -9999 -9999 -9999 -9999 -9999 -9999 -9999 -9999 -9999 -9999 -9999 -9999 -9999 -9999 -9999 -9999 -9999 -9999 -9999 -9999 -9999 -9999 -9999 -9999 -9999 -9999 -9999 -9999 -9999 -9999 -9999 -9999 -9999 -9999 -9999 -9999 -9999 -9999 -9999 -9999 -9999 -9999 -9999 -9999 -9999 -9999 -9999 -9999 -9999 -9999 -9999 -9999 -9999 -9999 -9999 -9999 -9999 -9999 -9999 -9999 -9999 -9999 -9999 -9999 -9999 -9999 -9999 -9999 -9999 -9999 -9999 -9999 -9999 -9999 -9999 -9999 -9999 -9999 -9999 -9999 -9999 -9999 -9999 -9999 -9999 -9999 -9999 -9999 -9999 -9999 -9999 -9999 -9999 -9999 -9999 -9999 -9999 -9999 -9999 -9999 -9999 -9999 -9999 -9999 -9999 -9999 -9999 -9999 -9999 -9999 -9999 -9999 -9999 -9999 -9999 -9999
-9999 -9999 -9999 -9999 -9999 -9999 -9999 -9999 -9999 -9999 -9999 -9999 -9999 -9999 -9999 -9999 -9999 -9999 1857 1628 1546 1419 1294 1197 1278 1332 1322 1380 1374 1330 1169 1208 1277 1357 1233 1264 1172 1067 1057 1055 1101 948 903 875 961 1068 1128 1241 1446 1804 1866 1869 1845 1909 1845 1893 2000 2186 2421 2476 2489 2521 2636 2544 2420 2177 1944 1961 1975 1647 1804 1960 2056 1828 1601 1420 1321 1266 1164 1200 1275 1341 1631 1921 2057 1985 2173 1890 1734 1678 1733 1713 1805 1927 2058 2341 2614 2825 2909 3078 3097 3084 2986 2931 2881 2803 2894 2731 2455 2533 2760 2853 3093 3353 3591 3592 3425 3429 3678 3578 3537 3445 3631 3714 3629 3390 3141 3005 2952 2956 2873 2700 2593 2413 2300 2198 2069 2004 1777 1736 1679 1715 1834 1891 1787 1937 2091 2192 2370 2422 2402 2307 2244 2040 2014 2081 2226 2380 2354 2498 2503 2546 2479 2505 2606 2768 2934 3020 2931 2789 2790 2914 2864 2713 2918 2900 2788 2837 3071 3370 -9999 -9999 -9999 -9999 -9999 -9999 -9999 -9999 -9999 -9999 -9999 -9999 -9999 -9999 -9999 -9999 -9999 -9999 -9999 -9999 -9999 -9999 -9999 -9999 -9999 -9999 -9999 -9999 -9999 -9999 -9999 -9999 -9999 -9999 -9999 -9999 -9999 -9999 -9999 -9999 -9999 -9999 -9999 -9999 -9999 -9999 -9999 -9999 -9999 -9999 -9999 -9999 -9999 -9999 -9999 -9999 -9999 -9999 -9999 -9999 -9999 -9999 -9999 -9999 -9999 -9999 -9999 -9999 -9999 -9999 -9999 -9999 -9999 -9999 -9999 -9999 -9999 -9999 -9999 -9999 -9999 -9999 -9999 -9999 -9999 -9999 -9999 -9999 -9999 -9999 -9999 -9999 -9999 -9999 -9999 -9999 -9999 -9999 -9999 -9999 -9999 -9999 -9999 -9999 -9999 -9999 -9999 -9999 -9999 -9999 -9999 -9999 -9999 -9999 -9999 -9999 -9999 -9999 -9999 -9999 -9999 -9999 -9999 -9999 -9999 -9999 -9999 -9999 -9999 -9999 -9999 -9999 -9999 -9999 -9999 -9999 -9999 -9999 -9999 -9999 -9999 -9999 -9999 -9999 -9999 -9999 -9999 -9999 -9999 -9999 -9999 -9999 -9999 -9999 -9999 -9999 -9999 -9999 -9999 -9999 -9999 -9999 -9999 -9999 -9999 -9999 -9999 -9999 -9999 -9999 -9999 -9999 -9999 -9999 -9999 -9999 -9999 -9999 -9999 -9999 -9999 -9999 -9999
-9999 -9999 -9999 -9999 -9999 -9999 -9999 -9999 -9999 -9999 -9999 -9999 -9999 -9999 -9999 -9999 -9999 -9999 1944 1665 1558 1472 1345 1235 1307 1342 1416 1429 1319 1275 1218 1293 1334 1406 1438 1383 1347 1241 1175 1202 1088 1019 968 901 906 1039 1067 1210 1499 1706 1665 1662 1671 1667 1625 1639 1847 1927 2137 2145 2476 2730 2833 2499 2393 2186 1929 1649 1691 1657 1509 1758 1867 1561 1262 1178 1155 1176 1400 1601 1628 1455 1590 1782 2061 2236 2223 2137 1945 1802 1738 1854 1980 2055 2036 2070 2405 2548 2642 2874 3026 3209 3258 3197 3175 3001 2883 2707 2698 2895 2911 2955 3129 3235 3492 3643 3499 3578 3804 3748 3684 3686 3657 3523 3418 3169 2941 2741 2646 2573 2468 2412 2437 2425 2327 2210 2044 1933 1730 1730 1796 1859 1922 1870 1810 1953 2186 2295 2397 2471 2463 2465 2467 2274 2251 2167 2210 2256 2238 2298 2378 2445 2609 2722 2787 2735 2945 3063 3109 3005 2905 3035 3114 2968 3028 3156 3052 3061 3220 3498 -9999 -9999 -9999 -9999 -9999 -9999 -9999 -9999 -9999 -9999 -9999 -9999 -9999 -9999 -9999 -9999 -9999 -9999 -9999 -9999 -9999 -9999 -9999 -9999 -9999 -9999 -9999 -9999 -9999 -9999 -9999 -9999 -9999 -9999 -9999 -9999 -9999 -9999 -9999 -9999 -9999 -9999 -9999 -9999 -9999 -9999 -9999 -9999 -9999 -9999 -9999 -9999 -9999 -9999 -9999 -9999 -9999 -9999 -9999 -9999 -9999 -9999 -9999 -9999 -9999 -9999 -9999 -9999 -9999 -9999 -9999 -9999 -9999 -9999 -9999 -9999 -9999 -9999 -9999 -9999 -9999 -9999 -9999 -9999 -9999 -9999 -9999 -9999 -9999 -9999 -9999 -9999 -9999 -9999 -9999 -9999 -9999 -9999 -9999 -9999 -9999 -9999 -9999 -9999 -9999 -9999 -9999 -9999 -9999 -9999 -9999 -9999 -9999 -9999 -9999 -9999 -9999 -9999 -9999 -9999 -9999 -9999 -9999 -9999 -9999 -9999 -9999 -9999 -9999 -9999 -9999 -9999 -9999 -9999 -9999 -9999 -9999 -9999 -9999 -9999 -9999 -9999 -9999 -9999 -9999 -9999 -9999 -9999 -9999 -9999 -9999 -9999 -9999 -9999 -9999 -9999 -9999 -9999 -9999 -9999 -9999 -9999 -9999 -9999 -9999 -9999 -9999 -9999 -9999 -9999 -9999 -9999 -9999 -9999 -9999 -9999 -9999 -9999 -9999 -9999 -9999 -9999 -9999
-9999 -9999 -9999 -9999 -9999 -9999 -9999 -9999 -9999 -9999 -9999 -9999 -9999 -9999 -9999 -9999 -9999 -9999 1756 1605 1569 1474 1327 1379 1272 1311 1484 1448 1298 1251 1308 1404 1487 1451 1541 1423 1344 1259 1192 1093 1026 986 982 911 882 958 992 1164 1438 1486 1467 1420 1467 1440 1501 1562 1675 1795 2034 2185 2528 2755 2811 2468 2316 2102 1872 1663 1693 1460 1314 1447 1466 1306 1160 1337 1421 1484 1794 2009 1852 1659 1660 1976 2210 2387 2324 2072 1933 1868 1904 1981 2096 2428 2523 2475 2352 2409 2549 2702 2949 3251 3411 3435 3275 3095 2895 2881 2869 3129 3249 3288 3289 3518 3594 3627 3606 3550 3426 3555 3585 3587 3498 3316 3258 3258 3099 2890 2787 2602 2400 2189 2109 2110 2112 1956 1784 1722 1836 2043 2139 2169 2077 2020 1804 1792 1976 2215 2292 2307 2326 2359 2485 2532 2463 2409 2387 2500 2492 2457 2500 2669 2710 2731 2973 2954 2864 2946 3197 3252 3137 3148 3395 3256 3239 3294 3265 3264 3461 3654 -9999 -9999 -9999 -9999 -9999 -9999 -9999 -9999 -9999 -9999 -9999 -9999 -9999 -9999 -9999 -9999 -9999 -9999 -9999 -9999 -9999 -9999 -9999 -9999 -9999 -9999 -9999 -9999 -9999 -9999 -9999 -9999 -9999 -9999 -9999 -9999 -9999 -9999 -9999 -9999 -9999 -9999 -9999 -9999 -9999 -9999 -9999 -9999 -9999 -9999 -9999 -9999 -9999 -9999 -9999 -9999 -9999 -9999 -9999 -9999 -9999 -9999 -9999 -9999 -9999 -9999 -9999 -9999 -9999 -9999 -9999 -9999 -9999 -9999 -9999 -9999 -9999 -9999 -9999 -9999 -9999 -9999 -9999 -9999 -9999 -9999 -9999 -9999 -9999 -9999 -9999 -9999 -9999 -9999 -9999 -9999 -9999 -9999 -9999 -9999 -9999 -9999 -9999 -9999 -9999 -9999 -9999 -9999 -9999 -9999 -9999 -9999 -9999 -9999 -9999 -9999 -9999 -9999 -9999 -9999 -9999 -9999 -9999 -9999 -9999 -9999 -9999 -9999 -9999 -9999 -9999 -9999 -9999 -9999 -9999 -9999 -9999 -9999 -9999 -9999 -9999 -9999 -9999 -9999 -9999 -9999 -9999 -9999 -9999 -9999 -9999 -9999 -9999 -9999 -9999 -9999 -9999 -9999 -9999 -9999 -9999 -9999 -9999 -9999 -9999 -9999 -9999 -9999 -9999 -9999 -9999 -9999 -9999 -9999 -9999 -9999 -9999 -9999 -9999 -9999 -9999 -9999 -9999
-9999 -9999 -9999 -9999 -9999 -9999 -9999 -9999 -9999 -9999 -9999 -9999 -9999 -9999 -9999 -9999 -9999 -9999 1765 1601 1535 1447 1393 1484 1357 1304 1476 1448 1312 1301 1383 1468 1588 1652 1555 1472 1407 1291 1212 1071 1147 1142 1096 1019 908 888 945 1203 1244 1193 1309 1417 1402 1476 1525 1575 1686 1929 2274 2316 2449 2554 2717 2710 2620 2359 2201 2046 1899 1639 1308 1121 1136 1242 1464 1675 1742 1935 2019 2200 1887 1727 1906 2041 2326 2446 2234 2007 1903 1905 2060 2123 2109 2103 2210 2524 2825 2732 2693 2641 2884 3073 3201 3465 3468 3263 3159 3190 3151 3216 3500 3583 3511 3646 3468 3421 3393 3352 3115 3168 3170 3273 3236 3032 2877 2868 2893 2652 2524 2313 2222 2102 2031 1929 1844 1804 1971 2061 2211 2045 2380 2403 2366 2239 1994 1920 1817 1928 2093 2075 2116 2191 2296 2437 2518 2525 2559 2598 2641 2638 2717 2841 3013 3038 3048 3259 3054 2975 3074 3385 3396 3366 -9999 -9999 -9999 -9999 3601 -9999 -9999 -9999 -9999 -9999 -9999 -9999 -9999 -9999 -9999 -9999 -9999 -9999 -9999 -9999 -9999 -9999 -9999 -9999 -9999 -9999 -9999 -9999 -9999 -9999 -9999 -9999 -9999 -9999 -9999 -9999 -9999 -9999 -9999 -9999 -9999 -9999 -9999 -9999 -9999 -9999 -9999 -9999 -9999 -9999 -9999 -9999 -9999 -9999 -9999 -9999 -9999 -9999 -9999 -9999 -9999 -9999 -9999 -9999 -9999 -9999 -9999 -9999 -9999 -9999 -9999 -9999 -9999 -9999 -9999 -9999 -9999 -9999 -9999 -9999 -9999 -9999 -9999 -9999 -9999 -9999 -9999 -9999 -9999 -9999 -9999 -9999 -9999 -9999 -9999 -9999 -9999 -9999 -9999 -9999 -9999 -9999 -9999 -9999 -9999 -9999 -9999 -9999 -9999 -9999 -9999 -9999 -9999 -9999 -9999 -9999 -9999 -9999 -9999 -9999 -9999 -9999 -9999 -9999 -9999 -9999 -9999 -9999 -9999 -9999 -9999 -9999 -9999 -9999 -9999 -9999 -9999 -9999 -9999 -9999 -9999 -9999 -9999 -9999 -9999 -9999 -9999 -9999 -9999 -9999 -9999 -9999 -9999 -9999 -9999 -9999 -9999 -9999 -9999 -9999 -9999 -9999 -9999 -9999 -9999 -9999 -9999 -9999 -9999 -9999 -9999 -9999 -9999 -9999 -9999 -9999 -9999 -9999 -9999 -9999 -9999 -9999 -9999 -9999 -9999 -9999 -9999 -9999 -9999 -9999 -9999
-9999 -9999 -9999 -9999 -9999 -9999 -9999 -9999 -9999 -9999 -9999 -9999 -9999 -9999 -9999 -9999 -9999 -9999 1812 1632 1551 1447 1478 1504 1359 1399 1482 1437 1337 1320 1436 1556 1686 1671 1504 1406 1323 1224 1170 1131 1247 1249 1198 1095 950 886 944 1174 1124 1226 1385 1490 1521 1576 1682 1721 1877 2037 2318 2250 2218 2428 2525 2591 2611 2310 2165 1930 1784 1492 1214 1123 1219 1406 1731 1938 1882 2132 2181 2217 1879 1759 1952 2152 2363 2442 2162 1976 1936 1953 2151 2171 2334 2209 2183 2459 2828 2912 2878 2759 2790 3000 3097 3315 3590 3309 3201 3220 3224 3261 3418 3496 3703 3647 3413 3290 3282 3284 3030 2981 2990 3161 3105 2919 2815 2649 2768 2560 2473 2307 2101 1987 1895 1857 1896 1968 2201 2284 2351 2186 2386 2475 2496 2253 2124 2078 1902 1860 1967 2008 2048 2135 2320 2469 2427 2378 2413 2538 2632 2693 2745 2906 2979 3107 3177 3227 3125 3063 3141 -9999 -9999 -9999 -9999 -9999 -9999 -9999 -9999 -9999 -9999 -9999 -9999 -9999 -9999 -9999 -9999 -9999 -9999 -9999 -9999 -9999 -9999 -9999 -9999 -9999 -9999 -9999 -9999 -9999 -9999 -9999 -9999 -9999 -9999 -9999 -9999 -9999 -9999 -9999 -9999 -9999 -9999 -9999 -9999 -9999 -9999 -9999 -9999 -9999 -9999 -9999 -9999 -9999 -9999 -9999 -9999 -9999 -9999 -9999 -9999 -9999 -9999 -9999 -9999 -9999 -9999 -9999 -9999 -9999 -9999 -9999 -9999 -9999 -9999 -9999 -9999 -9999 -9999 -9999 -9999 -9999 -9999 -9999 -9999 -9999 -9999 -9999 -9999 -9999 -9999 -9999 -9999 -9999 -9999 -9999 -9999 -9999 -9999 -9999 -9999 -9999 -9999 -9999 -9999 -9999 -9999 -9999 -9999 -9999 -9999 -9999 -9999 -9999 -9999 -9999 -9999 -9999 -9999 -9999 -9999 -9999 -9999 -9999 -9999 -9999 -9999 -9999 -9999 -9999 -9999 -9999 -9999 -9999 -9999 -9999 -9999 -9999 -9999 -9999 -9999 -9999 -9999 -9999 -9999 -9999 -9999 -9999 -9999 -9999 -9999 -9999 -9999 -9999 -9999 -9999 -9999 -9999 -9999 -9999 -9999 -9999 -9999 -9999 -9999 -9999 -9999 -9999 -9999 -9999 -9999 -9999 -9999 -9999 -9999 -9999 -9999 -9999 -9999 -9999 -9999 -9999 -9999 -9999 -9999 -9999 -9999 -9999 -9999 -9999 -9999 -9999 -9999 -9999 -9999
-9999 -9999 -9999 -9999 -9999 -9999 -9999 -9999 -9999 -9999 -9999 -9999 -9999 -9999 -9999 -9999 -9999 -9999 -9999 1705 1641 1552 1581 1523 1480 1579 1520 1536 1408 1367 1449 1638 1863 1843 1624 1506 1415 1339 1260 1223 1501 1565 1501 1288 968 929 967 1044 1200 1421 1719 1831 1902 1827 1896 2002 2214 2274 2221 2175 1918 2125 2102 2340 2468 2161 1817 1602 1622 1440 1139 1229 1418 1528 1860 2219 2382 2417 2444 2235 2038 1958 2043 2283 2361 2221 2069 2069 2016 2069 2388 2398 2644 2591 2468 2374 2538 2797 2946 3092 3039 2973 2968 3186 3451 3576 3373 3374 3411 3412 3571 3687 3675 3548 3321 3185 2955 2938 3039 2764 2700 2779 2904 2722 2577 2369 2495 2312 2197 2209 2020 1882 2008 2260 2268 2048 2233 2440 2569 2458 2463 2537 2647 2561 2396 2228 2139 1947 1913 1984 2103 2101 2172 2239 2171 2334 2533 2617 2613 2510 2585 2809 3023 3013 3055 3257 3315 -9999 -9999 -9999 -9999 -9999 -9999 -9999 -9999 -9999 -9999 -9999 -9999 -9999 -9999 -9999 -9999 -9999 -9999 -9999 -9999 -9999 -9999 -9999 -9999 -9999 -9999 -9999 -9999 -9999 -9999 -9999 -9999 -9999 -9999 -9999 -9999 -9999 -9999 -9999 -9999 -9999 -9999 -9999 -9999 -9999 -9999 -9999 -9999 -9999 -9999 -9999 -9999 -9999 -9999 -9999 -9999 -9999 -9999 -9999 -9999 -9999 -9999 -9999 -9999 -9999 -9999 -9999 -9999 -9999 -9999 -9999 -9999 -9999 -9999 -9999 -9999 -9999 -9999 -9999 -9999 -9999 -9999 -9999 -9999 -9999 -9999 -9999 -9999 -9999 -9999 -9999 -9999 -9999 -9999 -9999 -9999 -9999 -9999 -9999 -9999 -9999 -9999 -9999 -9999 -9999 -9999 -9999 -9999 -9999 -9999 -9999 -9999 -9999 -9999 -9999 -9999 -9999 -9999 -9999 -9999 -9999 -9999 -9999 -9999 -9999 -9999 -9999 -9999 -9999 -9999 -9999 -9999 -9999 -9999 -9999 -9999 -9999 -9999 -9999 -9999 -9999 -9999 -9999 -9999 -9999 -9999 -9999 -9999 -9999 -9999 -9999 -9999 -9999 -9999 -9999 -9999 -9999 -9999 -9999 -9999 -9999 -9999 -9999 -9999 -9999 -9999 -9999 -9999 -9999 -9999 -9999 -9999 -9999 -9999 -9999 -9999 -9999 -9999 -9999 -9999 -9999 -9999 -9999 -9999 -9999 -9999 -9999 -9999 -9999 -9999 -9999 -9999 -9999 -9999 -9999 -9999
-9999 -9999 -9999 -9999 -9999 -9999 -9999 -9999 -9999 -9999 -9999 -9999 -9999 -9999 -9999 -9999 -9999 -9999 -9999 -9999 -9999 -9999 1668 1592 1584 1636 1608 1525 1420 1425 1448 1558 1790 1955 1914 1721 1589 1358 1250 1264 1486 1792 1685 1328 1187 956 905 923 1033 1349 1641 1769 1672 1748 1850 1736 1948 2233 2241 2110 1769 1782 1886 2234 2274 2008 1849 1657 1504 1256 1084 1349 1520 1839 1776 2044 2150 2257 2560 2546 2286 2215 2258 2444 2251 2237 2357 2312 2198 2150 2291 2591 2916 2894 2839 2701 2536 2654 2774 3021 3038 3209 3242 3173 3381 3691 3625 3680 3582 3570 3474 3411 3242 3330 3349 3241 2993 2775 2798 2775 2668 2453 2559 2622 2462 2372 2163 2077 1977 1947 1978 2207 2305 2525 2380 2166 2282 2339 2590 2565 2683 2677 2683 2731 2602 2521 2319 2020 1985 2075 2122 2094 2073 2148 2221 2198 2238 2359 2409 2444 2553 2640 2693 2735 2873 2985 3061 3151 -9999 -9999 -9999 -9999 -9999 -9999 -9999 -9999 -9999 -9999 -9999 -9999 -9999 -9999 -9999 -9999 -9999 -9999 -9999 -9999 -9999 -9999 -9999 -9999 -9999 -9999 -9999 -9999 -9999 -9999 -9999 -9999 -9999 -9999 -9999 -9999 -9999 -9999 -9999 -9999 -9999 -9999 -9999 -9999 -9999 -9999 -9999 -9999 -9999 -9999 -9999 -9999 -9999 -9999 -9999 -9999 -9999 -9999 -9999 -9999 -9999 -9999 -9999 -9999 -9999 -9999 -9999 -9999 -9999 -9999 -9999 -9999 -9999 -9999 -9999 -9999 -9999 -9999 -9999 -9999 -9999 -9999 -9999 -9999 -9999 -9999 -9999 -9999 -9999 -9999 -9999 -9999 -9999 -9999 -9999 -9999 -9999 -9999 -9999 -9999 -9999 -9999 -9999 -9999 -9999 -9999 -9999 -9999 -9999 -9999 -9999 -9999 -9999 -9999 -9999 -9999 -9999 -9999 -9999 -9999 -9999 -9999 -9999 -9999 -9999 -9999 -9999 -9999 -9999 -9999 -9999 -9999 -9999 -9999 -9999 -9999 -9999 -9999 -9999 -9999 -9999 -9999 -9999 -9999 -9999 -9999 -9999 -9999 -9999 -9999 -9999 -9999 -9999 -9999 -9999 -9999 -9999 -9999 -9999 -9999 -9999 -9999 -9999 -9999 -9999 -9999 -9999 -9999 -9999 -9999 -9999 -9999 -9999 -9999 -9999 -9999 -9999 -9999 -9999 -9999 -9999 -9999 -9999 -9999 -9999 -9999 -9999 -9999 -9999 -9999 -9999 -9999 -9999 -9999 -9999
-9999 -9999 -9999 -9999 -9999 -9999 -9999 -9999 -9999 -9999 -9999 -9999 -9999 -9999 -9999 -9999 -9999 -9999 -9999 -9999 -9999 -9999 -9999 -9999 1714 1717 1755 1507 1548 1575 1483 1520 1605 1672 1856 1806 1695 1339 1394 1471 1513 1780 1908 1779 1504 1271 1219 1166 1038 983 1273 1381 1502 1771 1458 1491 1670 2041 2276 2181 1816 1487 1689 1853 1877 1757 1498 1302 1243 1071 1142 1450 1579 1842 2046 2018 2010 2152 2480 2674 2636 2604 2576 2518 2413 2511 2665 2704 2541 2471 2373 2395 2622 2932 3111 2949 2807 2702 2702 2756 3005 3013 3086 3333 3485 3553 3522 3536 3481 3451 3157 3076 2951 2961 3044 3063 2956 2667 2498 2541 2610 2518 2285 2389 2268 2100 2000 2096 2245 2382 2249 2105 2257 2593 2586 2365 2536 2453 2585 2678 2728 2772 2753 2798 2677 2479 2337 2078 2126 2175 2320 2243 2380 2313 2402 2428 2462 2376 2351 2360 2423 2486 2580 2657 2750 2898 3174 3261 -9999 -9999 -9999 -9999 -9999 -9999 -9999 -9999 -9999 -9999 -9999 -9999 -9999 -9999 -9999 -9999 -9999 -9999 -9999 -9999 -9999 -9999 -9999 -9999 -9999 -9999 -9999 -9999 -9999 -9999 -9999 -9999 -9999 -9999 -9999 -9999 -9999 -9999 -9999 -9999 -9999 -9999 -9999 -9999 -9999 -9999 -9999 -9999 -9999 -9999 -9999 -9999 -9999 -9999 -9999 -9999 -9999 -9999 -9999 -9999 -9999 -9999 -9999 -9999 -9999 -9999 -9999 -9999 -9999 -9999 -9999 -9999 -9999 -9999 -9999 -9999 -9999 -9999 -9999 -9999 -9999 -9999 -9999 -9999 -9999 -9999 -9999 -9999 -9999 -9999 -9999 -9999 -9999 -9999 -9999 -9999 -9999 -9999 -9999 -9999 -9999 -9999 -9999 -9999 -9999 -9999 -9999 -9999 -9999 -9999 -9999 -9999 -9999 -9999 -9999 -9999 -9999 -9999 -9999 -9999 -9999 -9999 -9999 -9999 -9999 -9999 -9999 -9999 -9999 -9999 -9999 -9999 -9999 -9999 -9999 -9999 -9999 -9999 -9999 -9999 -9999 -9999 -9999 -9999 -9999 -9999 -9999 -9999 -9999 -9999 -9999 -9999 -9999 -9999 -9999 -9999 -9999 -9999 -9999 -9999 -9999 -9999 -9999 -9999 -9999 -9999 -9999 -9999 -9999 -9999 -9999 -9999 -9999 -9999 -9999 -9999 -9999 -9999 -9999 -9999 -9999 -9999 -9999 -9999 -9999 -9999 -9999 -9999 -9999 -9999 -9999 -9999 -9999 -9999 -9999
-9999 -9999 -9999 -9999 -9999 -9999 -9999 -9999 -9999 -9999 -9999 -9999 -9999 -9999 -9999 -9999 -9999 -9999 -9999 -9999 -9999 -9999 -9999 -9999 -9999 -9999 1734 1542 1615 1647 1513 1535 1590 1649 1844 1666 1688 1427 1562 1543 1440 1704 1793 1908 1526 1427 1400 1259 1225 976 1098 1184 1497 1620 1345 1396 1762 2108 2172 2219 1887 1511 1469 1685 1631 1607 1330 1140 1084 1167 1293 1285 1384 1629 1832 2083 2208 2104 2328 2567 2606 2583 2606 2583 2498 2634 2894 2932 2689 2696 2540 2437 2581 2856 2998 3086 2930 2856 2836 2818 3005 3177 3129 3266 3482 3445 3365 3373 3305 3378 3104 2999 2865 2764 2831 2848 2804 2714 2494 2352 2466 2475 2210 2214 2071 2001 2051 2235 2383 2559 2286 2256 2208 2507 2666 2430 2653 2551 2556 2681 2781 2800 2810 2842 2684 2524 2483 2148 2129 2283 2444 2323 2531 2462 2517 2523 2533 2524 2466 2437 2514 2596 2645 2631 2748 2886 -9999 -9999 -9999 -9999 -9999 -9999 -9999 -9999 -9999 -9999 -9999 -9999 -9999 -9999 -9999 -9999 -9999 -9999 -9999 -9999 -9999 -9999 -9999 -9999 -9999 -9999 -9999 -9999 -9999 -9999 -9999 -9999 -9999 -9999 -9999 -9999 -9999 -9999 -9999 -9999 -9999 -9999 -9999 -9999 -9999 -9999 -9999 -9999 -9999 -9999 -9999 -9999 -9999 -9999 -9999 -9999 -9999 -9999 -9999 -9999 -9999 -9999 -9999 -9999 -9999 -9999 -9999 -9999 -9999 -9999 -9999 -9999 -9999 -9999 -9999 -9999 -9999 -9999 -9999 -9999 -9999 -9999 -9999 -9999 -9999 -9999 -9999 -9999 -9999 -9999 -9999 -9999 -9999 -9999 -9999 -9999 -9999 -9999 -9999 -9999 -9999 -9999 -9999 -9999 -9999 -9999 -9999 -9999 -9999 -9999 -9999 -9999 -9999 -9999 -9999 -9999 -9999 -9999 -9999 -9999 -9999 -9999 -9999 -9999 -9999 -9999 -9999 -9999 -9999 -9999 -9999 -9999 -9999 -9999 -9999 -9999 -9999 -9999 -9999 -9999 -9999 -9999 -9999 -9999 -9999 -9999 -9999 -9999 -9999 -9999 -9999 -9999 -9999 -9999 -9999 -9999 -9999 -9999 -9999 -9999 -9999 -9999 -9999 -9999 -9999 -9999 -9999 -9999 -9999 -9999 -9999 -9999 -9999 -9999 -9999 -9999 -9999 -9999 -9999 -9999 -9999 -9999 -9999 -9999 -9999 -9999 -9999 -9999 -9999 -9999 -9999 -9999 -9999 -9999 -9999 -9999 -9999
-9999 -9999 -9999 -9999 -9999 -9999 -9999 -9999 -9999 -9999 -9999 -9999 -9999 -9999 -9999 -9999 -9999 -9999 -9999 -9999 -9999 -9999 -9999 -9999 -9999 -9999 -9999 1765 1756 1691 1564 1591 1646 1688 1919 1754 1587 1670 1659 1848 1662 1652 1614 2036 1886 1795 1708 1670 1375 1233 1030 966 1359 1216 1375 1540 1695 1827 1919 2007 1946 1675 1361 1246 1321 1146 1055 1179 1284 1540 1750 1617 1698 1532 1618 1846 1954 2199 2207 2366 2468 2537 2759 2766 2745 2770 3102 3222 3094 2981 2850 2656 2528 2663 2729 2983 3248 3160 3128 3112 3002 3305 3328 3448 3350 3215 3154 3106 3059 3175 3290 3182 2960 2713 2521 2497 2525 2470 2471 2346 2196 2166 2059 2055 2092 2149 2411 2520 2513 2597 2409 2539 2382 2470 2686 2593 2685 2748 2749 2656 2734 2783 2799 2896 2830 2757 2614 2265 2243 2319 2414 2578 2533 2661 2792 2743 2733 2768 2750 2631 2651 2685 2881 -9999 -9999 -9999 -9999 -9999 -9999 -9999 -9999 -9999 -9999 -9999 -9999 -9999 -9999 -9999 -9999 -9999 -9999 -9999 -9999 -9999 -9999 -9999 -9999 -9999 -9999 -9999 -9999 -9999 -9999 -9999 -9999 -9999 -9999 -9999 -9999 -9999 -9999 -9999 -9999 -9999 -9999 -9999 -9999 -9999 -9999 -9999 -9999 -9999 -9999 -9999 -9999 -9999 -9999 -9999 -9999 -9999 -9999 -9999 -9999 -9999 -9999 -9999 -9999 -9999 -9999 -9999 -9999 -9999 -9999 -9999 -9999 -9999 -9999 -9999 -9999 -9999 -9999 -9999 -9999 -9999 -9999 -9999 -9999 -9999 -9999 -9999 -9999 -9999 -9999 -9999 -9999 -9999 -9999 -9999 -9999 -9999 -9999 -9999 -9999 -9999 -9999 -9999 -9999 -9999 -9999 -9999 -9999 -9999 -9999 -9999 -9999 -9999 -9999 -9999 -9999 -9999 -9999 -9999 -9999 -9999 -9999 -9999 -9999 -9999 -9999 -9999 -9999 -9999 -9999 -9999 -9999 -9999 -9999 -9999 -9999 -9999 -9999 -9999 -9999 -9999 -9999 -9999 -9999 -9999 -9999 -9999 -9999 -9999 -9999 -9999 -9999 -9999 -9999 -9999 -9999 -9999 -9999 -9999 -9999 -9999 -9999 -9999 -9999 -9999 -9999 -9999 -9999 -9999 -9999 -9999 -9999 -9999 -9999 -9999 -9999 -9999 -9999 -9999 -9999 -9999 -9999 -9999 -9999 -9999 -9999 -9999 -9999 -9999 -9999 -9999 -9999 -9999 -9999 -9999 -9999 -9999 -9999 -9999 -9999
-9999 -9999 -9999 -9999 -9999 -9999 -9999 -9999 -9999 -9999 -9999 -9999 -9999 -9999 -9999 -9999 -9999 -9999 -9999 -9999 -9999 -9999 -9999 -9999 -9999 -9999 -9999 -9999 1722 1652 1648 1714 1701 1773 2037 1988 1857 2021 1982 2107 2004 1735 1722 2071 2426 2368 2244 2098 1827 1453 1160 998 1018 1189 1372 1452 1464 1730 1597 1510 1537 1417 1172 1072 1076 1078 1340 1573 1714 1801 2022 2065 2049 1783 1972 1973 1953 2135 2391 2342 2439 2525 2750 3010 3101 3025 3006 3214 3380 3233 3135 2909 2611 2766 2937 2947 3048 3283 3391 3302 3107 3286 3443 3557 3446 3389 3329 3225 3089 2980 3159 3093 2944 2804 2604 2496 2308 2236 2205 2113 2096 2155 2330 2386 2380 2255 2382 2569 2630 2619 2551 2624 2510 2449 2716 2746 2678 2790 2836 2728 2769 2885 2902 2908 2763 2611 2443 2470 2465 2283 2379 2365 2456 2656 2771 2852 3037 2947 2778 2741 2924 2932 2912 -9999 -9999 -9999 -9999 -9999 -9999 -9999 -9999 -9999 -9999 -9999 -9999 -9999 -9999 -9999 -9999 -9999 -9999 -9999 -9999 -9999 -9999 -9999 -9999 -9999 -9999 -9999 -9999 -9999 -9999 -9999 -9999 -9999 -9999 -9999 -9999 -9999 -9999 -9999 -9999 -9999 -9999 -9999 -9999 -9999 -9999 -9999 -9999 -9999 -9999 -9999 -9999 -9999 -9999 -9999 -9999 -9999 -9999 -9999 -9999 -9999 -9999 -9999 -9999 -9999 -9999 -9999 -9999 -9999 -9999 -9999 -9999 -9999 -9999 -9999 -9999 -9999 -9999 -9999 -9999 -9999 -9999 -9999 -9999 -9999 -9999 -9999 -9999 -9999 -9999 -9999 -9999 -9999 -9999 -9999 -9999 -9999 -9999 -9999 -9999 -9999 -9999 -9999 -9999 -9999 -9999 -9999 -9999 -9999 -9999 -9999 -9999 -9999 -9999 -9999 -9999 -9999 -9999 -9999 -9999 -9999 -9999 -9999 -9999 -9999 -9999 -9999 -9999 -9999 -9999 -9999 -9999 -9999 -9999 -9999 -9999 -9999 -9999 -9999 -9999 -9999 -9999 -9999 -9999 -9999 -9999 -9999 -9999 -9999 -9999 -9999 -9999 -9999 -9999 -9999 -9999 -9999 -9999 -9999 -9999 -9999 -9999 -9999 -9999 -9999 -9999 -9999 -9999 -9999 -9999 -9999 -9999 -9999 -9999 -9999 -9999 -9999 -9999 -9999 -9999 -9999 -9999 -9999 -9999 -9999 -9999 -9999 -9999 -9999 -9999 -9999 -9999 -9999 -9999 -9999 -9999 -9999 -9999 -9999 -9999
-9999 -9999 -9999 -9999 -9999 -9999 -9999 -9999 -9999 -9999 -9999 -9999 -9999 -9999 -9999 -9999 -9999 -9999 -9999 -9999 -9999 -9999 -9999 -9999 -9999 -9999 -9999 -9999 1714 1726 1720 1899 1963 1908 1940 2211 2210 2371 2349 2436 2189 1954 1823 2135 2526 2727 2615 2315 2002 1490 1223 1288 1118 968 1166 1150 1259 1350 1250 1188 1074 1033 1092 1242 1309 1343 1511 1659 1855 2204 2434 2505 2324 2214 2193 2271 2345 2397 2414 2429 2495 2551 2679 2906 3183 3282 3263 3188 3378 3468 3316 2947 2727 2883 3071 3283 3160 3177 3312 3455 3268 3324 3452 3692 3547 3450 3340 3233 2935 2886 2817 2911 2755 2533 2472 2363 2223 2223 2331 2382 2324 2417 2346 2419 2451 2444 2369 2530 2622 2716 2628 2667 2730 2591 2704 2859 2720 2804 2832 2892 2868 2846 2964 2864 2622 2573 2541 2740 2576 2320 2483 2753 2638 2566 2663 2882 3008 3107 3022 3048 3082 -9999 -9999 -9999 -9999 -9999 -9999 -9999 -9999 -9999 -9999 -9999 -9999 -9999 -9999 -9999 -9999 -9999 -9999 -9999 -9999 -9999 -9999 -9999 -9999 -9999 -9999 -9999 -9999 -9999 -9999 -9999 -9999 -9999 -9999 -9999 -9999 -9999 -9999 -9999 -9999 -9999 -9999 -9999 -9999 -9999 -9999 -9999 -9999 -9999 -9999 -9999 -9999 -9999 -9999 -9999 -9999 -9999 -9999 -9999 -9999 -9999 -9999 -9999 -9999 -9999 -9999 -9999 -9999 -9999 -9999 -9999 -9999 -9999 -9999 -9999 -9999 -9999 -9999 -9999 -9999 -9999 -9999 -9999 -9999 -9999 -9999 -9999 -9999 -9999 -9999 -9999 -9999 -9999 -9999 -9999 -9999 -9999 -9999 -9999 -9999 -9999 -9999 -9999 -9999 -9999 -9999 -9999 -9999 -9999 -9999 -9999 -9999 -9999 -9999 -9999 -9999 -9999 -9999 -9999 -9999 -9999 -9999 -9999 -9999 -9999 -9999 -9999 -9999 -9999 -9999 -9999 -9999 -9999 -9999 -9999 -9999 -9999 -9999 -9999 -9999 -9999 -9999 -9999 -9999 -9999 -9999 -9999 -9999 -9999 -9999 -9999 -9999 -9999 -9999 -9999 -9999 -9999 -9999 -9999 -9999 -9999 -9999 -9999 -9999 -9999 -9999 -9999 -9999 -9999 -9999 -9999 -9999 -9999 -9999 -9999 -9999 -9999 -9999 -9999 -9999 -9999 -9999 -9999 -9999 -9999 -9999 -9999 -9999 -9999 -9999 -9999 -9999 -9999 -9999 -9999 -9999 -9999 -9999 -9999 -9999 -9999 -9999
-9999 -9999 -9999 -9999 -9999 -9999 -9999 -9999 -9999 -9999 -9999 -9999 -9999 -9999 -9999 -9999 -9999 -9999 -9999 -9999 -9999 -9999 -9999 -9999 -9999 -9999 -9999 -9999 -9999 1971 1921 1894 1954 2050 2298 2419 2698 2824 2714 2432 2191 2152 2203 2111 2509 2850 2784 2448 2186 2012 1907 1794 1497 1268 1055 1001 972 1009 1068 1198 1176 1177 1224 1271 1323 1523 1828 2040 2118 2454 2736 2737 2640 2624 2605 2561 2450 2298 2458 2568 2607 2605 2787 2908 3010 3158 3335 3386 3421 3506 3348 3082 2875 2850 2968 3344 3356 3230 3272 3555 3417 3424 3508 3678 3503 3326 3147 3041 2942 2765 2582 2548 2488 2303 2202 2241 2480 2590 2529 2488 2487 2472 2434 2501 2547 2518 2443 2560 2645 2735 2717 2760 2838 2753 2640 2856 2896 2828 2950 2976 2953 3011 2965 2819 2573 2511 2595 2797 2607 2484 2439 2543 2809 2742 2646 2738 2862 3031 3094 3104 -9999 -9999 -9999 -9999 -9999 -9999 -9999 -9999 -9999 -9999 -9999 -9999 -9999 -9999 -9999 -9999 -9999 -9999 -9999 -9999 -9999 -9999 -9999 -9999 -9999 -9999 -9999 -9999 -9999 -9999 -9999 -9999 -9999 -9999 -9999 -9999 -9999 -9999 -9999 -9999 -9999 -9999 -9999 -9999 -9999 -9999 -9999 -9999 -9999 -9999 -9999 -9999 -9999 -9999 -9999 -9999 -9999 -9999 -9999 -9999 -9999 -9999 -9999 -9999 -9999 -9999 -9999 -9999 -9999 -9999 -9999 -9999 -9999 -9999 -9999 -9999 -9999 -9999 -9999 -9999 -9999 -9999 -9999 -9999 -9999 -9999 -9999 -9999 -9999 -9999 -9999 -9999 -9999 -9999 -9999 -9999 -9999 -9999 -9999 -9999 -9999 -9999 -9999 -9999 -9999 -9999 -9999 -9999 -9999 -9999 -9999 -9999 -9999 -9999 -9999 -9999 -9999 -9999 -9999 -9999 -9999 -9999 -9999 -9999 -9999 -9999 -9999 -9999 -9999 -9999 -9999 -9999 -9999 -9999 -9999 -9999 -9999 -9999 -9999 -9999 -9999 -9999 -9999 -9999 -9999 -9999 -9999 -9999 -9999 -9999 -9999 -9999 -9999 -9999 -9999 -9999 -9999 -9999 -9999 -9999 -9999 -9999 -9999 -9999 -9999 -9999 -9999 -9999 -9999 -9999 -9999 -9999 -9999 -9999 -9999 -9999 -9999 -9999 -9999 -9999 -9999 -9999 -9999 -9999 -9999 -9999 -9999 -9999 -9999 -9999 -9999 -9999 -9999 -9999 -9999 -9999 -9999 -9999 -9999 -9999 -9999 -9999 -9999
-9999 -9999 -9999 -9999 -9999 -9999 -9999 -9999 -9999 -9999 -9999 -9999 -9999 -9999 -9999 -9999 -9999 -9999 -9999 -9999 -9999 -9999 -9999 -9999 -9999 -9999 -9999 -9999 -9999 -9999 2126 2055 2085 2122 2260 2492 2805 2876 2728 2479 2308 2313 2393 2265 2440 2832 2989 2705 2470 2374 2316 2198 1822 1567 1315 1254 1039 1109 1210 1348 1367 1397 1426 1467 1393 1450 1764 2086 2267 2546 2529 2550 2589 2781 2654 2474 2365 2265 2428 2598 2697 2675 2881 3100 3028 3135 3376 3389 3541 3551 3334 3065 3119 2874 2959 3310 3497 3281 3288 3566 3519 3505 3539 3589 3540 3378 3182 3074 2925 2908 2740 2686 2444 2389 2240 2300 2575 2602 2547 2536 2518 2515 2484 2571 2608 2542 2485 2571 2673 2753 2783 2745 2833 2774 2790 2748 2963 2897 2998 2967 3028 3046 2888 2774 2576 2535 2623 2792 2624 2659 2607 2502 2741 2834 2710 2795 2900 2990 3005 3132 -9999 -9999 -9999 -9999 -9999 -9999 -9999 -9999 -9999 -9999 -9999 -9999 -9999 -9999 -9999 -9999 -9999 -9999 -9999 -9999 -9999 -9999 -9999 -9999 -9999 -9999 -9999 -9999 -9999 -9999 -9999 -9999 -9999 -9999 -9999 -9999 -9999 -9999 -9999 -9999 -9999 -9999 -9999 -9999 -9999 -9999 -9999 -9999 -9999 -9999 -9999 -9999 -9999 -9999 -9999 -9999 -9999 -9999 -9999 -9999 -9999 -9999 -9999 -9999 -9999 -9999 -9999 -9999 -9999 -9999 -9999 -9999 -9999 -9999 -9999 -9999 -9999 -9999 -9999 -9999 -9999 -9999 -9999 -9999 -9999 -9999 -9999 -9999 -9999 -9999 -9999 -9999 -9999 -9999 -9999 -9999 -9999 -9999 -9999 -9999 -9999 -9999 -9999 -9999 -9999 -9999 -9999 -9999 -9999 -9999 -9999 -9999 -9999 -9999 -9999 -9999 -9999 -9999 -9999 -9999 -9999 -9999 -9999 -9999 -9999 -9999 -9999 -9999 -9999 -9999 -9999 -9999 -9999 -9999 -9999 -9999 -9999 -9999 -9999 -9999 -9999 -9999 -9999 -9999 -9999 -9999 -9999 -9999 -9999 -9999 -9999 -9999 -9999 -9999 -9999 -9999 -9999 -9999 -9999 -9999 -9999 -9999 -9999 -9999 -9999 -9999 -9999 -9999 -9999 -9999 -9999 -9999 -9999 -9999 -9999 -9999 -9999 -9999 -9999 -9999 -9999 -9999 -9999 -9999 -9999 -9999 -9999 -9999 -9999 -9999 -9999 -9999 -9999 -9999 -9999 -9999 -9999 -9999 -9999 -9999 -9999 -9999 -9999
-9999 -9999 -9999 -9999 -9999 -9999 -9999 -9999 -9999 -9999 -9999 -9999 -9999 -9999 -9999 -9999 -9999 -9999 -9999 -9999 -9999 -9999 -9999 -9999 -9999 -9999 -9999 -9999 -9999 -9999 -9999 2397 2442 2484 2715 2737 3036 3032 2949 2844 2566 2636 2733 2614 2694 2806 2828 2673 2427 2413 2385 2343 2254 2087 1786 1610 1236 1025 1477 1665 1784 1841 1866 1890 1785 1588 1600 1887 1986 2079 2153 2408 2571 2755 2529 2326 2212 2220 2361 2583 2874 3002 3060 3202 3231 3206 3411 3475 3603 3621 3349 3199 3227 2988 2990 3229 3583 3407 3408 3514 3357 3220 3203 3234 3405 3384 3215 3093 2902 2656 2736 2663 2399 2337 2506 2478 2475 2583 2617 2593 2588 2632 2543 2681 2638 2557 2599 2685 2701 2839 2925 2841 2826 2905 2819 2826 2861 2989 2987 3042 3047 3054 2817 2682 2702 2569 2758 2919 2761 2808 2895 2611 2656 2913 2921 2933 2929 3018 3107 3179 -9999 -9999 -9999 -9999 -9999 -9999 -9999 -9999 -9999 -9999 -9999 -9999 -9999 -9999 -9999 -9999 -9999 -9999 -9999 -9999 -9999 -9999 -9999 -9999 -9999 -9999 -9999 -9999 -9999 -9999 -9999 -9999 -9999 -9999 -9999 -9999 -9999 -9999 -9999 -9999 -9999 -9999 -9999 -9999 -9999 -9999 -9999 -9999 -9999 -9999 -9999 -9999 -9999 -9999 -9999 -9999 -9999 -9999 -9999 -9999 -9999 -9999 -9999 -9999 -9999 -9999 -9999 -9999 -9999 -9999 -9999 -9999 -9999 -9999 -9999 -9999 -9999 -9999 -9999 -9999 -9999 -9999 -9999 -9999 -9999 -9999 -9999 -9999 -9999 -9999 -9999 -9999 -9999 -9999 -9999 -9999 -9999 -9999 -9999 -9999 -9999 -9999 -9999 -9999 -9999 -9999 -9999 -9999 -9999 -9999 -9999 -9999 -9999 -9999 -9999 -9999 -9999 -9999 -9999 -9999 -9999 -9999 -9999 -9999 -9999 -9999 -9999 -9999 -9999 -9999 -9999 -9999 -9999 -9999 -9999 -9999 -9999 -9999 -9999 -9999 -9999 -9999 -9999 -9999 -9999 -9999 -9999 -9999 -9999 -9999 -9999 -9999 -9999 -9999 -9999 -9999 -9999 -9999 -9999 -9999 -9999 -9999 -9999 -9999 -9999 -9999 -9999 -9999 -9999 -9999 -9999 -9999 -9999 -9999 -9999 -9999 -9999 -9999 -9999 -9999 -9999 -9999 -9999 -9999 -9999 -9999 -9999 -9999 -9999 -9999 -9999 -9999 -9999 -9999 -9999 -9999 -9999 -9999 -9999 -9999 -9999 -9999 -9999
-9999 -9999 -9999 -9999 -9999 -9999 -9999 -9999 -9999 -9999 -9999 -9999 -9999 -9999 -9999 -9999 -9999 -9999 -9999 -9999 -9999 -9999 -9999 -9999 -9999 -9999 -9999 -9999 -9999 -9999 -9999 -9999 -9999 -9999 -9999 -9999 3223 2966 2821 2647 2788 2684 2498 2475 2342 2439 2497 2438 2383 2226 2165 2081 1908 1782 1650 1574 1401 1041 1142 1222 1390 1561 1898 2197 2090 1867 1853 1779 1879 2075 2271 2522 2604 2567 2408 2205 2094 2146 2365 2676 2891 2918 3113 3250 3334 3291 3337 3497 3614 3530 3523 3382 3355 3082 3080 3249 3555 3566 3610 3410 3271 3356 3320 3057 3129 3009 3047 2979 2764 2559 2428 2384 2407 2573 2767 2648 2541 2612 2647 2680 2683 2680 2608 2663 2666 2658 2725 2772 2808 2860 2960 2931 2935 2969 2835 3012 2841 2830 2943 3084 3143 3139 2967 2754 2636 2657 2899 2916 2814 2875 2935 2715 2931 2796 2889 2926 3091 3195 3213 -9999 -9999 -9999 -9999 -9999 -9999 -9999 -9999 -9999 -9999 -9999 -9999 -9999 -9999 -9999 -9999 -9999 -9999 -9999 -9999 -9999 -9999 -9999 -9999 -9999 -9999 -9999 -9999 -9999 -9999 -9999 -9999 -9999 -9999 -9999 -9999 -9999 -9999 -9999 -9999 -9999 -9999 -9999 -9999 -9999 -9999 -9999 -9999 -9999 -9999 -9999 -9999 -9999 -9999 -9999 -9999 -9999 -9999 -9999 -9999 -9999 -9999 -9999 -9999 -9999 -9999 -9999 -9999 -9999 -9999 -9999 -9999 -9999 -9999 -9999 -9999 -9999 -9999 -9999 -9999 -9999 -9999 -9999 -9999 -9999 -9999 -9999 -9999 -9999 -9999 -9999 -9999 -9999 -9999 -9999 -9999 -9999 -9999 -9999 -9999 -9999 -9999 -9999 -9999 -9999 -9999 -9999 -9999 -9999 -9999 -9999 -9999 -9999 -9999 -9999 -9999 -9999 -9999 -9999 -9999 -9999 -9999 -9999 -9999 -9999 -9999 -9999 -9999 -9999 -9999 -9999 -9999 -9999 -9999 -9999 -9999 -9999 -9999 -9999 -9999 -9999 -9999 -9999 -9999 -9999 -9999 -9999 -9999 -9999 -9999 -9999 -9999 -9999 -9999 -9999 -9999 -9999 -9999 -9999 -9999 -9999 -9999 -9999 -9999 -9999 -9999 -9999 -9999 -9999 -9999 -9999 -9999 -9999 -9999 -9999 -9999 -9999 -9999 -9999 -9999 -9999 -9999 -9999 -9999 -9999 -9999 -9999 -9999 -9999 -9999 -9999 -9999 -9999 -9999 -9999 -9999 -9999 -9999 -9999 -9999 -9999 -9999 -9999 -9999
-9999 -9999 -9999 -9999 -9999 -9999 -9999 -9999 -9999 -9999 -9999 -9999 -9999 -9999 -9999 -9999 -9999 -9999 -9999 -9999 -9999 -9999 -9999 -9999 -9999 -9999 -9999 -9999 -9999 -9999 -9999 -9999 -9999 -9999 -9999 -9999 -9999 2994 2816 2538 2546 2677 2496 2161 1966 2150 2139 2239 2265 1946 1746 1828 1979 1818 1835 1775 1520 1381 1118 1278 1450 1586 1812 1927 1970 2268 2200 2108 2034 2009 2064 2164 2207 2216 2057 1952 1961 2101 2250 2380 2492 2552 2822 3006 3175 3310 3358 3517 3668 3599 3544 3470 3339 3155 3140 3247 3480 3559 3491 3394 3382 3270 3211 3099 3018 2964 2789 2828 2608 2545 2581 2591 2758 2728 2825 2761 2621 2706 2720 2741 2746 2718 2675 2739 2797 2782 2864 2964 2954 2992 3021 3048 3048 2996 2935 3045 2971 3052 2913 2989 3120 3129 2971 2808 2726 2707 2918 3025 2944 2955 2959 2757 2910 2924 2908 2961 3059 3192 -9999 -9999 -9999 -9999 -9999 -9999 -9999 -9999 -9999 -9999 -9999 -9999 -9999 -9999 -9999 -9999 -9999 -9999 -9999 -9999 -9999 -9999 -9999 -9999 -9999 -9999 -9999 -9999 -9999 -9999 -9999 -9999 -9999 -9999 -9999 -9999 -9999 -9999 -9999 -9999 -9999 -9999 -9999 -9999 -9999 -9999 -9999 -9999 -9999 -9999 -9999 -9999 -9999 -9999 -9999 -9999 -9999 -9999 -9999 -9999 -9999 -9999 -9999 -9999 -9999 -9999 -9999 -9999 -9999 -9999 -9999 -9999 -9999 -9999 -9999 -9999 -9999 -9999 -9999 -9999 -9999 -9999 -9999 -9999 -9999 -9999 -9999 -9999 -9999 -9999 -9999 -9999 -9999 -9999 -9999 -9999 -9999 -9999 -9999 -9999 -9999 -9999 -9999 -9999 -9999 -9999 -9999 -9999 -9999 -9999 -9999 -9999 -9999 -9999 -9999 -9999 -9999 -9999 -9999 -9999 -9999 -9999 -9999 -9999 -9999 -9999 -9999 -9999 -9999 -9999 -9999 -9999 -9999 -9999 -9999 -9999 -9999 -9999 -9999 -9999 -9999 -9999 -9999 -9999 -9999 -9999 -9999 -9999 -9999 -9999 -9999 -9999 -9999 -9999 -9999 -9999 -9999 -9999 -9999 -9999 -9999 -9999 -9999 -9999 -9999 -9999 -9999 -9999 -9999 -9999 -9999 -9999 -9999 -9999 -9999 -9999 -9999 -9999 -9999 -9999 -9999 -9999 -9999 -9999 -9999 -9999 -9999 -9999 -9999 -9999 -9999 -9999 -9999 -9999 -9999 -9999 -9999 -9999 -9999 -9999 -9999 -9999 -9999 -9999 -9999
-9999 -9999 -9999 -9999 -9999 -9999 -9999 -9999 -9999 -9999 -9999 -9999 -9999 -9999 -9999 -9999 -9999 -9999 -9999 -9999 -9999 -9999 -9999 -9999 -9999 -9999 -9999 -9999 -9999 -9999 -9999 -9999 -9999 -9999 -9999 -9999 -9999 2973 2842 2589 2400 2613 2529 2178 1895 1880 1904 2015 2065 1994 1640 1623 1767 1598 1626 1652 1417 1286 1060 1192 1252 1436 1589 1879 2031 2257 2019 1975 1908 1832 1858 1913 1977 1999 1940 1958 2040 2118 2168 2243 2435 2575 2797 2889 3154 3165 3177 3371 3640 3705 3561 3429 3319 3159 3151 3305 3479 3611 3562 3466 3399 3321 3314 3219 3186 2954 2676 2636 2534 2645 2671 2588 2855 2822 2826 2788 2660 2737 2768 2790 2785 2738 2719 2791 2830 2848 2969 3132 3076 3135 3112 3105 3128 3065 2994 3125 3097 3100 2958 2972 3168 3137 2968 2756 2802 2745 2912 3041 2990 2977 2892 2796 2950 2953 2988 2970 3106 3169 -9999 -9999 -9999 -9999 -9999 -9999 -9999 -9999 -9999 -9999 -9999 -9999 -9999 -9999 -9999 -9999 -9999 -9999 -9999 -9999 -9999 -9999 -9999 -9999 -9999 -9999 -9999 -9999 -9999 -9999 -9999 -9999 -9999 -9999 -9999 -9999 -9999 -9999 -9999 -9999 -9999 -9999 -9999 -9999 -9999 -9999 -9999 -9999 -9999 -9999 -9999 -9999 -9999 -9999 -9999 -9999 -9999 -9999 -9999 -9999 -9999 -9999 -9999 -9999 -9999 -9999 -9999 -9999 -9999 -9999 -9999 -9999 -9999 -9999 -9999 -9999 -9999 -9999 -9999 -9999 -9999 -9999 -9999 -9999 -9999 -9999 -9999 -9999 -9999 -9999 -9999 -9999 -9999 -9999 -9999 -9999 -9999 -9999 -9999 -9999 -9999 -9999 -9999 -9999 -9999 -9999 -9999 -9999 -9999 -9999 -9999 -9999 -9999 -9999 -9999 -9999 -9999 -9999 -9999 -9999 -9999 -9999 -9999 -9999 -9999 -9999 -9999 -9999 -9999 -9999 -9999 -9999 -9999 -9999 -9999 -9999 -9999 -9999 -9999 -9999 -9999 -9999 -9999 -9999 -9999 -9999 -9999 -9999 -9999 -9999 -9999 -9999 -9999 -9999 -9999 -9999 -9999 -9999 -9999 -9999 -9999 -9999 -9999 -9999 -9999 -9999 -9999 -9999 -9999 -9999 -9999 -9999 -9999 -9999 -9999 -9999 -9999 -9999 -9999 -9999 -9999 -9999 -9999 -9999 -9999 -9999 -9999 -9999 -9999 -9999 -9999 -9999 -9999 -9999 -9999 -9999 -9999 -9999 -9999 -9999 -9999 -9999 -9999 -9999 -9999
-9999 -9999 -9999 -9999 -9999 -9999 -9999 -9999 -9999 -9999 -9999 -9999 -9999 -9999 -9999 -9999 -9999 -9999 -9999 -9999 -9999 -9999 -9999 -9999 -9999 -9999 -9999 -9999 -9999 -9999 -9999 -9999 -9999 -9999 -9999 -9999 -9999 2894 2843 2858 2436 2353 2480 2346 2167 1923 1778 1583 1498 1582 1577 1480 1375 1208 1326 1333 1283 1335 1142 1132 1438 1866 2030 2108 2221 2062 1970 1676 1648 1575 1582 1614 1643 1714 1783 1996 1981 1962 2080 2210 2347 2391 2496 2791 2801 2874 3013 3219 3472 3535 3634 3514 3323 3272 3237 3444 3476 3371 3316 3301 3294 3331 3339 3211 3082 3018 2824 2654 2652 2886 2851 2814 2724 2912 2875 2837 2758 2772 2843 2897 2866 2837 2875 2868 2948 3038 3186 3359 3385 3378 3217 3198 3252 3212 3069 3225 3141 3080 3072 3090 3064 2985 2903 2906 2847 2841 2803 2971 3083 2922 2855 2921 2976 2987 3006 3100 3164 3286 -9999 -9999 -9999 -9999 -9999 -9999 -9999 -9999 -9999 -9999 -9999 -9999 -9999 -9999 -9999 -9999 -9999 -9999 -9999 -9999 -9999 -9999 -9999 -9999 -9999 -9999 -9999 -9999 -9999 -9999 -9999 -9999 -9999 -9999 -9999 -9999 -9999 -9999 -9999 -9999 -9999 -9999 -9999 -9999 -9999 -9999 -9999 -9999 -9999 -9999 -9999 -9999 -9999 -9999 -9999 -9999 -9999 -9999 -9999 -9999 -9999 -9999 -9999 -9999 -9999 -9999 -9999 -9999 -9999 -9999 -9999 -9999 -9999 -9999 -9999 -9999 -9999 -9999 -9999 -9999 -9999 -9999 -9999 -9999 -9999 -9999 -9999 -9999 -9999 -9999 -9999 -9999 -9999 -9999 -9999 -9999 -9999 -9999 -9999 -9999 -9999 -9999 -9999 -9999 -9999 -9999 -9999 -9999 -9999 -9999 -9999 -9999 -9999 -9999 -9999 -9999 -9999 -9999 -9999 -9999 -9999 -9999 -9999 -9999 -9999 -9999 -9999 -9999 -9999 -9999 -9999 -9999 -9999 -9999 -9999 -9999 -9999 -9999 -9999 -9999 -9999 -9999 -9999 -9999 -9999 -9999 -9999 -9999 -9999 -9999 -9999 -9999 -9999 -9999 -9999 -9999 -9999 -9999 -9999 -9999 -9999 -9999 -9999 -9999 -9999 -9999 -9999 -9999 -9999 -9999 -9999 -9999 -9999 -9999 -9999 -9999 -9999 -9999 -9999 -9999 -9999 -9999 -9999 -9999 -9999 -9999 -9999 -9999 -9999 -9999 -9999 -9999 -9999 -9999 -9999 -9999 -9999 -9999 -9999 -9999 -9999 -9999 -9999 -9999 -9999
-9999 -9999 -9999 -9999 -9999 -9999 -9999 -9999 -9999 -9999 -9999 -9999 -9999 -9999 -9999 -9999 -9999 -9999 -9999 -9999 -9999 -9999 -9999 -9999 -9999 -9999 -9999 -9999 -9999 -9999 -9999 -9999 -9999 -9999 -9999 -9999 -9999 2520 2553 2504 2502 2235 2107 2366 2305 2083 1919 1867 1680 1453 1295 1344 1444 1526 1682 1606 1331 1633 1404 1122 1243 1590 1858 2190 2162 1847 1672 1509 1448 1632 1861 1943 1969 1984 1926 1955 1944 1940 2029 2144 2227 2350 2646 2702 2973 3038 3253 3210 3387 3517 3647 3488 3388 3485 3396 3437 3552 3505 3362 3123 3047 3015 3022 3015 2837 2872 2712 2623 2827 2905 2896 2903 2774 2903 2966 2918 2813 2863 2897 2957 2952 2979 3009 3058 3132 3151 3287 3550 3507 3376 3314 3309 3372 3240 3255 3290 3213 3173 3120 3152 3113 3034 3134 3166 2993 2924 2943 2961 3061 2960 2947 3015 3129 3165 3174 3314 -9999 -9999 -9999 -9999 -9999 -9999 -9999 -9999 -9999 -9999 -9999 -9999 -9999 -9999 -9999 -9999 -9999 -9999 -9999 -9999 -9999 -9999 -9999 -9999 -9999 -9999 -9999 -9999 -9999 -9999 -9999 -9999 -9999 -9999 -9999 -9999 -9999 -9999 -9999 -9999 -9999 -9999 -9999 -9999 -9999 -9999 -9999 -9999 -9999 -9999 -9999 -9999 -9999 -9999 -9999 -9999 -9999 -9999 -9999 -9999 -9999 -9999 -9999 -9999 -9999 -9999 -9999 -9999 -9999 -9999 -9999 -9999 -9999 -9999 -9999 -9999 -9999 -9999 -9999 -9999 -9999 -9999 -9999 -9999 -9999 -9999 -9999 -9999 -9999 -9999 -9999 -9999 -9999 -9999 -9999 -9999 -9999 -9999 -9999 -9999 -9999 -9999 -9999 -9999 -9999 -9999 -9999 -9999 -9999 -9999 -9999 -9999 -9999 -9999 -9999 -9999 -9999 -9999 -9999 -9999 -9999 -9999 -9999 -9999 -9999 -9999 -9999 -9999 -9999 -9999 -9999 -9999 -9999 -9999 -9999 -9999 -9999 -9999 -9999 -9999 -9999 -9999 -9999 -9999 -9999 -9999 -9999 -9999 -9999 -9999 -9999 -9999 -9999 -9999 -9999 -9999 -9999 -9999 -9999 -9999 -9999 -9999 -9999 -9999 -9999 -9999 -9999 -9999 -9999 -9999 -9999 -9999 -9999 -9999 -9999 -9999 -9999 -9999 -9999 -9999 -9999 -9999 -9999 -9999 -9999 -9999 -9999 -9999 -9999 -9999 -9999 -9999 -9999 -9999 -9999 -9999 -9999 -9999 -9999 -9999 -9999 -9999 -9999 -9999 -9999 -9999 -9999
-9999 -9999 -9999 -9999 -9999 -9999 -9999 -9999 -9999 -9999 -9999 -9999 -9999 -9999 -9999 -9999 -9999 -9999 -9999 -9999 -9999 -9999 -9999 -9999 -9999 -9999 -9999 -9999 -9999 -9999 -9999 -9999 -9999 -9999 -9999 -9999 -9999 2545 2433 2363 2204 2118 2001 1869 2049 1908 1897 1791 1574 1367 1542 1674 1951 1836 1608 1507 1539 1822 1548 1406 1141 1257 1551 1524 1491 1459 1342 1599 1604 1780 2130 2344 2358 2194 2125 2136 2170 2085 2226 2295 2508 2580 2649 2926 3132 3227 3371 3351 3408 3470 3619 3626 3543 3508 3441 3551 3479 3331 3262 3175 3267 3216 3154 3037 3033 2804 2699 2817 2916 2914 2945 2911 2835 3038 3163 3129 2907 2986 3064 3034 3054 3211 3202 3350 3252 3266 3430 3620 3543 3463 3407 3537 3490 3483 3459 3397 3254 3227 3286 3242 -9999 3190 -9999 3218 3165 3161 3152 3133 3141 3113 3143 3245 3310 3298 -9999 -9999 -9999 -9999 -9999 -9999 -9999 -9999 -9999 -9999 -9999 -9999 -9999 -9999 -9999 -9999 -9999 -9999 -9999 -9999 -9999 -9999 -9999 -9999 -9999 -9999 -9999 -9999 -9999 -9999 -9999 -9999 -9999 -9999 -9999 -9999 -9999 -9999 -9999 -9999 -9999 -9999 -9999 -9999 -9999 -9999 -9999 -9999 -9999 -9999 -9999 -9999 -9999 -9999 -9999 -9999 -9999 -9999 -9999 -9999 -9999 -9999 -9999 -9999 -9999 -9999 -9999 -9999 -9999 -9999 -9999 -9999 -9999 -9999 -9999 -9999 -9999 -9999 -9999 -9999 -9999 -9999 -9999 -9999 -9999 -9999 -9999 -9999 -9999 -9999 -9999 -9999 -9999 -9999 -9999 -9999 -9999 -9999 -9999 -9999 -9999 -9999 -9999 -9999 -9999 -9999 -9999 -9999 -9999 -9999 -9999 -9999 -9999 -9999 -9999 -9999 -9999 -9999 -9999 -9999 -9999 -9999 -9999 -9999 -9999 -9999 -9999 -9999 -9999 -9999 -9999 -9999 -9999 -9999 -9999 -9999 -9999 -9999 -9999 -9999 -9999 -9999 -9999 -9999 -9999 -9999 -9999 -9999 -9999 -9999 -9999 -9999 -9999 -9999 -9999 -9999 -9999 -9999 -9999 -9999 -9999 -9999 -9999 -9999 -9999 -9999 -9999 -9999 -9999 -9999 -9999 -9999 -9999 -9999 -9999 -9999 -9999 -9999 -9999 -9999 -9999 -9999 -9999 -9999 -9999 -9999 -9999 -9999 -9999 -9999 -9999 -9999 -9999 -9999 -9999 -9999 -9999 -9999 -9999 -9999 -9999 -9999 -9999 -9999 -9999 -9999 -9999 -9999 -9999
-9999 -9999 -9999 -9999 -9999 -9999 -9999 -9999 -9999 -9999 -9999 -9999 -9999 -9999 -9999 -9999 -9999 -9999 -9999 -9999 -9999 -9999 -9999 -9999 -9999 -9999 -9999 -9999 -9999 -9999 -9999 -9999 -9999 -9999 -9999 -9999 -9999 2600 2553 2517 2395 2197 2172 1968 1883 1782 1731 1643 1463 1448 1628 1679 1931 1928 1664 1540 1729 1932 1726 1642 1239 1207 1293 1259 1273 1305 1457 1681 1781 1883 2074 2454 2425 2319 2188 2229 2253 2200 2287 2516 2575 2708 2815 2935 3164 3199 3232 3298 3470 3530 3520 3613 3475 3400 3365 3472 3523 3371 3332 3243 3307 3313 3265 3132 2987 2759 2767 2901 2953 2932 2989 2947 2854 3154 3249 3233 2971 2991 3171 3079 3125 3370 3279 3437 3306 3348 3569 3678 3652 3496 3457 3613 3565 3641 3544 3418 3290 3316 -9999 -9999 -9999 -9999 -9999 -9999 -9999 -9999 -9999 -9999 -9999 3220 -9999 -9999 -9999 -9999 -9999 -9999 -9999 -9999 -9999 -9999 -9999 -9999 -9999 -9999 -9999 -9999 -9999 -9999 -9999 -9999 -9999 -9999 -9999 -9999 -9999 -9999 -9999 -9999 -9999 -9999 -9999 -9999 -9999 -9999 -9999 -9999 -9999 -9999 -9999 -9999 -9999 -9999 -9999 -9999 -9999 -9999 -9999 -9999 -9999 -9999 -9999 -9999 -9999 -9999 -9999 -9999 -9999 -9999 -9999 -9999 -9999 -9999 -9999 -9999 -9999 -9999 -9999 -9999 -9999 -9999 -9999 -9999 -9999 -9999 -9999 -9999 -9999 -9999 -9999 -9999 -9999 -9999 -9999 -9999 -9999 -9999 -9999 -9999 -9999 -9999 -9999 -9999 -9999 -9999 -9999 -9999 -9999 -9999 -9999 -9999 -9999 -9999 -9999 -9999 -9999 -9999 -9999 -9999 -9999 -9999 -9999 -9999 -9999 -9999 -9999 -9999 -9999 -9999 -9999 -9999 -9999 -9999 -9999 -9999 -9999 -9999 -9999 -9999 -9999 -9999 -9999 -9999 -9999 -9999 -9999 -9999 -9999 -9999 -9999 -9999 -9999 -9999 -9999 -9999 -9999 -9999 -9999 -9999 -9999 -9999 -9999 -9999 -9999 -9999 -9999 -9999 -9999 -9999 -9999 -9999 -9999 -9999 -9999 -9999 -9999 -9999 -9999 -9999 -9999 -9999 -9999 -9999 -9999 -9999 -9999 -9999 -9999 -9999 -9999 -9999 -9999 -9999 -9999 -9999 -9999 -9999 -9999 -9999 -9999 -9999 -9999 -9999 -9999 -9999 -9999 -9999 -9999 -9999 -9999 -9999 -9999 -9999 -9999 -9999 -9999 -9999 -9999 -9999 -9999 -9999 -9999 -9999 -9999
-9999 -9999 -9999 -9999 -9999 -9999 -9999 -9999 -9999 -9999 -9999 -9999 -9999 -9999 -9999 -9999 -9999 -9999 -9999 -9999 -9999 -9999 -9999 -9999 -9999 -9999 -9999 -9999 -9999 -9999 -9999 -9999 -9999 -9999 -9999 -9999 -9999 2765 2687 2449 2294 2037 1947 2027 1779 1654 1641 1586 1502 1693 1790 1896 2140 2112 1899 1982 2351 2177 1803 1590 1325 1120 1361 1543 1621 1744 1828 2038 2104 2322 2438 2443 2497 2309 2217 2342 2452 2504 2595 2763 2898 2851 2819 2851 2832 2886 3072 3231 3325 3349 3471 3425 3389 3181 3187 3336 3510 3542 3485 3334 3278 3183 3145 2935 2862 2788 2845 2946 3009 3024 3094 3029 2884 3194 3381 3297 3058 3016 3238 3138 3175 3521 3485 3483 3418 3415 3783 3875 3784 3583 3573 -9999 -9999 -9999 3648 3484 3458 -9999 -9999 -9999 -9999 -9999 -9999 -9999 -9999 -9999 -9999 -9999 -9999 -9999 -9999 -9999 -9999 -9999 -9999 -9999 -9999 -9999 -9999 -9999 -9999 -9999 -9999 -9999 -9999 -9999 -9999 -9999 -9999 -9999 -9999 -9999 -9999 -9999 -9999 -9999 -9999 -9999 -9999 -9999 -9999 -9999 -9999 -9999 -9999 -9999 -9999 -9999 -9999 -9999 -9999 -9999 -9999 -9999 -9999 -9999 -9999 -9999 -9999 -9999 -9999 -9999 -9999 -9999 -9999 -9999 -9999 -9999 -9999 -9999 -9999 -9999 -9999 -9999 -9999 -9999 -9999 -9999 -9999 -9999 -9999 -9999 -9999 -9999 -9999 -9999 -9999 -9999 -9999 -9999 -9999 -9999 -9999 -9999 -9999 -9999 -9999 -9999 -9999 -9999 -9999 -9999 -9999 -9999 -9999 -9999 -9999 -9999 -9999 -9999 -9999 -9999 -9999 -9999 -9999 -9999 -9999 -9999 -9999 -9999 -9999 -9999 -9999 -9999 -9999 -9999 -9999 -9999 -9999 -9999 -9999 -9999 -9999 -9999 -9999 -9999 -9999 -9999 -9999 -9999 -9999 -9999 -9999 -9999 -9999 -9999 -9999 -9999 -9999 -9999 -9999 -9999 -9999 -9999 -9999 -9999 -9999 -9999 -9999 -9999 -9999 -9999 -9999 -9999 -9999 -9999 -9999 -9999 -9999 -9999 -9999 -9999 -9999 -9999 -9999 -9999 -9999 -9999 -9999 -9999 -9999 -9999 -9999 -9999 -9999 -9999 -9999 -9999 -9999 -9999 -9999 -9999 -9999 -9999 -9999 -9999 -9999 -9999 -9999 -9999 -9999 -9999 -9999 -9999 -9999 -9999 -9999 -9999 -9999 -9999 -9999 -9999 -9999 -9999 -9999 -9999 -9999 -9999 -9999 -9999 -9999 -9999 -9999
-9999 -9999 -9999 -9999 -9999 -9999 -9999 -9999 -9999 -9999 -9999 -9999 -9999 -9999 -9999 -9999 -9999 -9999 -9999 -9999 -9999 -9999 -9999 -9999 -9999 -9999 -9999 -9999 -9999 -9999 -9999 -9999 -9999 -9999 -9999 -9999 -9999 2818 2688 2442 2288 2180 2073 1767 1993 2001 2016 1799 1894 1831 1912 2055 2460 2446 2270 2372 2424 2383 2193 1999 1605 1292 1171 1181 1324 1424 1701 1964 2103 2174 2187 1978 2109 2035 2016 2242 2399 2740 2765 2688 2600 2577 2521 2627 2827 2949 3184 3370 3176 3293 3384 3121 3196 3066 3033 3068 3283 3491 3500 3450 3333 3230 3151 3022 3128 3015 2806 2833 2986 3156 3212 3185 2942 3018 3304 3318 3078 3107 3389 3222 3223 3486 3786 3602 3531 3524 3686 -9999 -9999 -9999 -9999 -9999 -9999 -9999 -9999 -9999 -9999 -9999 -9999 -9999 -9999 -9999 -9999 -9999 -9999 -9999 -9999 -9999 -9999 -9999 -9999 -9999 -9999 -9999 -9999 -9999 -9999 -9999 -9999 -9999 -9999 -9999 -9999 -9999 -9999 -9999 -9999 -9999 -9999 -9999 -9999 -9999 -9999 -9999 -9999 -9999 -9999 -9999 -9999 -9999 -9999 -9999 -9999 -9999 -9999 -9999 -9999 -9999 -9999 -9999 -9999 -9999 -9999 -9999 -9999 -9999 -9999 -9999 -9999 -9999 -9999 -9999 -9999 -9999 -9999 -9999 -9999 -9999 -9999 -9999 -9999 -9999 -9999 -9999 -9999 -9999 -9999 -9999 -9999 -9999 -9999 -9999 -9999 -9999 -9999 -9999 -9999 -9999 -9999 -9999 -9999 -9999 -9999 -9999 -9999 -9999 -9999 -9999 -9999 -9999 -9999 -9999 -9999 -9999 -9999 -9999 -9999 -9999 -9999 -9999 -9999 -9999 -9999 -9999 -9999 -9999 -9999 -9999 -9999 -9999 -9999 -9999 -9999 -9999 -9999 -9999 -9999 -9999 -9999 -9999 -9999 -9999 -9999 -9999 -9999 -9999 -9999 -9999 -9999 -9999 -9999 -9999 -9999 -9999 -9999 -9999 -9999 -9999 -9999 -9999 -9999 -9999 -9999 -9999 -9999 -9999 -9999 -9999 -9999 -9999 -9999 -9999 -9999 -9999 -9999 -9999 -9999 -9999 -9999 -9999 -9999 -9999 -9999 -9999 -9999 -9999 -9999 -9999 -9999 -9999 -9999 -9999 -9999 -9999 -9999 -9999 -9999 -9999 -9999 -9999 -9999 -9999 -9999 -9999 -9999 -9999 -9999 -9999 -9999 -9999 -9999 -9999 -9999 -9999 -9999 -9999 -9999 -9999 -9999 -9999 -9999 -9999 -9999 -9999 -9999 -9999 -9999 -9999 -9999 -9999 -9999 -9999 -9999
-9999 -9999 -9999 -9999 -9999 -9999 -9999 -9999 -9999 -9999 -9999 -9999 -9999 -9999 -9999 -9999 -9999 -9999 -9999 -9999 -9999 -9999 -9999 -9999 -9999 -9999 -9999 -9999 -9999 -9999 -9999 -9999 -9999 -9999 -9999 -9999 -9999 -9999 2845 2682 2386 2130 2041 1915 2039 2391 2427 2191 2272 2280 2496 2575 2669 2691 2642 2633 2704 2646 2219 1961 1730 1547 1340 1528 1516 1454 1271 1551 1652 1893 1768 1717 1732 1795 1958 2203 2383 2640 2499 2284 2240 2317 2560 2839 3001 2941 2888 2972 2912 3015 3019 2933 2932 3059 2986 2934 3141 3264 3318 3411 3352 3335 3274 3097 3150 3170 2901 2850 3049 3215 3321 3269 3083 2970 3250 3366 3119 3213 3550 3400 3338 3421 3736 3870 3837 3853 3863 -9999 -9999 -9999 -9999 -9999 -9999 -9999 -9999 -9999 -9999 -9999 -9999 -9999 -9999 -9999 -9999 -9999 -9999 -9999 -9999 -9999 -9999 -9999 -9999 -9999 -9999 -9999 -9999 -9999 -9999 -9999 -9999 -9999 -9999 -9999 -9999 -9999 -9999 -9999 -9999 -9999 -9999 -9999 -9999 -9999 -9999 -9999 -9999 -9999 -9999 -9999 -9999 -9999 -9999 -9999 -9999 -9999 -9999 -9999 -9999 -9999 -9999 -9999 -9999 -9999 -9999 -9999 -9999 -9999 -9999 -9999 -9999 -9999 -9999 -9999 -9999 -9999 -9999 -9999 -9999 -9999 -9999 -9999 -9999 -9999 -9999 -9999 -9999 -9999 -9999 -9999 -9999 -9999 -9999 -9999 -9999 -9999 -9999 -9999 -9999 -9999 -9999 -9999 -9999 -9999 -9999 -9999 -9999 -9999 -9999 -9999 -9999 -9999 -9999 -9999 -9999 -9999 -9999 -9999 -9999 -9999 -9999 -9999 -9999 -9999 -9999 -9999 -9999 -9999 -9999 -9999 -9999 -9999 -9999 -9999 -9999 -9999 -9999 -9999 -9999 -9999 -9999 -9999 -9999 -9999 -9999 -9999 -9999 -9999 -9999 -9999 -9999 -9999 -9999 -9999 -9999 -9999 -9999 -9999 -9999 -9999 -9999 -9999 -9999 -9999 -9999 -9999 -9999 -9999 -9999 -9999 -9999 -9999 -9999 -9999 -9999 -9999 -9999 -9999 -9999 -9999 -9999 -9999 -9999 -9999 -9999 -9999 -9999 -9999 -9999 -9999 -9999 -9999 -9999 -9999 -9999 -9999 -9999 -9999 -9999 -9999 -9999 -9999 -9999 -9999 -9999 -9999 -9999 -9999 -9999 -9999 -9999 -9999 -9999 -9999 -9999 -9999 -9999 -9999 -9999 -9999 -9999 -9999 -9999 -9999 -9999 -9999 -9999 -9999 -9999 -9999 -9999 -9999 -9999 -9999 -9999
-9999 -9999 -9999 -9999 -9999 -9999 -9999 -9999 -9999 -9999 -9999 -9999 -9999 -9999 -9999 -9999 -9999 -9999 -9999 -9999 -9999 -9999 -9999 -9999 -9999 -9999 -9999 -9999 -9999 -9999 -9999 -9999 -9999 -9999 -9999 -9999 -9999 2600 2623 2485 2285 2220 2262 2188 2184 2319 2483 2698 2667 2596 2605 2585 2636 2691 2750 2770 2706 2599 2190 1934 1564 1336 1181 1434 1635 1603 1296 1371 1457 1464 1559 1793 1882 2058 2224 2231 2138 2170 2115 2016 2386 2522 2783 2816 2748 2581 2460 2604 2757 2664 2671 2596 2696 2772 2814 2929 3046 3139 3202 3151 3176 3222 3203 3209 3248 3230 2958 2891 3013 3260 3397 3296 3182 2994 3202 3309 3176 3330 3683 3513 3432 3455 3814 -9999 -9999 -9999 -9999 -9999 -9999 -9999 -9999 -9999 -9999 -9999 -9999 -9999 -9999 -9999 -9999 -9999 -9999 -9999 -9999 -9999 -9999 -9999 -9999 -9999 -9999 -9999 -9999 -9999 -9999 -9999 -9999 -9999 -9999 -9999 -9999 -9999 -9999 -9999 -9999 -9999 -9999 -9999 -9999 -9999 -9999 -9999 -9999 -9999 -9999 -9999 -9999 -9999 -9999 -9999 -9999 -9999 -9999 -9999 -9999 -9999 -9999 -9999 -9999 -9999 -9999 -9999 -9999 -9999 -9999 -9999 -9999 -9999 -9999 -9999 -9999 -9999 -9999 -9999 -9999 -9999 -9999 -9999 -9999 -9999 -9999 -9999 -9999 -9999 -9999 -9999 -9999 -9999 -9999 -9999 -9999 -9999 -9999 -9999 -9999 -9999 -9999 -9999 -9999 -9999 -9999 -9999 -9999 -9999 -9999 -9999 -9999 -9999 -9999 -9999 -9999 -9999 -9999 -9999 -9999 -9999 -9999 -9999 -9999 -9999 -9999 -9999 -9999 -9999 -9999 -9999 -9999 -9999 -9999 -9999 -9999 -9999 -9999 -9999 -9999 -9999 -9999 -9999 -9999 -9999 -9999 -9999 -9999 -9999 -9999 -9999 -9999 -9999 -9999 -9999 -9999 -9999 -9999 -9999 -9999 -9999 -9999 -9999 -9999 -9999 -9999 -9999 -9999 -9999 -9999 -9999 -9999 -9999 -9999 -9999 -9999 -9999 -9999 -9999 -9999 -9999 -9999 -9999 -9999 -9999 -9999 -9999 -9999 -9999 -9999 -9999 -9999 -9999 -9999 -9999 -9999 -9999 -9999 -9999 -9999 -9999 -9999 -9999 -9999 -9999 -9999 -9999 -9999 -9999 -9999 -9999 -9999 -9999 -9999 -9999 -9999 -9999 -9999 -9999 -9999 -9999 -9999 -9999 -9999 -9999 -9999 -9999 -9999 -9999 -9999 -9999 -9999 -9999 -9999 -9999 -9999 -9999 -9999 -9999 -9999
-9999 -9999 -9999 -9999 -9999 -9999 -9999 -9999 -9999 -9999 -9999 -9999 -9999 -9999 -9999 -9999 -9999 -9999 -9999 -9999 -9999 -9999 -9999 -9999 -9999 -9999 -9999 -9999 -9999 -9999 -9999 -9999 -9999 -9999 -9999 -9999 -9999 2525 2439 2411 2218 2364 2385 2309 2305 2382 2508 2552 2576 2522 2544 2539 2647 2736 2776 2792 2669 2526 2159 2016 1681 1307 1264 1546 1712 1565 1355 1301 1329 1474 1699 1963 2068 2229 2364 2246 2094 1965 1931 2045 2384 2542 2771 2624 2512 2475 2403 2552 2558 2500 2467 2568 2671 2777 2841 2880 2930 3004 3099 3054 3124 3048 3093 3298 3321 3201 2991 2907 3062 3193 3390 3350 3234 3023 3196 3367 3228 3344 3731 3550 3472 3466 3843 -9999 -9999 -9999 -9999 -9999 -9999 -9999 -9999 -9999 -9999 -9999 -9999 -9999 -9999 -9999 -9999 -9999 -9999 -9999 -9999 -9999 -9999 -9999 -9999 -9999 -9999 -9999 -9999 -9999 -9999 -9999 -9999 -9999 -9999 -9999 -9999 -9999 -9999 -9999 -9999 -9999 -9999 -9999 -9999 -9999 -9999 -9999 -9999 -9999 -9999 -9999 -9999 -9999 -9999 -9999 -9999 -9999 -9999 -9999 -9999 -9999 -9999 -9999 -9999 -9999 -9999 -9999 -9999 -9999 -9999 -9999 -9999 -9999 -9999 -9999 -9999 -9999 -9999 -9999 -9999 -9999 -9999 -9999 -9999 -9999 -9999 -9999 -9999 -9999 -9999 -9999 -9999 -9999 -9999 -9999 -9999 -9999 -9999 -9999 -9999 -9999 -9999 -9999 -9999 -9999 -9999 -9999 -9999 -9999 -9999 -9999 -9999 -9999 -9999 -9999 -9999 -9999 -9999 -9999 -9999 -9999 -9999 -9999 -9999 -9999 -9999 -9999 -9999 -9999 -9999 -9999 -9999 -9999 -9999 -9999 -9999 -9999 -9999 -9999 -9999 -9999 -9999 -9999 -9999 -9999 -9999 -9999 -9999 -9999 -9999 -9999 -9999 -9999 -9999 -9999 -9999 -9999 -9999 -9999 -9999 -9999 -9999 -9999 -9999 -9999 -9999 -9999 -9999 -9999 -9999 -9999 -9999 -9999 -9999 -9999 -9999 -9999 -9999 -9999 -9999 -9999 -9999 -9999 -9999 -9999 -9999 -9999 -9999 -9999 -9999 -9999 -9999 -9999 -9999 -9999 -9999 -9999 -9999 -9999 -9999 -9999 -9999 -9999 -9999 -9999 -9999 -9999 -9999 -9999 -9999 -9999 -9999 -9999 -9999 -9999 -9999 -9999 -9999 -9999 -9999 -9999 -9999 -9999 -9999 -9999 -9999 -9999 -9999 -9999 -9999 -9999 -9999 -9999 -9999 -9999 -9999 -9999 -9999 -9999 -9999
-9999 -9999 -9999 -9999 -9999 -9999 -9999 -9999 -9999 -9999 -9999 -9999 -9999 -9999 -9999 -9999 -9999 -9999 -9999 -9999 -9999 -9999 -9999 -9999 -9999 -9999 -9999 -9999 -9999 -9999 -9999 -9999 -9999 -9999 -9999 -9999 2801 2641 2510 2342 2490 2598 2470 2407 2625 2564 2602 2504 2294 2156 2317 2367 2565 2683 2753 2781 2477 2245 1767 1597 1339 1288 1599 1954 2093 2009 1723 1381 1275 1449 1610 1808 1909 2086 2117 2184 2195 1905 1731 1935 2235 2373 2319 2342 2122 2127 2109 2186 2235 2327 2614 2776 2916 3031 3061 3018 2946 3062 3072 3055 2893 2843 2937 3165 3279 3313 3104 2979 3042 3253 3404 3485 3276 3084 3291 3448 3376 3342 3671 3563 3595 3682 3904 -9999 -9999 -9999 -9999 -9999 -9999 -9999 -9999 -9999 -9999 -9999 -9999 -9999 -9999 -9999 -9999 -9999 -9999 -9999 -9999 -9999 -9999 -9999 -9999 -9999 -9999 -9999 -9999 -9999 -9999 -9999 -9999 -9999 -9999 -9999 -9999 -9999 -9999 -9999 -9999 -9999 -9999 -9999 -9999 -9999 -9999 -9999 -9999 -9999 -9999 -9999 -9999 -9999 -9999 -9999 -9999 -9999 -9999 -9999 -9999 -9999 -9999 -9999 -9999 -9999 -9999 -9999 -9999 -9999 -9999 -9999 -9999 -9999 -9999 -9999 -9999 -9999 -9999 -9999 -9999 -9999 -9999 -9999 -9999 -9999 -9999 -9999 -9999 -9999 -9999 -9999 -9999 -9999 -9999 -9999 -9999 -9999 -9999 -9999 -9999 -9999 -9999 -9999 -9999 -9999 -9999 -9999 -9999 -9999 -9999 -9999 -9999 -9999 -9999 -9999 -9999 -9999 -9999 -9999 -9999 -9999 -9999 -9999 -9999 -9999 -9999 -9999 -9999 -9999 -9999 -9999 -9999 -9999 -9999 -9999 -9999 -9999 -9999 -9999 -9999 -9999 -9999 -9999 -9999 -9999 -9999 -9999 -9999 -9999 -9999 -9999 -9999 -9999 -9999 -9999 -9999 -9999 -9999 -9999 -9999 -9999 -9999 -9999 -9999 -9999 -9999 -9999 -9999 -9999 -9999 -9999 -9999 -9999 -9999 -9999 -9999 -9999 -9999 -9999 -9999 -9999 -9999 -9999 -9999 -9999 -9999 -9999 -9999 -9999 -9999 -9999 -9999 -9999 -9999 -9999 -9999 -9999 -9999 -9999 -9999 -9999 -9999 -9999 -9999 -9999 -9999 -9999 -9999 -9999 -9999 -9999 -9999 -9999 -9999 -9999 -9999 -9999 -9999 -9999 -9999 -9999 -9999 -9999 -9999 -9999 -9999 -9999 -9999 -9999 -9999 -9999 -9999 -9999 -9999 -9999 -9999 -9999 -9999 -9999 -9999
-9999 -9999 -9999 -9999 -9999 -9999 -9999 -9999 -9999 -9999 -9999 -9999 -9999 -9999 -9999 -9999 -9999 -9999 -9999 -9999 -9999 -9999 -9999 -9999 -9999 -9999 -9999 -9999 -9999 -9999 -9999 -9999 -9999 -9999 -9999 -9999 -9999 2739 2674 2455 2607 2785 2681 2608 2664 2579 2468 2300 2251 2133 2079 2168 2178 2196 2460 2502 2215 1905 1490 1328 1341 1694 2048 2113 2127 2103 1906 1554 1473 1429 1347 1562 1653 1796 1728 1976 1959 1860 1652 1945 2089 2033 1937 2006 1892 2047 2278 2295 2431 2517 2553 2476 2671 2635 2725 2753 2814 2876 2830 2838 2640 2773 2828 2877 3021 3254 3136 3052 3030 3253 3448 3392 3319 3179 3328 3513 3532 3417 3523 3769 3793 -9999 -9999 -9999 -9999 -9999 -9999 -9999 -9999 -9999 -9999 -9999 -9999 -9999 -9999 -9999 -9999 -9999 -9999 -9999 -9999 -9999 -9999 -9999 -9999 -9999 -9999 -9999 -9999 -9999 -9999 -9999 -9999 -9999 -9999 -9999 -9999 -9999 -9999 -9999 -9999 -9999 -9999 -9999 -9999 -9999 -9999 -9999 -9999 -9999 -9999 -9999 -9999 -9999 -9999 -9999 -9999 -9999 -9999 -9999 -9999 -9999 -9999 -9999 -9999 -9999 -9999 -9999 -9999 -9999 -9999 -9999 -9999 -9999 -9999 -9999 -9999 -9999 -9999 -9999 -9999 -9999 -9999 -9999 -9999 -9999 -9999 -9999 -9999 -9999 -9999 -9999 -9999 -9999 -9999 -9999 -9999 -9999 -9999 -9999 -9999 -9999 -9999 -9999 -9999 -9999 -9999 -9999 -9999 -9999 -9999 -9999 -9999 -9999 -9999 -9999 -9999 -9999 -9999 -9999 -9999 -9999 -9999 -9999 -9999 -9999 -9999 -9999 -9999 -9999 -9999 -9999 -9999 -9999 -9999 -9999 -9999 -9999 -9999 -9999 -9999 -9999 -9999 -9999 -9999 -9999 -9999 -9999 -9999 -9999 -9999 -9999 -9999 -9999 -9999 -9999 -9999 -9999 -9999 -9999 -9999 -9999 -9999 -9999 -9999 -9999 -9999 -9999 -9999 -9999 -9999 -9999 -9999 -9999 -9999 -9999 -9999 -9999 -9999 -9999 -9999 -9999 -9999 -9999 -9999 -9999 -9999 -9999 -9999 -9999 -9999 -9999 -9999 -9999 -9999 -9999 -9999 -9999 -9999 -9999 -9999 -9999 -9999 -9999 -9999 -9999 -9999 -9999 -9999 -9999 -9999 -9999 -9999 -9999 -9999 -9999 -9999 -9999 -9999 -9999 -9999 -9999 -9999 -9999 -9999 -9999 -9999 -9999 -9999 -9999 -9999 -9999 -9999 -9999 -9999 -9999 -9999 -9999 -9999 -9999 -9999 -9999 -9999
-9999 -9999 -9999 -9999 -9999 -9999 -9999 -9999 -9999 -9999 -9999 -9999 -9999 -9999 -9999 -9999 -9999 -9999 -9999 -9999 -9999 -9999 -9999 -9999 -9999 -9999 -9999 -9999 -9999 -9999 -9999 -9999 -9999 -9999 -9999 -9999 -9999 -9999 2728 2535 2638 2873 2821 2581 2475 2261 2339 2155 2043 2215 2084 1948 1990 1918 1897 1984 1936 1566 1341 1260 1617 1856 1985 2020 2063 2140 2158 1766 1624 1414 1565 1356 1373 1479 1468 1507 1517 1539 1545 1605 1805 1802 1768 1821 1778 1812 1899 1948 2125 2113 2074 2320 2291 2425 2488 2582 2605 2640 2620 2498 2498 2604 2667 2807 3052 3167 3301 3300 3133 3141 3335 3429 3490 3329 3323 3398 3591 3523 3554 3704 -9999 -9999 -9999 -9999 -9999 -9999 -9999 -9999 -9999 -9999 -9999 -9999 -9999 -9999 -9999 -9999 -9999 -9999 -9999 -9999 -9999 -9999 -9999 -9999 -9999 -9999 -9999 -9999 -9999 -9999 -9999 -9999 -9999 -9999 -9999 -9999 -9999 -9999 -9999 -9999 -9999 -9999 -9999 -9999 -9999 -9999 -9999 -9999 -9999 -9999 -9999 -9999 -9999 -9999 -9999 -9999 -9999 -9999 -9999 -9999 -9999 -9999 -9999 -9999 -9999 -9999 -9999 -9999 -9999 -9999 -9999 -9999 -9999 -9999 -9999 -9999 -9999 -9999 -9999 -9999 -9999 -9999 -9999 -9999 -9999 -9999 -9999 -9999 -9999 -9999 -9999 -9999 -9999 -9999 -9999 -9999 -9999 -9999 -9999 -9999 -9999 -9999 -9999 -9999 -9999 -9999 -9999 -9999 -9999 -9999 -9999 -9999 -9999 -9999 -9999 -9999 -9999 -9999 -9999 -9999 -9999 -9999 -9999 -9999 -9999 -9999 -9999 -9999 -9999 -9999 -9999 -9999 -9999 -9999 -9999 -9999 -9999 -9999 -9999 -9999 -9999 -9999 -9999 -9999 -9999 -9999 -9999 -9999 -9999 -9999 -9999 -9999 -9999 -9999 -9999 -9999 -9999 -9999 -9999 -9999 -9999 -9999 -9999 -9999 -9999 -9999 -9999 -9999 -9999 -9999 -9999 -9999 -9999 -9999 -9999 -9999 -9999 -9999 -9999 -9999 -9999 -9999 -9999 -9999 -9999 -9999 -9999 -9999 -9999 -9999 -9999 -9999 -9999 -9999 -9999 -9999 -9999 -9999 -9999 -9999 -9999 -9999 -9999 -9999 -9999 -9999 -9999 -9999 -9999 -9999 -9999 -9999 -9999 -9999 -9999 -9999 -9999 -9999 -9999 -9999 -9999 -9999 -9999 -9999 -9999 -9999 -9999 -9999 -9999 -9999 -9999 -9999 -9999 -9999 -9999 -9999 -9999 -9999 -9999 -9999 -9999 -9999 -9999
-9999 -9999 -9999 -9999 -9999 -9999 -9999 -9999 -9999 -9999 -9999 -9999 -9999 -9999 -9999 -9999 -9999 -9999 -9999 -9999 -9999 -9999 -9999 -9999 -9999 -9999 -9999 -9999 -9999 -9999 -9999 -9999 -9999 -9999 -9999 -9999 -9999 2772 2699 2668 2738 2835 2713 2488 2368 2146 2156 2187 2004 2095 2175 2065 1856 1881 1808 1792 1791 1561 1251 1359 1636 1792 1991 2044 2088 2191 2196 1836 1686 1466 1776 1529 1457 1411 1425 1533 1568 1598 1672 1605 1627 1648 1661 1702 1749 1751 1785 1860 1924 1902 1935 2225 2255 2222 2345 2421 2428 2471 2438 2408 2538 2657 2751 2874 3095 3261 3385 3441 3244 3141 3367 3527 3526 3413 3345 3456 3544 3630 3710 3790 -9999 -9999 -9999 -9999 -9999 -9999 -9999 -9999 -9999 -9999 -9999 -9999 -9999 -9999 -9999 -9999 -9999 -9999 -9999 -9999 -9999 -9999 -9999 -9999 -9999 -9999 -9999 -9999 -9999 -9999 -9999 -9999 -9999 -9999 -9999 -9999 -9999 -9999 -9999 -9999 -9999 -9999 -9999 -9999 -9999 -9999 -9999 -9999 -9999 -9999 -9999 -9999 -9999 -9999 -9999 -9999 -9999 -9999 -9999 -9999 -9999 -9999 -9999 -9999 -9999 -9999 -9999 -9999 -9999 -9999 -9999 -9999 -9999 -9999 -9999 -9999 -9999 -9999 -9999 -9999 -9999 -9999 -9999 -9999 -9999 -9999 -9999 -9999 -9999 -9999 -9999 -9999 -9999 -9999 -9999 -9999 -9999 -9999 -9999 -9999 -9999 -9999 -9999 -9999 -9999 -9999 -9999 -9999 -9999 -9999 -9999 -9999 -9999 -9999 -9999 -9999 -9999 -9999 -9999 -9999 -9999 -9999 -9999 -9999 -9999 -9999 -9999 -9999 -9999 -9999 -9999 -9999 -9999 -9999 -9999 -9999 -9999 -9999 -9999 -9999 -9999 -9999 -9999 -9999 -9999 -9999 -9999 -9999 -9999 -9999 -9999 -9999 -9999 -9999 -9999 -9999 -9999 -9999 -9999 -9999 -9999 -9999 -9999 -9999 -9999 -9999 -9999 -9999 -9999 -9999 -9999 -9999 -9999 -9999 -9999 -9999 -9999 -9999 -9999 -9999 -9999 -9999 -9999 -9999 -9999 -9999 -9999 -9999 -9999 -9999 -9999 -9999 -9999 -9999 -9999 -9999 -9999 -9999 -9999 -9999 -9999 -9999 -9999 -9999 -9999 -9999 -9999 -9999 -9999 -9999 -9999 -9999 -9999 -9999 -9999 -9999 -9999 -9999 -9999 -9999 -9999 -9999 -9999 -9999 -9999 -9999 -9999 -9999 -9999 -9999 -9999 -9999 -9999 -9999 -9999 -9999 -9999 -9999 -9999 -9999 -9999 -9999 -9999
-9999 -9999 -9999 -9999 -9999 -9999 -9999 -9999 -9999 -9999 -9999 -9999 -9999 -9999 -9999 -9999 -9999 -9999 -9999 -9999 -9999 -9999 -9999 -9999 -9999 -9999 -9999 -9999 -9999 -9999 -9999 -9999 -9999 -9999 -9999 -9999 -9999 -9999 2708 2766 2918 2798 2660 2417 2389 2191 2070 1964 1950 1933 2148 2164 2054 1849 1729 1697 1512 1419 1366 1420 1367 1628 1918 2071 2114 2230 2100 1829 1745 1538 1833 1934 1804 1627 1611 1723 1877 1999 1762 1789 1920 1930 2024 2015 1985 1988 1975 1968 1977 2041 1975 1971 2021 2166 2149 2171 2241 2277 2329 2424 2609 2755 2661 2823 2986 3117 3271 3368 3387 3367 3334 3420 3576 3427 3540 3634 -9999 -9999 -9999 -9999 -9999 -9999 -9999 -9999 -9999 -9999 -9999 -9999 -9999 -9999 -9999 -9999 -9999 -9999 -9999 -9999 -9999 -9999 -9999 -9999 -9999 -9999 -9999 -9999 -9999 -9999 -9999 -9999 -9999 -9999 -9999 -9999 -9999 -9999 -9999 -9999 -9999 -9999 -9999 -9999 -9999 -9999 -9999 -9999 -9999 -9999 -9999 -9999 -9999 -9999 -9999 -9999 -9999 -9999 -9999 -9999 -9999 -9999 -9999 -9999 -9999 -9999 -9999 -9999 -9999 -9999 -9999 -9999 -9999 -9999 -9999 -9999 -9999 -9999 -9999 -9999 -9999 -9999 -9999 -9999 -9999 -9999 -9999 -9999 -9999 -9999 -9999 -9999 -9999 -9999 -9999 -9999 -9999 -9999 -9999 -9999 -9999 -9999 -9999 -9999 -9999 -9999 -9999 -9999 -9999 -9999 -9999 -9999 -9999 -9999 -9999 -9999 -9999 -9999 -9999 -9999 -9999 -9999 -9999 -9999 -9999 -9999 -9999 -9999 -9999 -9999 -9999 -9999 -9999 -9999 -9999 -9999 -9999 -9999 -9999 -9999 -9999 -9999 -9999 -9999 -9999 -9999 -9999 -9999 -9999 -9999 -9999 -9999 -9999 -9999 -9999 -9999 -9999 -9999 -9999 -9999 -9999 -9999 -9999 -9999 -9999 -9999 -9999 -9999 -9999 -9999 -9999 -9999 -9999 -9999 -9999 -9999 -9999 -9999 -9999 -9999 -9999 -9999 -9999 -9999 -9999 -9999 -9999 -9999 -9999 -9999 -9999 -9999 -9999 -9999 -9999 -9999 -9999 -9999 -9999 -9999 -9999 -9999 -9999 -9999 -9999 -9999 -9999 -9999 -9999 -9999 -9999 -9999 -9999 -9999 -9999 -9999 -9999 -9999 -9999 -9999 -9999 -9999 -9999 -9999 -9999 -9999 -9999 -9999 -9999 -9999 -9999 -9999 -9999 -9999 -9999 -9999 -9999 -9999 -9999 -9999 -9999 -9999 -9999 -9999 -9999 -9999 -9999
-9999 -9999 -9999 -9999 -9999 -9999 -9999 -9999 -9999 -9999 -9999 -9999 -9999 -9999 -9999 -9999 -9999 -9999 -9999 -9999 -9999 -9999 -9999 -9999 -9999 -9999 -9999 -9999 -9999 -9999 -9999 -9999 -9999 -9999 -9999 -9999 -9999 -9999 -9999 2771 2867 2811 2688 2461 2397 2323 2302 2093 1925 1733 1861 1902 1970 1965 1777 1732 1770 1513 1373 1572 1509 1384 1578 1770 1882 2083 2338 1974 1822 1592 1850 2109 2062 1849 1897 1715 1813 1980 1897 1964 1931 1886 2135 2387 2263 2320 2394 2330 2325 2225 2222 2213 2222 2213 2333 2235 2396 2418 2452 2373 2438 2482 2541 2612 2745 2886 3074 3176 3353 3444 3517 -9999 -9999 3640 -9999 -9999 -9999 -9999 -9999 -9999 -9999 -9999 -9999 -9999 -9999 -9999 -9999 -9999 -9999 -9999 -9999 -9999 -9999 -9999 -9999 -9999 -9999 -9999 -9999 -9999 -9999 -9999 -9999 -9999 -9999 -9999 -9999 -9999 -9999 -9999 -9999 -9999 -9999 -9999 -9999 -9999 -9999 -9999 -9999 -9999 -9999 -9999 -9999 -9999 -9999 -9999 -9999 -9999 -9999 -9999 -9999 -9999 -9999 -9999 -9999 -9999 -9999 -9999 -9999 -9999 -9999 -9999 -9999 -9999 -9999 -9999 -9999 -9999 -9999 -9999 -9999 -9999 -9999 -9999 -9999 -9999 -9999 -9999 -9999 -9999 -9999 -9999 -9999 -9999 -9999 -9999 -9999 -9999 -9999 -9999 -9999 -9999 -9999 -9999 -9999 -9999 -9999 -9999 -9999 -9999 -9999 -9999 -9999 -9999 -9999 -9999 -9999 -9999 -9999 -9999 -9999 -9999 -9999 -9999 -9999 -9999 -9999 -9999 -9999 -9999 -9999 -9999 -9999 -9999 -9999 -9999 -9999 -9999 -9999 -9999 -9999 -9999 -9999 -9999 -9999 -9999 -9999 -9999 -9999 -9999 -9999 -9999 -9999 -9999 -9999 -9999 -9999 -9999 -9999 -9999 -9999 -9999 -9999 -9999 -9999 -9999 -9999 -9999 -9999 -9999 -9999 -9999 -9999 -9999 -9999 -9999 -9999 -9999 -9999 -9999 -9999 -9999 -9999 -9999 -9999 -9999 -9999 -9999 -9999 -9999 -9999 -9999 -9999 -9999 -9999 -9999 -9999 -9999 -9999 -9999 -9999 -9999 -9999 -9999 -9999 -9999 -9999 -9999 -9999 -9999 -9999 -9999 -9999 -9999 -9999 -9999 -9999 -9999 -9999 -9999 -9999 -9999 -9999 -9999 -9999 -9999 -9999 -9999 -9999 -9999 -9999 -9999 -9999 -9999 -9999 -9999 -9999 -9999 -9999 -9999 -9999 -9999 -9999 -9999 -9999 -9999 -9999 -9999 -9999 -9999 -9999 -9999 -9999
-9999 -9999 -9999 -9999 -9999 -9999 -9999 -9999 -9999 -9999 -9999 -9999 -9999 -9999 -9999 -9999 -9999 -9999 -9999 -9999 -9999 -9999 -9999 -9999 -9999 -9999 -9999 -9999 -9999 -9999 -9999 -9999 -9999 -9999 -9999 -9999 -9999 -9999 -9999 -9999 -9999 2895 2788 2530 2331 2172 2079 1936 1802 1763 1619 1648 1699 1737 1681 1544 1487 1442 1460 1584 1875 1644 1430 1633 1706 1941 2258 1970 1838 1738 1789 2099 2240 2241 1976 1943 2004 2286 2301 2312 2031 2038 2282 2478 2654 2698 2761 2707 2592 2478 2365 2443 2480 2446 2576 2384 2500 2785 2893 2628 2446 2623 2602 2709 2794 2808 2855 2896 3025 3241 -9999 -9999 -9999 -9999 -9999 -9999 -9999 -9999 -9999 -9999 -9999 -9999 -9999 -9999 -9999 -9999 -9999 -9999 -9999 -9999 -9999 -9999 -9999 -9999 -9999 -9999 -9999 -9999 -9999 -9999 -9999 -9999 -9999 -9999 -9999 -9999 -9999 -9999 -9999 -9999 -9999 -9999 -9999 -9999 -9999 -9999 -9999 -9999 -9999 -9999 -9999 -9999 -9999 -9999 -9999 -9999 -9999 -9999 -9999 -9999 -9999 -9999 -9999 -9999 -9999 -9999 -9999 -9999 -9999 -9999 -9999 -9999 -9999 -9999 -9999 -9999 -9999 -9999 -9999 -9999 -9999 -9999 -9999 -9999 -9999 -9999 -9999 -9999 -9999 -9999 -9999 -9999 -9999 -9999 -9999 -9999 -9999 -9999 -9999 -9999 -9999 -9999 -9999 -9999 -9999 -9999 -9999 -9999 -9999 -9999 -9999 -9999 -9999 -9999 -9999 -9999 -9999 -9999 -9999 -9999 -9999 -9999 -9999 -9999 -9999 -9999 -9999 -9999 -9999 -9999 -9999 -9999 -9999 -9999 -9999 -9999 -9999 -9999 -9999 -9999 -9999 -9999 -9999 -9999 -9999 -9999 -9999 -9999 -9999 -9999 -9999 -9999 -9999 -9999 -9999 -9999 -9999 -9999 -9999 -9999 -9999 -9999 -9999 -9999 -9999 -9999 -9999 -9999 -9999 -9999 -9999 -9999 -9999 -9999 -9999 -9999 -9999 -9999 -9999 -9999 -9999 -9999 -9999 -9999 -9999 -9999 -9999 -9999 -9999 -9999 -9999 -9999 -9999 -9999 -9999 -9999 -9999 -9999 -9999 -9999 -9999 -9999 -9999 -9999 -9999 -9999 -9999 -9999 -9999 -9999 -9999 -9999 -9999 -9999 -9999 -9999 -9999 -9999 -9999 -9999 -9999 -9999 -9999 -9999 -9999 -9999 -9999 -9999 -9999 -9999 -9999 -9999 -9999 -9999 -9999 -9999 -9999 -9999 -9999 -9999 -9999 -9999 -9999 -9999 -9999 -9999 -9999 -9999 -9999 -9999 -9999 -9999 -9999
-9999 -9999 -9999 -9999 -9999 -9999 -9999 -9999 -9999 -9999 -9999 -9999 -9999 -9999 -9999 -9999 -9999 -9999 -9999 -9999 -9999 -9999 -9999 -9999 -9999 -9999 -9999 -9999 -9999 -9999 -9999 -9999 -9999 -9999 -9999 -9999 -9999 -9999 -9999 -9999 -9999 2878 2825 2588 2480 2246 2133 1963 1826 1678 1590 1555 1591 1624 1551 1434 1421 1331 1578 1693 1942 1797 1452 1630 1717 1946 2183 2086 1934 1816 1795 2102 2207 2298 2078 1992 2095 2324 2544 2374 2121 2103 2380 2556 2685 2784 2955 2904 2664 2544 2551 2452 2658 2612 2685 2474 2534 2899 3038 2719 2465 2653 2732 2780 2903 2967 2981 2948 2977 3144 -9999 -9999 -9999 -9999 -9999 -9999 -9999 -9999 -9999 -9999 -9999 -9999 -9999 -9999 -9999 -9999 -9999 -9999 -9999 -9999 -9999 -9999 -9999 -9999 -9999 -9999 -9999 -9999 -9999 -9999 -9999 -9999 -9999 -9999 -9999 -9999 -9999 -9999 -9999 -9999 -9999 -9999 -9999 -9999 -9999 -9999 -9999 -9999 -9999 -9999 -9999 -9999 -9999 -9999 -9999 -9999 -9999 -9999 -9999 -9999 -9999 -9999 -9999 -9999 -9999 -9999 -9999 -9999 -9999 -9999 -9999 -9999 -9999 -9999 -9999 -9999 -9999 -9999 -9999 -9999 -9999 -9999 -9999 -9999 -9999 -9999 -9999 -9999 -9999 -9999 -9999 -9999 -9999 -9999 -9999 -9999 -9999 -9999 -9999 -9999 -9999 -9999 -9999 -9999 -9999 -9999 -9999 -9999 -9999 -9999 -9999 -9999 -9999 -9999 -9999 -9999 -9999 -9999 -9999 -9999 -9999 -9999 -9999 -9999 -9999 -9999 -9999 -9999 -9999 -9999 -9999 -9999 -9999 -9999 -9999 -9999 -9999 -9999 -9999 -9999 -9999 -9999 -9999 -9999 -9999 -9999 -9999 -9999 -9999 -9999 -9999 -9999 -9999 -9999 -9999 -9999 -9999 -9999 -9999 -9999 -9999 -9999 -9999 -9999 -9999 -9999 -9999 -9999 -9999 -9999 -9999 -9999 -9999 -9999 -9999 -9999 -9999 -9999 -9999 -9999 -9999 -9999 -9999 -9999 -9999 -9999 -9999 -9999 -9999 -9999 -9999 -9999 -9999 -9999 -9999 -9999 -9999 -9999 -9999 -9999 -9999 -9999 -9999 -9999 -9999 -9999 -9999 -9999 -9999 -9999 -9999 -9999 -9999 -9999 -9999 -9999 -9999 -9999 -9999 -9999 -9999 -9999 -9999 -9999 -9999 -9999 -9999 -9999 -9999 -9999 -9999 -9999 -9999 -9999 -9999 -9999 -9999 -9999 -9999 -9999 -9999 -9999 -9999 -9999 -9999 -9999 -9999 -9999 -9999 -9999 -9999 -9999 -9999
-9999 -9999 -9999 -9999 -9999 -9999 -9999 -9999 -9999 -9999 -9999 -9999 -9999 -9999 -9999 -9999 -9999 -9999 -9999 -9999 -9999 -9999 -9999 -9999 -9999 -9999 -9999 -9999 -9999 -9999 -9999 -9999 -9999 -9999 -9999 -9999 -9999 -9999 -9999 -9999 -9999 2693 2545 2438 2458 2350 2254 2056 1839 1716 1693 1654 1623 1639 1639 1579 1378 1423 1614 1697 2004 1905 1668 1595 1717 1857 2036 2347 2297 2092 1874 1860 1945 2120 2288 2124 2150 2336 2573 2527 2385 2305 2281 2371 2574 2643 2795 3011 2908 2917 2770 2656 2795 2973 2857 2815 2625 3036 3060 2705 2536 2678 2654 2960 3179 3196 3420 3312 3114 3326 -9999 -9999 -9999 -9999 -9999 -9999 -9999 -9999 -9999 -9999 -9999 -9999 -9999 -9999 -9999 -9999 -9999 -9999 -9999 -9999 -9999 -9999 -9999 -9999 -9999 -9999 -9999 -9999 -9999 -9999 -9999 -9999 -9999 -9999 -9999 -9999 -9999 -9999 -9999 -9999 -9999 -9999 -9999 -9999 -9999 -9999 -9999 -9999 -9999 -9999 -9999 -9999 -9999 -9999 -9999 -9999 -9999 -9999 -9999 -9999 -9999 -9999 -9999 -9999 -9999 -9999 -9999 -9999 -9999 -9999 -9999 -9999 -9999 -9999 -9999 -9999 -9999 -9999 -9999 -9999 -9999 -9999 -9999 -9999 -9999 -9999 -9999 -9999 -9999 -9999 -9999 -9999 -9999 -9999 -9999 -9999 -9999 -9999 -9999 -9999 -9999 -9999 -9999 -9999 -9999 -9999 -9999 -9999 -9999 -9999 -9999 -9999 -9999 -9999 -9999 -9999 -9999 -9999 -9999 -9999 -9999 -9999 -9999 -9999 -9999 -9999 -9999 -9999 -9999 -9999 -9999 -9999 -9999 -9999 -9999 -9999 -9999 -9999 -9999 -9999 -9999 -9999 -9999 -9999 -9999 -9999 -9999 -9999 -9999 -9999 -9999 -9999 -9999 -9999 -9999 -9999 -9999 -9999 -9999 -9999 -9999 -9999 -9999 -9999 -9999 -9999 -9999 -9999 -9999 -9999 -9999 -9999 -9999 -9999 -9999 -9999 -9999 -9999 -9999 -9999 -9999 -9999 -9999 -9999 -9999 -9999 -9999 -9999 -9999 -9999 -9999 -9999 -9999 -9999 -9999 -9999 -9999 -9999 -9999 -9999 -9999 -9999 -9999 -9999 -9999 -9999 -9999 -9999 -9999 -9999 -9999 -9999 -9999 -9999 -9999 -9999 -9999 -9999 -9999 -9999 -9999 -9999 -9999 -9999 -9999 -9999 -9999 -9999 -9999 -9999 -9999 -9999 -9999 -9999 -9999 -9999 -9999 -9999 -9999 -9999 -9999 -9999 -9999 -9999 -9999 -9999 -9999 -9999 -9999 -9999 -9999 -9999 -9999
-9999 -9999 -9999 -9999 -9999 -9999 -9999 -9999 -9999 -9999 -9999 -9999 -9999 -9999 -9999 -9999 -9999 -9999 -9999 -9999 -9999 -9999 -9999 -9999 -9999 -9999 -9999 -9999 -9999 -9999 -9999 -9999 -9999 -9999 -9999 -9999 -9999 -9999 -9999 -9999 2528 2354 2331 2145 2175 2354 2302 2138 1992 1877 1768 1748 1720 1733 1643 1481 1447 1600 1834 1752 1934 2139 1825 1557 1690 1821 2038 2354 2509 2297 2153 2066 2034 1990 2094 2361 2343 2309 2545 2651 2566 2457 2644 2629 2591 2651 2699 2819 3105 3129 3035 2903 3001 3153 3156 3062 2790 3019 2892 2649 2695 3076 3074 2916 3031 3370 3550 3425 3376 -9999 -9999 -9999 -9999 -9999 -9999 -9999 -9999 -9999 -9999 -9999 -9999 -9999 -9999 -9999 -9999 -9999 -9999 -9999 -9999 -9999 -9999 -9999 -9999 -9999 -9999 -9999 -9999 -9999 -9999 -9999 -9999 -9999 -9999 -9999 -9999 -9999 -9999 -9999 -9999 -9999 -9999 -9999 -9999 -9999 -9999 -9999 -9999 -9999 -9999 -9999 -9999 -9999 -9999 -9999 -9999 -9999 -9999 -9999 -9999 -9999 -9999 -9999 -9999 -9999 -9999 -9999 -9999 -9999 -9999 -9999 -9999 -9999 -9999 -9999 -9999 -9999 -9999 -9999 -9999 -9999 -9999 -9999 -9999 -9999 -9999 -9999 -9999 -9999 -9999 -9999 -9999 -9999 -9999 -9999 -9999 -9999 -9999 -9999 -9999 -9999 -9999 -9999 -9999 -9999 -9999 -9999 -9999 -9999 -9999 -9999 -9999 -9999 -9999 -9999 -9999 -9999 -9999 -9999 -9999 -9999 -9999 -9999 -9999 -9999 -9999 -9999 -9999 -9999 -9999 -9999 -9999 -9999 -9999 -9999 -9999 -9999 -9999 -9999 -9999 -9999 -9999 -9999 -9999 -9999 -9999 -9999 -9999 -9999 -9999 -9999 -9999 -9999 -9999 -9999 -9999 -9999 -9999 -9999 -9999 -9999 -9999 -9999 -9999 -9999 -9999 -9999 -9999 -9999 -9999 -9999 -9999 -9999 -9999 -9999 -9999 -9999 -9999 -9999 -9999 -9999 -9999 -9999 -9999 -9999 -9999 -9999 -9999 -9999 -9999 -9999 -9999 -9999 -9999 -9999 -9999 -9999 -9999 -9999 -9999 -9999 -9999 -9999 -9999 -9999 -9999 -9999 -9999 -9999 -9999 -9999 -9999 -9999 -9999 -9999 -9999 -9999 -9999 -9999 -9999 -9999 -9999 -9999 -9999 -9999 -9999 -9999 -9999 -9999 -9999 -9999 -9999 -9999 -9999 -9999 -9999 -9999 -9999 -9999 -9999 -9999 -9999 -9999 -9999 -9999 -9999 -9999 -9999 -9999 -9999 -9999 -9999 -9999 -9999
-9999 -9999 -9999 -9999 -9999 -9999 -9999 -9999 -9999 -9999 -9999 -9999 -9999 -9999 -9999 -9999 -9999 -9999 -9999 -9999 -9999 -9999 -9999 -9999 -9999 -9999 -9999 -9999 -9999 -9999 -9999 -9999 -9999 -9999 -9999 -9999 -9999 -9999 -9999 2342 2288 2305 2229 2013 1984 2114 2087 2117 1925 1880 1841 1829 1812 1768 1545 1406 1584 1861 1863 2000 1896 2163 2100 1878 1771 1650 1872 2123 2335 2508 2483 2331 2319 2259 2108 2170 2252 2411 2428 2483 2708 2680 2780 2896 2918 2949 2985 2841 3135 3280 3280 3084 3131 3373 3338 3021 3076 3033 2939 2748 2768 3188 3301 3150 3071 3315 3581 3553 -9999 -9999 -9999 -9999 -9999 -9999 -9999 -9999 -9999 -9999 -9999 -9999 -9999 -9999 -9999 -9999 -9999 -9999 -9999 -9999 -9999 -9999 -9999 -9999 -9999 -9999 -9999 -9999 -9999 -9999 -9999 -9999 -9999 -9999 -9999 -9999 -9999 -9999 -9999 -9999 -9999 -9999 -9999 -9999 -9999 -9999 -9999 -9999 -9999 -9999 -9999 -9999 -9999 -9999 -9999 -9999 -9999 -9999 -9999 -9999 -9999 -9999 -9999 -9999 -9999 -9999 -9999 -9999 -9999 -9999 -9999 -9999 -9999 -9999 -9999 -9999 -9999 -9999 -9999 -9999 -9999 -9999 -9999 -9999 -9999 -9999 -9999 -9999 -9999 -9999 -9999 -9999 -9999 -9999 -9999 -9999 -9999 -9999 -9999 -9999 -9999 -9999 -9999 -9999 -9999 -9999 -9999 -9999 -9999 -9999 -9999 -9999 -9999 -9999 -9999 -9999 -9999 -9999 -9999 -9999 -9999 -9999 -9999 -9999 -9999 -9999 -9999 -9999 -9999 -9999 -9999 -9999 -9999 -9999 -9999 -9999 -9999 -9999 -9999 -9999 -9999 -9999 -9999 -9999 -9999 -9999 -9999 -9999 -9999 -9999 -9999 -9999 -9999 -9999 -9999 -9999 -9999 -9999 -9999 -9999 -9999 -9999 -9999 -9999 -9999 -9999 -9999 -9999 -9999 -9999 -9999 -9999 -9999 -9999 -9999 -9999 -9999 -9999 -9999 -9999 -9999 -9999 -9999 -9999 -9999 -9999 -9999 -9999 -9999 -9999 -9999 -9999 -9999 -9999 -9999 -9999 -9999 -9999 -9999 -9999 -9999 -9999 -9999 -9999 -9999 -9999 -9999 -9999 -9999 -9999 -9999 -9999 -9999 -9999 -9999 -9999 -9999 -9999 -9999 -9999 -9999 -9999 -9999 -9999 -9999 -9999 -9999 -9999 -9999 -9999 -9999 -9999 -9999 -9999 -9999 -9999 -9999 -9999 -9999 -9999 -9999 -9999 -9999 -9999 -9999 -9999 -9999 -9999 -9999 -9999 -9999 -9999 -9999 -9999 -9999
-9999 -9999 -9999 -9999 -9999 -9999 -9999 -9999 -9999 -9999 -9999 -9999 -9999 -9999 -9999 -9999 -9999 -9999 -9999 -9999 -9999 -9999 -9999 -9999 -9999 -9999 -9999 -9999 -9999 -9999 -9999 -9999 -9999 -9999 -9999 -9999 -9999 -9999 -9999 2330 2174 1994 2034 2164 1946 1802 1885 1824 1809 1773 1749 1793 1835 1702 1399 1518 1755 1979 2157 2206 2184 2181 2257 2074 2034 1905 1697 1931 2056 2223 2408 2570 2624 2545 2362 2334 2249 2259 2454 2639 2639 2716 2980 3202 3254 3265 3205 3006 3092 3245 3544 3344 3281 3541 3404 3176 3249 3247 3150 2833 2834 3107 3298 3379 3291 3353 3569 -9999 -9999 -9999 -9999 -9999 -9999 -9999 -9999 -9999 -9999 -9999 -9999 -9999 -9999 -9999 -9999 -9999 -9999 -9999 -9999 -9999 -9999 -9999 -9999 -9999 -9999 -9999 -9999 -9999 -9999 -9999 -9999 -9999 -9999 -9999 -9999 -9999 -9999 -9999 -9999 -9999 -9999 -9999 -9999 -9999 -9999 -9999 -9999 -9999 -9999 -9999 -9999 -9999 -9999 -9999 -9999 -9999 -9999 -9999 -9999 -9999 -9999 -9999 -9999 -9999 -9999 -9999 -9999 -9999 -9999 -9999 -9999 -9999 -9999 -9999 -9999 -9999 -9999 -9999 -9999 -9999 -9999 -9999 -9999 -9999 -9999 -9999 -9999 -9999 -9999 -9999 -9999 -9999 -9999 -9999 -9999 -9999 -9999 -9999 -9999 -9999 -9999 -9999 -9999 -9999 -9999 -9999 -9999 -9999 -9999 -9999 -9999 -9999 -9999 -9999 -9999 -9999 -9999 -9999 -9999 -9999 -9999 -9999 -9999 -9999 -9999 -9999 -9999 -9999 -9999 -9999 -9999 -9999 -9999 -9999 -9999 -9999 -9999 -9999 -9999 -9999 -9999 -9999 -9999 -9999 -9999 -9999 -9999 -9999 -9999 -9999 -9999 -9999 -9999 -9999 -9999 -9999 -9999 -9999 -9999 -9999 -9999 -9999 -9999 -9999 -9999 -9999 -9999 -9999 -9999 -9999 -9999 -9999 -9999 -9999 -9999 -9999 -9999 -9999 -9999 -9999 -9999 -9999 -9999 -9999 -9999 -9999 -9999 -9999 -9999 -9999 -9999 -9999 -9999 -9999 -9999 -9999 -9999 -9999 -9999 -9999 -9999 -9999 -9999 -9999 -9999 -9999 -9999 -9999 -9999 -9999 -9999 -9999 -9999 -9999 -9999 -9999 -9999 -9999 -9999 -9999 -9999 -9999 -9999 -9999 -9999 -9999 -9999 -9999 -9999 -9999 -9999 -9999 -9999 -9999 -9999 -9999 -9999 -9999 -9999 -9999 -9999 -9999 -9999 -9999 -9999 -9999 -9999 -9999 -9999 -9999 -9999 -9999 -9999 -9999 -9999
-9999 -9999 -9999 -9999 -9999 -9999 -9999 -9999 -9999 -9999 -9999 -9999 -9999 -9999 -9999 -9999 -9999 -9999 -9999 -9999 -9999 -9999 -9999 -9999 -9999 -9999 -9999 -9999 -9999 -9999 -9999 -9999 -9999 -9999 -9999 -9999 -9999 -9999 -9999 2369 2137 1995 1912 1995 1949 1761 1754 1739 1737 1749 1698 1753 1779 1665 1406 1520 1737 2050 2213 2269 2314 2323 2370 2235 2193 2032 1707 1885 1985 2121 2332 2477 2571 2643 2532 2406 2403 2317 2381 2608 2776 2776 2924 3205 3413 3473 3278 3050 3122 3235 3565 3421 3550 3619 3460 3234 3255 3295 3168 2865 2878 3225 3377 3523 3366 3377 3586 -9999 -9999 -9999 -9999 -9999 -9999 -9999 -9999 -9999 -9999 -9999 -9999 -9999 -9999 -9999 -9999 -9999 -9999 -9999 -9999 -9999 -9999 -9999 -9999 -9999 -9999 -9999 -9999 -9999 -9999 -9999 -9999 -9999 -9999 -9999 -9999 -9999 -9999 -9999 -9999 -9999 -9999 -9999 -9999 -9999 -9999 -9999 -9999 -9999 -9999 -9999 -9999 -9999 -9999 -9999 -9999 -9999 -9999 -9999 -9999 -9999 -9999 -9999 -9999 -9999 -9999 -9999 -9999 -9999 -9999 -9999 -9999 -9999 -9999 -9999 -9999 -9999 -9999 -9999 -9999 -9999 -9999 -9999 -9999 -9999 -9999 -9999 -9999 -9999 -9999 -9999 -9999 -9999 -9999 -9999 -9999 -9999 -9999 -9999 -9999 -9999 -9999 -9999 -9999 -9999 -9999 -9999 -9999 -9999 -9999 -9999 -9999 -9999 -9999 -9999 -9999 -9999 -9999 -9999 -9999 -9999 -9999 -9999 -9999 -9999 -9999 -9999 -9999 -9999 -9999 -9999 -9999 -9999 -9999 -9999 -9999 -9999 -9999 -9999 -9999 -9999 -9999 -9999 -9999 -9999 -9999 -9999 -9999 -9999 -9999 -9999 -9999 -9999 -9999 -9999 -9999 -9999 -9999 -9999 -9999 -9999 -9999 -9999 -9999 -9999 -9999 -9999 -9999 -9999 -9999 -9999 -9999 -9999 -9999 -9999 -9999 -9999 -9999 -9999 -9999 -9999 -9999 -9999 -9999 -9999 -9999 -9999 -9999 -9999 -9999 -9999 -9999 -9999 -9999 -9999 -9999 -9999 -9999 -9999 -9999 -9999 -9999 -9999 -9999 -9999 -9999 -9999 -9999 -9999 -9999 -9999 -9999 -9999 -9999 -9999 -9999 -9999 -9999 -9999 -9999 -9999 -9999 -9999 -9999 -9999 -9999 -9999 -9999 -9999 -9999 -9999 -9999 -9999 -9999 -9999 -9999 -9999 -9999 -9999 -9999 -9999 -9999 -9999 -9999 -9999 -9999 -9999 -9999 -9999 -9999 -9999 -9999 -9999 -9999 -9999 -9999
-9999 -9999 -9999 -9999 -9999 -9999 -9999 -9999 -9999 -9999 -9999 -9999 -9999 -9999 -9999 -9999 -9999 -9999 -9999 -9999 -9999 -9999 -9999 -9999 -9999 -9999 -9999 -9999 -9999 -9999 -9999 -9999 -9999 -9999 -9999 -9999 -9999 -9999 -9999 -9999 2288 2058 1954 1852 1751 1750 1747 1704 1698 1595 1565 1532 1534 1498 1502 1616 1886 2050 2135 2214 2301 2414 2385 2388 2235 2067 1772 1808 1887 1997 2117 2324 2428 2557 2809 2735 2719 2653 2463 2493 2627 2737 2850 3070 3330 3418 3326 3266 3208 3250 3555 3635 3628 3522 3439 3256 3382 3237 3139 2932 2962 3200 3309 3566 3432 3448 3685 -9999 -9999 -9999 -9999 -9999 -9999 -9999 -9999 -9999 -9999 -9999 -9999 -9999 -9999 -9999 -9999 -9999 -9999 -9999 -9999 -9999 -9999 -9999 -9999 -9999 -9999 -9999 -9999 -9999 -9999 -9999 -9999 -9999 -9999 -9999 -9999 -9999 -9999 -9999 -9999 -9999 -9999 -9999 -9999 -9999 -9999 -9999 -9999 -9999 -9999 -9999 -9999 -9999 -9999 -9999 -9999 -9999 -9999 -9999 -9999 -9999 -9999 -9999 -9999 -9999 -9999 -9999 -9999 -9999 -9999 -9999 -9999 -9999 -9999 -9999 -9999 -9999 -9999 -9999 -9999 -9999 -9999 -9999 -9999 -9999 -9999 -9999 -9999 -9999 -9999 -9999 -9999 -9999 -9999 -9999 -9999 -9999 -9999 -9999 -9999 -9999 -9999 -9999 -9999 -9999 -9999 -9999 -9999 -9999 -9999 -9999 -9999 -9999 -9999 -9999 -9999 -9999 -9999 -9999 -9999 -9999 -9999 -9999 -9999 -9999 -9999 -9999 -9999 -9999 -9999 -9999 -9999 -9999 -9999 -9999 -9999 -9999 -9999 -9999 -9999 -9999 -9999 -9999 -9999 -9999 -9999 -9999 -9999 -9999 -9999 -9999 -9999 -9999 -9999 -9999 -9999 -9999 -9999 -9999 -9999 -9999 -9999 -9999 -9999 -9999 -9999 -9999 -9999 -9999 -9999 -9999 -9999 -9999 -9999 -9999 -9999 -9999 -9999 -9999 -9999 -9999 -9999 -9999 -9999 -9999 -9999 -9999 -9999 -9999 -9999 -9999 -9999 -9999 -9999 -9999 -9999 -9999 -9999 -9999 -9999 -9999 -9999 -9999 -9999 -9999 -9999 -9999 -9999 -9999 -9999 -9999 -9999 -9999 -9999 -9999 -9999 -9999 -9999 -9999 -9999 -9999 -9999 -9999 -9999 -9999 -9999 -9999 -9999 -9999 -9999 -9999 -9999 -9999 -9999 -9999 -9999 -9999 -9999 -9999 -9999 -9999 -9999 -9999 -9999 -9999 -9999 -9999 -9999 -9999 -9999 -9999 -9999 -9999 -9999 -9999 -9999
-9999 -9999 -9999 -9999 -9999 -9999 -9999 -9999 -9999 -9999 -9999 -9999 -9999 -9999 -9999 -9999 -9999 -9999 -9999 -9999 -9999 -9999 -9999 -9999 -9999 -9999 -9999 -9999 -9999 -9999 -9999 -9999 -9999 -9999 -9999 -9999 -9999 -9999 -9999 -9999 -9999 2272 2231 2024 1917 1828 1778 1688 1625 1814 1845 1885 1741 1759 1456 1578 1827 2017 2134 2178 2272 2384 2441 2464 2355 2093 1938 1760 1789 2062 2267 2416 2478 2555 2753 2897 2956 2812 2743 2724 2648 2640 2808 2985 3196 3335 3494 3449 3440 3511 3584 3699 3536 3406 3350 3377 3334 3221 3209 3175 3053 3243 3325 3489 3574 3562 -9999 -9999 -9999 -9999 -9999 -9999 -9999 -9999 -9999 -9999 -9999 -9999 -9999 -9999 -9999 -9999 -9999 -9999 -9999 -9999 -9999 -9999 -9999 -9999 -9999 -9999 -9999 -9999 -9999 -9999 -9999 -9999 -9999 -9999 -9999 -9999 -9999 -9999 -9999 -9999 -9999 -9999 -9999 -9999 -9999 -9999 -9999 -9999 -9999 -9999 -9999 -9999 -9999 -9999 -9999 -9999 -9999 -9999 -9999 -9999 -9999 -9999 -9999 -9999 -9999 -9999 -9999 -9999 -9999 -9999 -9999 -9999 -9999 -9999 -9999 -9999 -9999 -9999 -9999 -9999 -9999 -9999 -9999 -9999 -9999 -9999 -9999 -9999 -9999 -9999 -9999 -9999 -9999 -9999 -9999 -9999 -9999 -9999 -9999 -9999 -9999 -9999 -9999 -9999 -9999 -9999 -9999 -9999 -9999 -9999 -9999 -9999 -9999 -9999 -9999 -9999 -9999 -9999 -9999 -9999 -9999 -9999 -9999 -9999 -9999 -9999 -9999 -9999 -9999 -9999 -9999 -9999 -9999 -9999 -9999 -9999 -9999 -9999 -9999 -9999 -9999 -9999 -9999 -9999 -9999 -9999 -9999 -9999 -9999 -9999 -9999 -9999 -9999 -9999 -9999 -9999 -9999 -9999 -9999 -9999 -9999 -9999 -9999 -9999 -9999 -9999 -9999 -9999 -9999 -9999 -9999 -9999 -9999 -9999 -9999 -9999 -9999 -9999 -9999 -9999 -9999 -9999 -9999 -9999 -9999 -9999 -9999 -9999 -9999 -9999 -9999 -9999 -9999 -9999 -9999 -9999 -9999 -9999 -9999 -9999 -9999 -9999 -9999 -9999 -9999 -9999 -9999 -9999 -9999 -9999 -9999 -9999 -9999 -9999 -9999 -9999 -9999 -9999 -9999 -9999 -9999 -9999 -9999 -9999 -9999 -9999 -9999 -9999 -9999 -9999 -9999 -9999 -9999 -9999 -9999 -9999 -9999 -9999 -9999 -9999 -9999 -9999 -9999 -9999 -9999 -9999 -9999 -9999 -9999 -9999 -9999 -9999 -9999 -9999 -9999 -9999 -9999
-9999 -9999 -9999 -9999 -9999 -9999 -9999 -9999 -9999 -9999 -9999 -9999 -9999 -9999 -9999 -9999 -9999 -9999 -9999 -9999 -9999 -9999 -9999 -9999 -9999 -9999 -9999 -9999 -9999 -9999 -9999 -9999 -9999 -9999 -9999 -9999 -9999 -9999 -9999 -9999 -9999 -9999 2382 2281 2093 1874 1739 1692 1880 1909 1917 1854 1956 1964 1654 1502 1680 1852 1799 1923 2124 2260 2283 2476 2404 2175 2029 1926 1839 1823 2016 2191 2286 2386 2443 2655 2780 3071 3034 3031 2882 2802 2781 3003 3285 3346 3187 3130 3190 3231 3292 3340 3355 3411 3435 3554 3422 3380 3459 3304 3160 3332 3461 3609 -9999 -9999 -9999 -9999 -9999 -9999 -9999 -9999 -9999 -9999 -9999 -9999 -9999 -9999 -9999 -9999 -9999 -9999 -9999 -9999 -9999 -9999 -9999 -9999 -9999 -9999 -9999 -9999 -9999 -9999 -9999 -9999 -9999 -9999 -9999 -9999 -9999 -9999 -9999 -9999 -9999 -9999 -9999 -9999 -9999 -9999 -9999 -9999 -9999 -9999 -9999 -9999 -9999 -9999 -9999 -9999 -9999 -9999 -9999 -9999 -9999 -9999 -9999 -9999 -9999 -9999 -9999 -9999 -9999 -9999 -9999 -9999 -9999 -9999 -9999 -9999 -9999 -9999 -9999 -9999 -9999 -9999 -9999 -9999 -9999 -9999 -9999 -9999 -9999 -9999 -9999 -9999 -9999 -9999 -9999 -9999 -9999 -9999 -9999 -9999 -9999 -9999 -9999 -9999 -9999 -9999 -9999 -9999 -9999 -9999 -9999 -9999 -9999 -9999 -9999 -9999 -9999 -9999 -9999 -9999 -9999 -9999 -9999 -9999 -9999 -9999 -9999 -9999 -9999 -9999 -9999 -9999 -9999 -9999 -9999 -9999 -9999 -9999 -9999 -9999 -9999 -9999 -9999 -9999 -9999 -9999 -9999 -9999 -9999 -9999 -9999 -9999 -9999 -9999 -9999 -9999 -9999 -9999 -9999 -9999 -9999 -9999 -9999 -9999 -9999 -9999 -9999 -9999 -9999 -9999 -9999 -9999 -9999 -9999 -9999 -9999 -9999 -9999 -9999 -9999 -9999 -9999 -9999 -9999 -9999 -9999 -9999 -9999 -9999 -9999 -9999 -9999 -9999 -9999 -9999 -9999 -9999 -9999 -9999 -9999 -9999 -9999 -9999 -9999 -9999 -9999 -9999 -9999 -9999 -9999 -9999 -9999 -9999 -9999 -9999 -9999 -9999 -9999 -9999 -9999 -9999 -9999 -9999 -9999 -9999 -9999 -9999 -9999 -9999 -9999 -9999 -9999 -9999 -9999 -9999 -9999 -9999 -9999 -9999 -9999 -9999 -9999 -9999 -9999 -9999 -9999 -9999 -9999 -9999 -9999 -9999 -9999 -9999 -9999 -9999 -9999 -9999 -9999 -9999
-9999 -9999 -9999 -9999 -9999 -9999 -9999 -9999 -9999 -9999 -9999 -9999 -9999 -9999 -9999 -9999 -9999 -9999 -9999 -9999 -9999 -9999 -9999 -9999 -9999 -9999 -9999 -9999 -9999 -9999 -9999 -9999 -9999 -9999 -9999 -9999 -9999 -9999 -9999 -9999 -9999 -9999 2377 2216 2014 1821 1699 1702 1896 1944 1953 1890 1983 2011 1706 1571 1560 1685 1804 1908 1994 2051 2168 2448 2493 2325 2176 2094 1969 1832 1893 2069 2112 2334 2361 2620 2714 2963 2932 2906 2960 2932 2814 2979 3173 3146 2996 2945 2990 3040 3129 3244 3319 3368 3382 3578 3478 3496 3511 3278 3208 3414 3555 -9999 -9999 -9999 -9999 -9999 -9999 -9999 -9999 -9999 -9999 -9999 -9999 -9999 -9999 -9999 -9999 -9999 -9999 -9999 -9999 -9999 -9999 -9999 -9999 -9999 -9999 -9999 -9999 -9999 -9999 -9999 -9999 -9999 -9999 -9999 -9999 -9999 -9999 -9999 -9999 -9999 -9999 -9999 -9999 -9999 -9999 -9999 -9999 -9999 -9999 -9999 -9999 -9999 -9999 -9999 -9999 -9999 -9999 -9999 -9999 -9999 -9999 -9999 -9999 -9999 -9999 -9999 -9999 -9999 -9999 -9999 -9999 -9999 -9999 -9999 -9999 -9999 -9999 -9999 -9999 -9999 -9999 -9999 -9999 -9999 -9999 -9999 -9999 -9999 -9999 -9999 -9999 -9999 -9999 -9999 -9999 -9999 -9999 -9999 -9999 -9999 -9999 -9999 -9999 -9999 -9999 -9999 -9999 -9999 -9999 -9999 -9999 -9999 -9999 -9999 -9999 -9999 -9999 -9999 -9999 -9999 -9999 -9999 -9999 -9999 -9999 -9999 -9999 -9999 -9999 -9999 -9999 -9999 -9999 -9999 -9999 -9999 -9999 -9999 -9999 -9999 -9999 -9999 -9999 -9999 -9999 -9999 -9999 -9999 -9999 -9999 -9999 -9999 -9999 -9999 -9999 -9999 -9999 -9999 -9999 -9999 -9999 -9999 -9999 -9999 -9999 -9999 -9999 -9999 -9999 -9999 -9999 -9999 -9999 -9999 -9999 -9999 -9999 -9999 -9999 -9999 -9999 -9999 -9999 -9999 -9999 -9999 -9999 -9999 -9999 -9999 -9999 -9999 -9999 -9999 -9999 -9999 -9999 -9999 -9999 -9999 -9999 -9999 -9999 -9999 -9999 -9999 -9999 -9999 -9999 -9999 -9999 -9999 -9999 -9999 -9999 -9999 -9999 -9999 -9999 -9999 -9999 -9999 -9999 -9999 -9999 -9999 -9999 -9999 -9999 -9999 -9999 -9999 -9999 -9999 -9999 -9999 -9999 -9999 -9999 -9999 -9999 -9999 -9999 -9999 -9999 -9999 -9999 -9999 -9999 -9999 -9999 -9999 -9999 -9999 -9999 -9999 -9999 -9999 -9999
-9999 -9999 -9999 -9999 -9999 -9999 -9999 -9999 -9999 -9999 -9999 -9999 -9999 -9999 -9999 -9999 -9999 -9999 -9999 -9999 -9999 -9999 -9999 -9999 -9999 -9999 -9999 -9999 -9999 -9999 -9999 -9999 -9999 -9999 -9999 -9999 -9999 -9999 -9999 -9999 -9999 2338 2296 2038 1855 1778 1924 1979 1822 2009 2013 1958 2063 1987 1796 1697 1545 1586 1557 1637 1800 1962 2099 2208 2342 2112 2199 2326 2283 2174 2021 1891 1941 2066 2268 2394 2435 2534 2503 2515 2632 2708 2874 2803 2711 2690 2711 2902 3131 3177 3230 3268 3366 3468 3522 3642 3515 3413 3371 3314 3400 3538 -9999 -9999 -9999 -9999 -9999 -9999 -9999 -9999 -9999 -9999 -9999 -9999 -9999 -9999 -9999 -9999 -9999 -9999 -9999 -9999 -9999 -9999 -9999 -9999 -9999 -9999 -9999 -9999 -9999 -9999 -9999 -9999 -9999 -9999 -9999 -9999 -9999 -9999 -9999 -9999 -9999 -9999 -9999 -9999 -9999 -9999 -9999 -9999 -9999 -9999 -9999 -9999 -9999 -9999 -9999 -9999 -9999 -9999 -9999 -9999 -9999 -9999 -9999 -9999 -9999 -9999 -9999 -9999 -9999 -9999 -9999 -9999 -9999 -9999 -9999 -9999 -9999 -9999 -9999 -9999 -9999 -9999 -9999 -9999 -9999 -9999 -9999 -9999 -9999 -9999 -9999 -9999 -9999 -9999 -9999 -9999 -9999 -9999 -9999 -9999 -9999 -9999 -9999 -9999 -9999 -9999 -9999 -9999 -9999 -9999 -9999 -9999 -9999 -9999 -9999 -9999 -9999 -9999 -9999 -9999 -9999 -9999 -9999 -9999 -9999 -9999 -9999 -9999 -9999 -9999 -9999 -9999 -9999 -9999 -9999 -9999 -9999 -9999 -9999 -9999 -9999 -9999 -9999 -9999 -9999 -9999 -9999 -9999 -9999 -9999 -9999 -9999 -9999 -9999 -9999 -9999 -9999 -9999 -9999 -9999 -9999 -9999 -9999 -9999 -9999 -9999 -9999 -9999 -9999 -9999 -9999 -9999 -9999 -9999 -9999 -9999 -9999 -9999 -9999 -9999 -9999 -9999 -9999 -9999 -9999 -9999 -9999 -9999 -9999 -9999 -9999 -9999 -9999 -9999 -9999 -9999 -9999 -9999 -9999 -9999 -9999 -9999 -9999 -9999 -9999 -9999 -9999 -9999 -9999 -9999 -9999 -9999 -9999 -9999 -9999 -9999 -9999 -9999 -9999 -9999 -9999 -9999 -9999 -9999 -9999 -9999 -9999 -9999 -9999 -9999 -9999 -9999 -9999 -9999 -9999 -9999 -9999 -9999 -9999 -9999 -9999 -9999 -9999 -9999 -9999 -9999 -9999 -9999 -9999 -9999 -9999 -9999 -9999 -9999 -9999 -9999 -9999 -9999 -9999 -9999 -9999
-9999 -9999 -9999 -9999 -9999 -9999 -9999 -9999 -9999 -9999 -9999 -9999 -9999 -9999 -9999 -9999 -9999 -9999 -9999 -9999 -9999 -9999 -9999 -9999 -9999 -9999 -9999 -9999 -9999 -9999 -9999 -9999 -9999 -9999 -9999 -9999 -9999 -9999 -9999 -9999 2123 2142 2138 1998 1795 1976 2019 2150 2061 1995 2093 2016 2161 2009 1849 1778 1517 1685 1768 1638 1602 1733 1832 1933 1975 1879 2009 2274 2376 2375 2416 2202 2124 1989 1990 2084 2174 2242 2245 2206 2310 2362 2420 2455 2595 2741 2936 3143 3347 3443 3451 3380 3425 3472 3543 3601 3485 3443 3407 3434 -9999 -9999 -9999 -9999 -9999 -9999 -9999 -9999 -9999 -9999 -9999 -9999 -9999 -9999 -9999 -9999 -9999 -9999 -9999 -9999 -9999 -9999 -9999 -9999 -9999 -9999 -9999 -9999 -9999 -9999 -9999 -9999 -9999 -9999 -9999 -9999 -9999 -9999 -9999 -9999 -9999 -9999 -9999 -9999 -9999 -9999 -9999 -9999 -9999 -9999 -9999 -9999 -9999 -9999 -9999 -9999 -9999 -9999 -9999 -9999 -9999 -9999 -9999 -9999 -9999 -9999 -9999 -9999 -9999 -9999 -9999 -9999 -9999 -9999 -9999 -9999 -9999 -9999 -9999 -9999 -9999 -9999 -9999 -9999 -9999 -9999 -9999 -9999 -9999 -9999 -9999 -9999 -9999 -9999 -9999 -9999 -9999 -9999 -9999 -9999 -9999 -9999 -9999 -9999 -9999 -9999 -9999 -9999 -9999 -9999 -9999 -9999 -9999 -9999 -9999 -9999 -9999 -9999 -9999 -9999 -9999 -9999 -9999 -9999 -9999 -9999 -9999 -9999 -9999 -9999 -9999 -9999 -9999 -9999 -9999 -9999 -9999 -9999 -9999 -9999 -9999 -9999 -9999 -9999 -9999 -9999 -9999 -9999 -9999 -9999 -9999 -9999 -9999 -9999 -9999 -9999 -9999 -9999 -9999 -9999 -9999 -9999 -9999 -9999 -9999 -9999 -9999 -9999 -9999 -9999 -9999 -9999 -9999 -9999 -9999 -9999 -9999 -9999 -9999 -9999 -9999 -9999 -9999 -9999 -9999 -9999 -9999 -9999 -9999 -9999 -9999 -9999 -9999 -9999 -9999 -9999 -9999 -9999 -9999 -9999 -9999 -9999 -9999 -9999 -9999 -9999 -9999 -9999 -9999 -9999 -9999 -9999 -9999 -9999 -9999 -9999 -9999 -9999 -9999 -9999 -9999 -9999 -9999 -9999 -9999 -9999 -9999 -9999 -9999 -9999 -9999 -9999 -9999 -9999 -9999 -9999 -9999 -9999 -9999 -9999 -9999 -9999 -9999 -9999 -9999 -9999 -9999 -9999 -9999 -9999 -9999 -9999 -9999 -9999 -9999 -9999 -9999 -9999 -9999 -9999 -9999 -9999 -9999
-9999 -9999 -9999 -9999 -9999 -9999 -9999 -9999 -9999 -9999 -9999 -9999 -9999 -9999 -9999 -9999 -9999 -9999 -9999 -9999 -9999 -9999 -9999 -9999 -9999 -9999 -9999 -9999 -9999 -9999 -9999 -9999 -9999 -9999 2380 2329 2266 2200 2160 2109 1994 1919 1899 1850 2052 2245 2292 2450 2393 2174 1960 2030 2109 1878 1622 1615 1717 1737 1639 1808 1823 1644 1649 1677 1686 1793 1806 1969 2036 2143 2269 2225 2200 2243 2311 2068 2059 2134 2227 2333 2391 2404 2574 2496 2507 2516 2675 3006 3197 3312 3519 3534 3686 3587 3659 3680 3522 3558 3605 -9999 -9999 -9999 -9999 -9999 -9999 -9999 -9999 -9999 -9999 -9999 -9999 -9999 -9999 -9999 -9999 -9999 -9999 -9999 -9999 -9999 -9999 -9999 -9999 -9999 -9999 -9999 -9999 -9999 -9999 -9999 -9999 -9999 -9999 -9999 -9999 -9999 -9999 -9999 -9999 -9999 -9999 -9999 -9999 -9999 -9999 -9999 -9999 -9999 -9999 -9999 -9999 -9999 -9999 -9999 -9999 -9999 -9999 -9999 -9999 -9999 -9999 -9999 -9999 -9999 -9999 -9999 -9999 -9999 -9999 -9999 -9999 -9999 -9999 -9999 -9999 -9999 -9999 -9999 -9999 -9999 -9999 -9999 -9999 -9999 -9999 -9999 -9999 -9999 -9999 -9999 -9999 -9999 -9999 -9999 -9999 -9999 -9999 -9999 -9999 -9999 -9999 -9999 -9999 -9999 -9999 -9999 -9999 -9999 -9999 -9999 -9999 -9999 -9999 -9999 -9999 -9999 -9999 -9999 -9999 -9999 -9999 -9999 -9999 -9999 -9999 -9999 -9999 -9999 -9999 -9999 -9999 -9999 -9999 -9999 -9999 -9999 -9999 -9999 -9999 -9999 -9999 -9999 -9999 -9999 -9999 -9999 -9999 -9999 -9999 -9999 -9999 -9999 -9999 -9999 -9999 -9999 -9999 -9999 -9999 -9999 -9999 -9999 -9999 -9999 -9999 -9999 -9999 -9999 -9999 -9999 -9999 -9999 -9999 -9999 -9999 -9999 -9999 -9999 -9999 -9999 -9999 -9999 -9999 -9999 -9999 -9999 -9999 -9999 -9999 -9999 -9999 -9999 -9999 -9999 -9999 -9999 -9999 -9999 -9999 -9999 -9999 -9999 -9999 -9999 -9999 -9999 -9999 -9999 -9999 -9999 -9999 -9999 -9999 -9999 -9999 -9999 -9999 -9999 -9999 -9999 -9999 -9999 -9999 -9999 -9999 -9999 -9999 -9999 -9999 -9999 -9999 -9999 -9999 -9999 -9999 -9999 -9999 -9999 -9999 -9999 -9999 -9999 -9999 -9999 -9999 -9999 -9999 -9999 -9999 -9999 -9999 -9999 -9999 -9999 -9999 -9999 -9999 -9999 -9999 -9999 -9999 -9999 -9999
-9999 -9999 -9999 -9999 -9999 -9999 -9999 -9999 -9999 -9999 -9999 -9999 -9999 -9999 -9999 -9999 -9999 -9999 -9999 -9999 -9999 -9999 -9999 -9999 -9999 -9999 -9999 -9999 -9999 -9999 -9999 -9999 -9999 -9999 2412 2305 2235 2156 2115 2081 2062 2009 2002 1880 2157 2310 2389 2493 2373 2087 1887 1878 1968 1802 1664 1767 1687 1885 1620 1657 1875 1846 1820 1845 1859 1802 1762 1889 1935 2049 2092 2105 2067 2141 2385 2278 2266 2325 2401 2465 2495 2539 2688 2640 2685 2677 2605 2840 3028 3138 3379 3663 3630 3644 -9999 3700 3581 3640 -9999 -9999 -9999 -9999 -9999 -9999 -9999 -9999 -9999 -9999 -9999 -9999 -9999 -9999 -9999 -9999 -9999 -9999 -9999 -9999 -9999 -9999 -9999 -9999 -9999 -9999 -9999 -9999 -9999 -9999 -9999 -9999 -9999 -9999 -9999 -9999 -9999 -9999 -9999 -9999 -9999 -9999 -9999 -9999 -9999 -9999 -9999 -9999 -9999 -9999 -9999 -9999 -9999 -9999 -9999 -9999 -9999 -9999 -9999 -9999 -9999 -9999 -9999 -9999 -9999 -9999 -9999 -9999 -9999 -9999 -9999 -9999 -9999 -9999 -9999 -9999 -9999 -9999 -9999 -9999 -9999 -9999 -9999 -9999 -9999 -9999 -9999 -9999 -9999 -9999 -9999 -9999 -9999 -9999 -9999 -9999 -9999 -9999 -9999 -9999 -9999 -9999 -9999 -9999 -9999 -9999 -9999 -9999 -9999 -9999 -9999 -9999 -9999 -9999 -9999 -9999 -9999 -9999 -9999 -9999 -9999 -9999 -9999 -9999 -9999 -9999 -9999 -9999 -9999 -9999 -9999 -9999 -9999 -9999 -9999 -9999 -9999 -9999 -9999 -9999 -9999 -9999 -9999 -9999 -9999 -9999 -9999 -9999 -9999 -9999 -9999 -9999 -9999 -9999 -9999 -9999 -9999 -9999 -9999 -9999 -9999 -9999 -9999 -9999 -9999 -9999 -9999 -9999 -9999 -9999 -9999 -9999 -9999 -9999 -9999 -9999 -9999 -9999 -9999 -9999 -9999 -9999 -9999 -9999 -9999 -9999 -9999 -9999 -9999 -9999 -9999 -9999 -9999 -9999 -9999 -9999 -9999 -9999 -9999 -9999 -9999 -9999 -9999 -9999 -9999 -9999 -9999 -9999 -9999 -9999 -9999 -9999 -9999 -9999 -9999 -9999 -9999 -9999 -9999 -9999 -9999 -9999 -9999 -9999 -9999 -9999 -9999 -9999 -9999 -9999 -9999 -9999 -9999 -9999 -9999 -9999 -9999 -9999 -9999 -9999 -9999 -9999 -9999 -9999 -9999 -9999 -9999 -9999 -9999 -9999 -9999 -9999 -9999 -9999 -9999 -9999 -9999 -9999 -9999 -9999 -9999 -9999 -9999 -9999 -9999
-9999 -9999 -9999 -9999 -9999 -9999 -9999 -9999 -9999 -9999 -9999 -9999 -9999 -9999 -9999 -9999 -9999 -9999 -9999 -9999 -9999 -9999 -9999 -9999 -9999 -9999 -9999 -9999 -9999 -9999 -9999 -9999 -9999 -9999 2455 2349 2266 2252 2181 2197 2227 2204 2163 1926 2053 2229 2367 2459 2227 2286 2034 1908 1759 1671 1928 1958 1673 1914 1958 1815 1687 1984 2150 2160 2150 1891 1917 1974 1936 1853 1915 2037 2076 2066 2118 2291 2421 2692 2772 2890 2828 2858 2914 3031 3036 3022 2943 2892 2825 2928 3152 3359 3501 -9999 -9999 -9999 -9999 -9999 -9999 -9999 -9999 -9999 -9999 -9999 -9999 -9999 -9999 -9999 -9999 -9999 -9999 -9999 -9999 -9999 -9999 -9999 -9999 -9999 -9999 -9999 -9999 -9999 -9999 -9999 -9999 -9999 -9999 -9999 -9999 -9999 -9999 -9999 -9999 -9999 -9999 -9999 -9999 -9999 -9999 -9999 -9999 -9999 -9999 -9999 -9999 -9999 -9999 -9999 -9999 -9999 -9999 -9999 -9999 -9999 -9999 -9999 -9999 -9999 -9999 -9999 -9999 -9999 -9999 -9999 -9999 -9999 -9999 -9999 -9999 -9999 -9999 -9999 -9999 -9999 -9999 -9999 -9999 -9999 -9999 -9999 -9999 -9999 -9999 -9999 -9999 -9999 -9999 -9999 -9999 -9999 -9999 -9999 -9999 -9999 -9999 -9999 -9999 -9999 -9999 -9999 -9999 -9999 -9999 -9999 -9999 -9999 -9999 -9999 -9999 -9999 -9999 -9999 -9999 -9999 -9999 -9999 -9999 -9999 -9999 -9999 -9999 -9999 -9999 -9999 -9999 -9999 -9999 -9999 -9999 -9999 -9999 -9999 -9999 -9999 -9999 -9999 -9999 -9999 -9999 -9999 -9999 -9999 -9999 -9999 -9999 -9999 -9999 -9999 -9999 -9999 -9999 -9999 -9999 -9999 -9999 -9999 -9999 -9999 -9999 -9999 -9999 -9999 -9999 -9999 -9999 -9999 -9999 -9999 -9999 -9999 -9999 -9999 -9999 -9999 -9999 -9999 -9999 -9999 -9999 -9999 -9999 -9999 -9999 -9999 -9999 -9999 -9999 -9999 -9999 -9999 -9999 -9999 -9999 -9999 -9999 -9999 -9999 -9999 -9999 -9999 -9999 -9999 -9999 -9999 -9999 -9999 -9999 -9999 -9999 -9999 -9999 -9999 -9999 -9999 -9999 -9999 -9999 -9999 -9999 -9999 -9999 -9999 -9999 -9999 -9999 -9999 -9999 -9999 -9999 -9999 -9999 -9999 -9999 -9999 -9999 -9999 -9999 -9999 -9999 -9999 -9999 -9999 -9999 -9999 -9999 -9999 -9999 -9999 -9999 -9999 -9999 -9999 -9999 -9999 -9999 -9999 -9999 -9999 -9999 -9999 -9999 -9999 -9999
-9999 -9999 -9999 -9999 -9999 -9999 -9999 -9999 -9999 -9999 -9999 -9999 -9999 -9999 -9999 -9999 -9999 -9999 -9999 -9999 -9999 -9999 -9999 -9999 -9999 -9999 -9999 -9999 -9999 -9999 -9999 -9999 -9999 -9999 2536 2426 2512 2307 2318 2409 2450 2318 2193 2031 2195 2397 2478 2439 2440 2442 2269 2114 1895 1706 1941 2089 1961 1791 2010 2103 1847 1749 2022 2105 2206 2212 2057 2091 2228 2242 2263 2310 2340 2477 2430 2240 2230 2363 2509 2770 2968 3091 3159 3277 3229 3207 3194 3004 2942 2916 3142 3368 3557 -9999 -9999 -9999 -9999 -9999 -9999 -9999 -9999 -9999 -9999 -9999 -9999 -9999 -9999 -9999 -9999 -9999 -9999 -9999 -9999 -9999 -9999 -9999 -9999 -9999 -9999 -9999 -9999 -9999 -9999 -9999 -9999 -9999 -9999 -9999 -9999 -9999 -9999 -9999 -9999 -9999 -9999 -9999 -9999 -9999 -9999 -9999 -9999 -9999 -9999 -9999 -9999 -9999 -9999 -9999 -9999 -9999 -9999 -9999 -9999 -9999 -9999 -9999 -9999 -9999 -9999 -9999 -9999 -9999 -9999 -9999 -9999 -9999 -9999 -9999 -9999 -9999 -9999 -9999 -9999 -9999 -9999 -9999 -9999 -9999 -9999 -9999 -9999 -9999 -9999 -9999 -9999 -9999 -9999 -9999 -9999 -9999 -9999 -9999 -9999 -9999 -9999 -9999 -9999 -9999 -9999 -9999 -9999 -9999 -9999 -9999 -9999 -9999 -9999 -9999 -9999 -9999 -9999 -9999 -9999 -9999 -9999 -9999 -9999 -9999 -9999 -9999 -9999 -9999 -9999 -9999 -9999 -9999 -9999 -9999 -9999 -9999 -9999 -9999 -9999 -9999 -9999 -9999 -9999 -9999 -9999 -9999 -9999 -9999 -9999 -9999 -9999 -9999 -9999 -9999 -9999 -9999 -9999 -9999 -9999 -9999 -9999 -9999 -9999 -9999 -9999 -9999 -9999 -9999 -9999 -9999 -9999 -9999 -9999 -9999 -9999 -9999 -9999 -9999 -9999 -9999 -9999 -9999 -9999 -9999 -9999 -9999 -9999 -9999 -9999 -9999 -9999 -9999 -9999 -9999 -9999 -9999 -9999 -9999 -9999 -9999 -9999 -9999 -9999 -9999 -9999 -9999 -9999 -9999 -9999 -9999 -9999 -9999 -9999 -9999 -9999 -9999 -9999 -9999 -9999 -9999 -9999 -9999 -9999 -9999 -9999 -9999 -9999 -9999 -9999 -9999 -9999 -9999 -9999 -9999 -9999 -9999 -9999 -9999 -9999 -9999 -9999 -9999 -9999 -9999 -9999 -9999 -9999 -9999 -9999 -9999 -9999 -9999 -9999 -9999 -9999 -9999 -9999 -9999 -9999 -9999 -9999 -9999 -9999 -9999 -9999 -9999 -9999 -9999 -9999
-9999 -9999 -9999 -9999 -9999 -9999 -9999 -9999 -9999 -9999 -9999 -9999 -9999 -9999 -9999 -9999 -9999 -9999 -9999 -9999 -9999 -9999 -9999 -9999 -9999 -9999 -9999 -9999 -9999 -9999 -9999 -9999 -9999 -9999 -9999 2629 2662 2471 2524 2658 2490 2297 2176 2194 2357 2613 2681 2535 2323 2182 2182 2068 1833 1879 1868 1992 2250 2051 1879 1975 2168 1907 1818 1990 2125 2414 2408 2193 2160 2407 2564 2496 2641 2699 2729 2658 2637 2584 2503 2511 2755 2896 3242 3372 3523 3449 3287 3274 3206 3109 3104 3396 3672 -9999 -9999 -9999 -9999 -9999 -9999 -9999 -9999 -9999 -9999 -9999 -9999 -9999 -9999 -9999 -9999 -9999 -9999 -9999 -9999 -9999 -9999 -9999 -9999 -9999 -9999 -9999 -9999 -9999 -9999 -9999 -9999 -9999 -9999 -9999 -9999 -9999 -9999 -9999 -9999 -9999 -9999 -9999 -9999 -9999 -9999 -9999 -9999 -9999 -9999 -9999 -9999 -9999 -9999 -9999 -9999 -9999 -9999 -9999 -9999 -9999 -9999 -9999 -9999 -9999 -9999 -9999 -9999 -9999 -9999 -9999 -9999 -9999 -9999 -9999 -9999 -9999 -9999 -9999 -9999 -9999 -9999 -9999 -9999 -9999 -9999 -9999 -9999 -9999 -9999 -9999 -9999 -9999 -9999 -9999 -9999 -9999 -9999 -9999 -9999 -9999 -9999 -9999 -9999 -9999 -9999 -9999 -9999 -9999 -9999 -9999 -9999 -9999 -9999 -9999 -9999 -9999 -9999 -9999 -9999 -9999 -9999 -9999 -9999 -9999 -9999 -9999 -9999 -9999 -9999 -9999 -9999 -9999 -9999 -9999 -9999 -9999 -9999 -9999 -9999 -9999 -9999 -9999 -9999 -9999 -9999 -9999 -9999 -9999 -9999 -9999 -9999 -9999 -9999 -9999 -9999 -9999 -9999 -9999 -9999 -9999 -9999 -9999 -9999 -9999 -9999 -9999 -9999 -9999 -9999 -9999 -9999 -9999 -9999 -9999 -9999 -9999 -9999 -9999 -9999 -9999 -9999 -9999 -9999 -9999 -9999 -9999 -9999 -9999 -9999 -9999 -9999 -9999 -9999 -9999 -9999 -9999 -9999 -9999 -9999 -9999 -9999 -9999 -9999 -9999 -9999 -9999 -9999 -9999 -9999 -9999 -9999 -9999 -9999 -9999 -9999 -9999 -9999 -9999 -9999 -9999 -9999 -9999 -9999 -9999 -9999 -9999 -9999 -9999 -9999 -9999 -9999 -9999 -9999 -9999 -9999 -9999 -9999 -9999 -9999 -9999 -9999 -9999 -9999 -9999 -9999 -9999 -9999 -9999 -9999 -9999 -9999 -9999 -9999 -9999 -9999 -9999 -9999 -9999 -9999 -9999 -9999 -9999 -9999 -9999 -9999 -9999 -9999 -9999 -9999
-9999 -9999 -9999 -9999 -9999 -9999 -9999 -9999 -9999 -9999 -9999 -9999 -9999 -9999 -9999 -9999 -9999 -9999 -9999 -9999 -9999 -9999 -9999 -9999 -9999 -9999 -9999 -9999 -9999 -9999 -9999 -9999 -9999 -9999 -9999 2809 2769 2604 2655 2612 2417 2265 2192 2333 2397 2642 2784 2569 2401 2171 2089 2066 1807 1998 1995 1976 2255 2079 1982 1968 2243 2132 2002 1962 2124 2402 2561 2385 2341 2298 2558 2675 2752 2884 2854 2838 2830 2790 2665 2531 2812 2983 3296 3408 3535 3488 3323 3381 3264 3264 3129 3376 -9999 -9999 -9999 -9999 -9999 -9999 -9999 -9999 -9999 -9999 -9999 -9999 -9999 -9999 -9999 -9999 -9999 -9999 -9999 -9999 -9999 -9999 -9999 -9999 -9999 -9999 -9999 -9999 -9999 -9999 -9999 -9999 -9999 -9999 -9999 -9999 -9999 -9999 -9999 -9999 -9999 -9999 -9999 -9999 -9999 -9999 -9999 -9999 -9999 -9999 -9999 -9999 -9999 -9999 -9999 -9999 -9999 -9999 -9999 -9999 -9999 -9999 -9999 -9999 -9999 -9999 -9999 -9999 -9999 -9999 -9999 -9999 -9999 -9999 -9999 -9999 -9999 -9999 -9999 -9999 -9999 -9999 -9999 -9999 -9999 -9999 -9999 -9999 -9999 -9999 -9999 -9999 -9999 -9999 -9999 -9999 -9999 -9999 -9999 -9999 -9999 -9999 -9999 -9999 -9999 -9999 -9999 -9999 -9999 -9999 -9999 -9999 -9999 -9999 -9999 -9999 -9999 -9999 -9999 -9999 -9999 -9999 -9999 -9999 -9999 -9999 -9999 -9999 -9999 -9999 -9999 -9999 -9999 -9999 -9999 -9999 -9999 -9999 -9999 -9999 -9999 -9999 -9999 -9999 -9999 -9999 -9999 -9999 -9999 -9999 -9999 -9999 -9999 -9999 -9999 -9999 -9999 -9999 -9999 -9999 -9999 -9999 -9999 -9999 -9999 -9999 -9999 -9999 -9999 -9999 -9999 -9999 -9999 -9999 -9999 -9999 -9999 -9999 -9999 -9999 -9999 -9999 -9999 -9999 -9999 -9999 -9999 -9999 -9999 -9999 -9999 -9999 -9999 -9999 -9999 -9999 -9999 -9999 -9999 -9999 -9999 -9999 -9999 -9999 -9999 -9999 -9999 -9999 -9999 -9999 -9999 -9999 -9999 -9999 -9999 -9999 -9999 -9999 -9999 -9999 -9999 -9999 -9999 -9999 -9999 -9999 -9999 -9999 -9999 -9999 -9999 -9999 -9999 -9999 -9999 -9999 -9999 -9999 -9999 -9999 -9999 -9999 -9999 -9999 -9999 -9999 -9999 -9999 -9999 -9999 -9999 -9999 -9999 -9999 -9999 -9999 -9999 -9999 -9999 -9999 -9999 -9999 -9999 -9999 -9999 -9999 -9999 -9999 -9999 -9999 -9999
-9999 -9999 -9999 -9999 -9999 -9999 -9999 -9999 -9999 -9999 -9999 -9999 -9999 -9999 -9999 -9999 -9999 -9999 -9999 -9999 -9999 -9999 -9999 -9999 -9999 -9999 -9999 -9999 -9999 -9999 -9999 -9999 -9999 -9999 -9999 -9999 2939 2942 2923 2666 2441 2316 2335 2398 2576 2817 2853 2562 2285 2127 2091 2017 1903 2095 2293 2291 2140 2006 2230 2107 2113 2360 2168 1919 1963 2178 2291 2511 2557 2592 2446 2575 2667 2795 2969 3213 3309 3224 2999 2741 2664 2743 2897 3075 3369 3478 3456 3431 3529 3433 3194 3364 -9999 -9999 -9999 -9999 -9999 -9999 -9999 -9999 -9999 -9999 -9999 -9999 -9999 -9999 -9999 -9999 -9999 -9999 -9999 -9999 -9999 -9999 -9999 -9999 -9999 -9999 -9999 -9999 -9999 -9999 -9999 -9999 -9999 -9999 -9999 -9999 -9999 -9999 -9999 -9999 -9999 -9999 -9999 -9999 -9999 -9999 -9999 -9999 -9999 -9999 -9999 -9999 -9999 -9999 -9999 -9999 -9999 -9999 -9999 -9999 -9999 -9999 -9999 -9999 -9999 -9999 -9999 -9999 -9999 -9999 -9999 -9999 -9999 -9999 -9999 -9999 -9999 -9999 -9999 -9999 -9999 -9999 -9999 -9999 -9999 -9999 -9999 -9999 -9999 -9999 -9999 -9999 -9999 -9999 -9999 -9999 -9999 -9999 -9999 -9999 -9999 -9999 -9999 -9999 -9999 -9999 -9999 -9999 -9999 -9999 -9999 -9999 -9999 -9999 -9999 -9999 -9999 -9999 -9999 -9999 -9999 -9999 -9999 -9999 -9999 -9999 -9999 -9999 -9999 -9999 -9999 -9999 -9999 -9999 -9999 -9999 -9999 -9999 -9999 -9999 -9999 -9999 -9999 -9999 -9999 -9999 -9999 -9999 -9999 -9999 -9999 -9999 -9999 -9999 -9999 -9999 -9999 -9999 -9999 -9999 -9999 -9999 -9999 -9999 -9999 -9999 -9999 -9999 -9999 -9999 -9999 -9999 -9999 -9999 -9999 -9999 -9999 -9999 -9999 -9999 -9999 -9999 -9999 -9999 -9999 -9999 -9999 -9999 -9999 -9999 -9999 -9999 -9999 -9999 -9999 -9999 -9999 -9999 -9999 -9999 -9999 -9999 -9999 -9999 -9999 -9999 -9999 -9999 -9999 -9999 -9999 -9999 -9999 -9999 -9999 -9999 -9999 -9999 -9999 -9999 -9999 -9999 -9999 -9999 -9999 -9999 -9999 -9999 -9999 -9999 -9999 -9999 -9999 -9999 -9999 -9999 -9999 -9999 -9999 -9999 -9999 -9999 -9999 -9999 -9999 -9999 -9999 -9999 -9999 -9999 -9999 -9999 -9999 -9999 -9999 -9999 -9999 -9999 -9999 -9999 -9999 -9999 -9999 -9999 -9999 -9999 -9999 -9999 -9999 -9999 -9999
-9999 -9999 -9999 -9999 -9999 -9999 -9999 -9999 -9999 -9999 -9999 -9999 -9999 -9999 -9999 -9999 -9999 -9999 -9999 -9999 -9999 -9999 -9999 -9999 -9999 -9999 -9999 -9999 -9999 -9999 -9999 -9999 -9999 -9999 -9999 3253 3218 3080 2923 2754 2596 2490 2580 2615 2769 2869 2745 2543 2391 2288 2026 1985 2161 2345 2460 2374 2113 2135 2321 2332 2083 2297 2411 2197 2044 2024 2145 2239 2353 2561 2757 2772 2776 2923 2974 3075 3177 3373 3180 3012 2931 2841 2946 2930 3040 3175 3554 3532 3476 3405 3275 3371 -9999 -9999 -9999 -9999 -9999 -9999 -9999 -9999 -9999 -9999 -9999 -9999 -9999 -9999 -9999 -9999 -9999 -9999 -9999 -9999 -9999 -9999 -9999 -9999 -9999 -9999 -9999 -9999 -9999 -9999 -9999 -9999 -9999 -9999 -9999 -9999 -9999 -9999 -9999 -9999 -9999 -9999 -9999 -9999 -9999 -9999 -9999 -9999 -9999 -9999 -9999 -9999 -9999 -9999 -9999 -9999 -9999 -9999 -9999 -9999 -9999 -9999 -9999 -9999 -9999 -9999 -9999 -9999 -9999 -9999 -9999 -9999 -9999 -9999 -9999 -9999 -9999 -9999 -9999 -9999 -9999 -9999 -9999 -9999 -9999 -9999 -9999 -9999 -9999 -9999 -9999 -9999 -9999 -9999 -9999 -9999 -9999 -9999 -9999 -9999 -9999 -9999 -9999 -9999 -9999 -9999 -9999 -9999 -9999 -9999 -9999 -9999 -9999 -9999 -9999 -9999 -9999 -9999 -9999 -9999 -9999 -9999 -9999 -9999 -9999 -9999 -9999 -9999 -9999 -9999 -9999 -9999 -9999 -9999 -9999 -9999 -9999 -9999 -9999 -9999 -9999 -9999 -9999 -9999 -9999 -9999 -9999 -9999 -9999 -9999 -9999 -9999 -9999 -9999 -9999 -9999 -9999 -9999 -9999 -9999 -9999 -9999 -9999 -9999 -9999 -9999 -9999 -9999 -9999 -9999 -9999 -9999 -9999 -9999 -9999 -9999 -9999 -9999 -9999 -9999 -9999 -9999 -9999 -9999 -9999 -9999 -9999 -9999 -9999 -9999 -9999 -9999 -9999 -9999 -9999 -9999 -9999 -9999 -9999 -9999 -9999 -9999 -9999 -9999 -9999 -9999 -9999 -9999 -9999 -9999 -9999 -9999 -9999 -9999 -9999 -9999 -9999 -9999 -9999 -9999 -9999 -9999 -9999 -9999 -9999 -9999 -9999 -9999 -9999 -9999 -9999 -9999 -9999 -9999 -9999 -9999 -9999 -9999 -9999 -9999 -9999 -9999 -9999 -9999 -9999 -9999 -9999 -9999 -9999 -9999 -9999 -9999 -9999 -9999 -9999 -9999 -9999 -9999 -9999 -9999 -9999 -9999 -9999 -9999 -9999 -9999 -9999 -9999 -9999 -9999 -9999
-9999 -9999 -9999 -9999 -9999 -9999 -9999 -9999 -9999 -9999 -9999 -9999 -9999 -9999 -9999 -9999 -9999 -9999 -9999 -9999 -9999 -9999 -9999 -9999 -9999 -9999 -9999 -9999 -9999 -9999 -9999 -9999 -9999 -9999 -9999 -9999 -9999 -9999 -9999 3009 2911 2713 2695 2942 2886 2663 2528 2380 2241 2152 2191 2293 2277 2424 2592 2495 2266 2270 2262 2366 2293 2184 2279 2365 2236 2197 2303 2170 2127 2227 2464 2662 2805 2917 2889 3151 3258 3242 3367 3331 3100 3112 3255 3180 3161 3181 3452 3637 3482 3426 3351 3379 -9999 -9999 -9999 -9999 -9999 -9999 -9999 -9999 -9999 -9999 -9999 -9999 -9999 -9999 -9999 -9999 -9999 -9999 -9999 -9999 -9999 -9999 -9999 -9999 -9999 -9999 -9999 -9999 -9999 -9999 -9999 -9999 -9999 -9999 -9999 -9999 -9999 -9999 -9999 -9999 -9999 -9999 -9999 -9999 -9999 -9999 -9999 -9999 -9999 -9999 -9999 -9999 -9999 -9999 -9999 -9999 -9999 -9999 -9999 -9999 -9999 -9999 -9999 -9999 -9999 -9999 -9999 -9999 -9999 -9999 -9999 -9999 -9999 -9999 -9999 -9999 -9999 -9999 -9999 -9999 -9999 -9999 -9999 -9999 -9999 -9999 -9999 -9999 -9999 -9999 -9999 -9999 -9999 -9999 -9999 -9999 -9999 -9999 -9999 -9999 -9999 -9999 -9999 -9999 -9999 -9999 -9999 -9999 -9999 -9999 -9999 -9999 -9999 -9999 -9999 -9999 -9999 -9999 -9999 -9999 -9999 -9999 -9999 -9999 -9999 -9999 -9999 -9999 -9999 -9999 -9999 -9999 -9999 -9999 -9999 -9999 -9999 -9999 -9999 -9999 -9999 -9999 -9999 -9999 -9999 -9999 -9999 -9999 -9999 -9999 -9999 -9999 -9999 -9999 -9999 -9999 -9999 -9999 -9999 -9999 -9999 -9999 -9999 -9999 -9999 -9999 -9999 -9999 -9999 -9999 -9999 -9999 -9999 -9999 -9999 -9999 -9999 -9999 -9999 -9999 -9999 -9999 -9999 -9999 -9999 -9999 -9999 -9999 -9999 -9999 -9999 -9999 -9999 -9999 -9999 -9999 -9999 -9999 -9999 -9999 -9999 -9999 -9999 -9999 -9999 -9999 -9999 -9999 -9999 -9999 -9999 -9999 -9999 -9999 -9999 -9999 -9999 -9999 -9999 -9999 -9999 -9999 -9999 -9999 -9999 -9999 -9999 -9999 -9999 -9999 -9999 -9999 -9999 -9999 -9999 -9999 -9999 -9999 -9999 -9999 -9999 -9999 -9999 -9999 -9999 -9999 -9999 -9999 -9999 -9999 -9999 -9999 -9999 -9999 -9999 -9999 -9999 -9999 -9999 -9999 -9999 -9999 -9999 -9999 -9999 -9999 -9999 -9999 -9999 -9999 -9999
-9999 -9999 -9999 -9999 -9999 -9999 -9999 -9999 -9999 -9999 -9999 -9999 -9999 -9999 -9999 -9999 -9999 -9999 -9999 -9999 -9999 -9999 -9999 -9999 -9999 -9999 -9999 -9999 -9999 -9999 -9999 -9999 -9999 -9999 -9999 -9999 -9999 -9999 -9999 -9999 -9999 3055 3060 2900 2682 2599 2672 2533 2383 2314 2536 2655 2669 2573 2525 2514 2500 2440 2557 2483 2376 2215 2419 2521 2477 2254 2384 2511 2458 2371 2276 2454 2497 2541 2809 2924 2872 2972 3203 3451 3354 3337 3500 3287 3311 3332 3298 3461 3609 3591 3425 3444 -9999 -9999 -9999 -9999 -9999 -9999 -9999 -9999 -9999 -9999 -9999 -9999 -9999 -9999 -9999 -9999 -9999 -9999 -9999 -9999 -9999 -9999 -9999 -9999 -9999 -9999 -9999 -9999 -9999 -9999 -9999 -9999 -9999 -9999 -9999 -9999 -9999 -9999 -9999 -9999 -9999 -9999 -9999 -9999 -9999 -9999 -9999 -9999 -9999 -9999 -9999 -9999 -9999 -9999 -9999 -9999 -9999 -9999 -9999 -9999 -9999 -9999 -9999 -9999 -9999 -9999 -9999 -9999 -9999 -9999 -9999 -9999 -9999 -9999 -9999 -9999 -9999 -9999 -9999 -9999 -9999 -9999 -9999 -9999 -9999 -9999 -9999 -9999 -9999 -9999 -9999 -9999 -9999 -9999 -9999 -9999 -9999 -9999 -9999 -9999 -9999 -9999 -9999 -9999 -9999 -9999 -9999 -9999 -9999 -9999 -9999 -9999 -9999 -9999 -9999 -9999 -9999 -9999 -9999 -9999 -9999 -9999 -9999 -9999 -9999 -9999 -9999 -9999 -9999 -9999 -9999 -9999 -9999 -9999 -9999 -9999 -9999 -9999 -9999 -9999 -9999 -9999 -9999 -9999 -9999 -9999 -9999 -9999 -9999 -9999 -9999 -9999 -9999 -9999 -9999 -9999 -9999 -9999 -9999 -9999 -9999 -9999 -9999 -9999 -9999 -9999 -9999 -9999 -9999 -9999 -9999 -9999 -9999 -9999 -9999 -9999 -9999 -9999 -9999 -9999 -9999 -9999 -9999 -9999 -9999 -9999 -9999 -9999 -9999 -9999 -9999 -9999 -9999 -9999 -9999 -9999 -9999 -9999 -9999 -9999 -9999 -9999 -9999 -9999 -9999 -9999 -9999 -9999 -9999 -9999 -9999 -9999 -9999 -9999 -9999 -9999 -9999 -9999 -9999 -9999 -9999 -9999 -9999 -9999 -9999 -9999 -9999 -9999 -9999 -9999 -9999 -9999 -9999 -9999 -9999 -9999 -9999 -9999 -9999 -9999 -9999 -9999 -9999 -9999 -9999 -9999 -9999 -9999 -9999 -9999 -9999 -9999 -9999 -9999 -9999 -9999 -9999 -9999 -9999 -9999 -9999 -9999 -9999 -9999 -9999 -9999 -9999 -9999 -9999 -9999 -9999
-9999 -9999 -9999 -9999 -9999 -9999 -9999 -9999 -9999 -9999 -9999 -9999 -9999 -9999 -9999 -9999 -9999 -9999 -9999 -9999 -9999 -9999 -9999 -9999 -9999 -9999 -9999 -9999 -9999 -9999 -9999 -9999 -9999 -9999 -9999 -9999 -9999 -9999 -9999 -9999 -9999 -9999 3168 2948 2819 2766 2693 2553 2473 2409 2590 2674 2842 2682 2661 2610 2700 2570 2702 2576 2325 2268 2372 2532 2563 2297 2267 2453 2522 2570 2398 2365 2396 2551 2679 2738 2722 2921 3148 3283 3417 3447 3519 3334 3377 3438 3345 3564 3673 3554 3467 3540 -9999 -9999 -9999 -9999 -9999 -9999 -9999 -9999 -9999 -9999 -9999 -9999 -9999 -9999 -9999 -9999 -9999 -9999 -9999 -9999 -9999 -9999 -9999 -9999 -9999 -9999 -9999 -9999 -9999 -9999 -9999 -9999 -9999 -9999 -9999 -9999 -9999 -9999 -9999 -9999 -9999 -9999 -9999 -9999 -9999 -9999 -9999 -9999 -9999 -9999 -9999 -9999 -9999 -9999 -9999 -9999 -9999 -9999 -9999 -9999 -9999 -9999 -9999 -9999 -9999 -9999 -9999 -9999 -9999 -9999 -9999 -9999 -9999 -9999 -9999 -9999 -9999 -9999 -9999 -9999 -9999 -9999 -9999 -9999 -9999 -9999 -9999 -9999 -9999 -9999 -9999 -9999 -9999 -9999 -9999 -9999 -9999 -9999 -9999 -9999 -9999 -9999 -9999 -9999 -9999 -9999 -9999 -9999 -9999 -9999 -9999 -9999 -9999 -9999 -9999 -9999 -9999 -9999 -9999 -9999 -9999 -9999 -9999 -9999 -9999 -9999 -9999 -9999 -9999 -9999 -9999 -9999 -9999 -9999 -9999 -9999 -9999 -9999 -9999 -9999 -9999 -9999 -9999 -9999 -9999 -9999 -9999 -9999 -9999 -9999 -9999 -9999 -9999 -9999 -9999 -9999 -9999 -9999 -9999 -9999 -9999 -9999 -9999 -9999 -9999 -9999 -9999 -9999 -9999 -9999 -9999 -9999 -9999 -9999 -9999 -9999 -9999 -9999 -9999 -9999 -9999 -9999 -9999 -9999 -9999 -9999 -9999 -9999 -9999 -9999 -9999 -9999 -9999 -9999 -9999 -9999 -9999 -9999 -9999 -9999 -9999 -9999 -9999 -9999 -9999 -9999 -9999 -9999 -9999 -9999 -9999 -9999 -9999 -9999 -9999 -9999 -9999 -9999 -9999 -9999 -9999 -9999 -9999 -9999 -9999 -9999 -9999 -9999 -9999 -9999 -9999 -9999 -9999 -9999 -9999 -9999 -9999 -9999 -9999 -9999 -9999 -9999 -9999 -9999 -9999 -9999 -9999 -9999 -9999 -9999 -9999 -9999 -9999 -9999 -9999 -9999 -9999 -9999 -9999 -9999 -9999 -9999 -9999 -9999 -9999 -9999 -9999 -9999 -9999 -9999 -9999
-9999 -9999 -9999 -9999 -9999 -9999 -9999 -9999 -9999 -9999 -9999 -9999 -9999 -9999 -9999 -9999 -9999 -9999 -9999 -9999 -9999 -9999 -9999 -9999 -9999 -9999 -9999 -9999 -9999 -9999 -9999 -9999 -9999 -9999 -9999 -9999 -9999 -9999 -9999 -9999 -9999 -9999 -9999 -9999 -9999 3040 3004 2840 2814 2662 2718 2794 3018 2951 2963 2903 3022 2865 2771 2735 2586 2386 2324 2564 2629 2654 2504 2444 2401 2528 2649 2734 2729 2591 2607 2647 2739 2812 2907 3046 3219 3340 3553 3558 3605 3538 3509 -9999 -9999 -9999 -9999 -9999 -9999 -9999 -9999 -9999 -9999 -9999 -9999 -9999 -9999 -9999 -9999 -9999 -9999 -9999 -9999 -9999 -9999 -9999 -9999 -9999 -9999 -9999 -9999 -9999 -9999 -9999 -9999 -9999 -9999 -9999 -9999 -9999 -9999 -9999 -9999 -9999 -9999 -9999 -9999 -9999 -9999 -9999 -9999 -9999 -9999 -9999 -9999 -9999 -9999 -9999 -9999 -9999 -9999 -9999 -9999 -9999 -9999 -9999 -9999 -9999 -9999 -9999 -9999 -9999 -9999 -9999 -9999 -9999 -9999 -9999 -9999 -9999 -9999 -9999 -9999 -9999 -9999 -9999 -9999 -9999 -9999 -9999 -9999 -9999 -9999 -9999 -9999 -9999 -9999 -9999 -9999 -9999 -9999 -9999 -9999 -9999 -9999 -9999 -9999 -9999 -9999 -9999 -9999 -9999 -9999 -9999 -9999 -9999 -9999 -9999 -9999 -9999 -9999 -9999 -9999 -9999 -9999 -9999 -9999 -9999 -9999 -9999 -9999 -9999 -9999 -9999 -9999 -9999 -9999 -9999 -9999 -9999 -9999 -9999 -9999 -9999 -9999 -9999 -9999 -9999 -9999 -9999 -9999 -9999 -9999 -9999 -9999 -9999 -9999 -9999 -9999 -9999 -9999 -9999 -9999 -9999 -9999 -9999 -9999 -9999 -9999 -9999 -9999 -9999 -9999 -9999 -9999 -9999 -9999 -9999 -9999 -9999 -9999 -9999 -9999 -9999 -9999 -9999 -9999 -9999 -9999 -9999 -9999 -9999 -9999 -9999 -9999 -9999 -9999 -9999 -9999 -9999 -9999 -9999 -9999 -9999 -9999 -9999 -9999 -9999 -9999 -9999 -9999 -9999 -9999 -9999 -9999 -9999 -9999 -9999 -9999 -9999 -9999 -9999 -9999 -9999 -9999 -9999 -9999 -9999 -9999 -9999 -9999 -9999 -9999 -9999 -9999 -9999 -9999 -9999 -9999 -9999 -9999 -9999 -9999 -9999 -9999 -9999 -9999 -9999 -9999 -9999 -9999 -9999 -9999 -9999 -9999 -9999 -9999 -9999 -9999 -9999 -9999 -9999 -9999 -9999 -9999 -9999 -9999 -9999 -9999 -9999 -9999 -9999 -9999 -9999 -9999 -9999 -9999 -9999 -9999
-9999 -9999 -9999 -9999 -9999 -9999 -9999 -9999 -9999 -9999 -9999 -9999 -9999 -9999 -9999 -9999 -9999 -9999 -9999 -9999 -9999 -9999 -9999 -9999 -9999 -9999 -9999 -9999 -9999 -9999 -9999 -9999 -9999 -9999 -9999 -9999 -9999 -9999 -9999 -9999 -9999 -9999 -9999 -9999 -9999 -9999 -9999 -9999 -9999 3030 3082 3118 3179 3172 -9999 -9999 -9999 3086 2906 2835 2705 2561 2525 2445 2583 2795 2825 2782 2762 2700 2729 2816 2784 2764 2890 2948 2994 3093 3224 3326 3459 3453 3523 3689 -9999 -9999 -9999 -9999 -9999 -9999 -9999 -9999 -9999 -9999 -9999 -9999 -9999 -9999 -9999 -9999 -9999 -9999 -9999 -9999 -9999 -9999 -9999 -9999 -9999 -9999 -9999 -9999 -9999 -9999 -9999 -9999 -9999 -9999 -9999 -9999 -9999 -9999 -9999 -9999 -9999 -9999 -9999 -9999 -9999 -9999 -9999 -9999 -9999 -9999 -9999 -9999 -9999 -9999 -9999 -9999 -9999 -9999 -9999 -9999 -9999 -9999 -9999 -9999 -9999 -9999 -9999 -9999 -9999 -9999 -9999 -9999 -9999 -9999 -9999 -9999 -9999 -9999 -9999 -9999 -9999 -9999 -9999 -9999 -9999 -9999 -9999 -9999 -9999 -9999 -9999 -9999 -9999 -9999 -9999 -9999 -9999 -9999 -9999 -9999 -9999 -9999 -9999 -9999 -9999 -9999 -9999 -9999 -9999 -9999 -9999 -9999 -9999 -9999 -9999 -9999 -9999 -9999 -9999 -9999 -9999 -9999 -9999 -9999 -9999 -9999 -9999 -9999 -9999 -9999 -9999 -9999 -9999 -9999 -9999 -9999 -9999 -9999 -9999 -9999 -9999 -9999 -9999 -9999 -9999 -9999 -9999 -9999 -9999 -9999 -9999 -9999 -9999 -9999 -9999 -9999 -9999 -9999 -9999 -9999 -9999 -9999 -9999 -9999 -9999 -9999 -9999 -9999 -9999 -9999 -9999 -9999 -9999 -9999 -9999 -9999 -9999 -9999 -9999 -9999 -9999 -9999 -9999 -9999 -9999 -9999 -9999 -9999 -9999 -9999 -9999 -9999 -9999 -9999 -9999 -9999 -9999 -9999 -9999 -9999 -9999 -9999 -9999 -9999 -9999 -9999 -9999 -9999 -9999 -9999 -9999 -9999 -9999 -9999 -9999 -9999 -9999 -9999 -9999 -9999 -9999 -9999 -9999 -9999 -9999 -9999 -9999 -9999 -9999 -9999 -9999 -9999 -9999 -9999 -9999 -9999 -9999 -9999 -9999 -9999 -9999 -9999 -9999 -9999 -9999 -9999 -9999 -9999 -9999 -9999 -9999 -9999 -9999 -9999 -9999 -9999 -9999 -9999 -9999 -9999 -9999 -9999 -9999 -9999 -9999 -9999 -9999 -9999 -9999 -9999 -9999 -9999 -9999 -9999 -9999 -9999 -9999 -9999 -9999
-9999 -9999 -9999 -9999 -9999 -9999 -9999 -9999 -9999 -9999 -9999 -9999 -9999 -9999 -9999 -9999 -9999 -9999 -9999 -9999 -9999 -9999 -9999 -9999 -9999 -9999 -9999 -9999 -9999 -9999 -9999 -9999 -9999 -9999 -9999 -9999 -9999 -9999 -9999 -9999 -9999 -9999 -9999 -9999 -9999 -9999 -9999 -9999 -9999 -9999 -9999 -9999 -9999 -9999 -9999 -9999 -9999 -9999 3052 3031 2920 2775 2586 2469 2615 2849 3047 3091 3034 2940 3048 3046 3078 2959 2991 3034 3170 3442 3331 -9999 -9999 -9999 -9999 -9999 -9999 -9999 -9999 -9999 -9999 -9999 -9999 -9999 -9999 -9999 -9999 -9999 -9999 -9999 -9999 -9999 -9999 -9999 -9999 -9999 -9999 -9999 -9999 -9999 -9999 -9999 -9999 -9999 -9999 -9999 -9999 -9999 -9999 -9999 -9999 -9999 -9999 -9999 -9999 -9999 -9999 -9999 -9999 -9999 -9999 -9999 -9999 -9999 -9999 -9999 -9999 -9999 -9999 -9999 -9999 -9999 -9999 -9999 -9999 -9999 -9999 -9999 -9999 -9999 -9999 -9999 -9999 -9999 -9999 -9999 -9999 -9999 -9999 -9999 -9999 -9999 -9999 -9999 -9999 -9999 -9999 -9999 -9999 -9999 -9999 -9999 -9999 -9999 -9999 -9999 -9999 -9999 -9999 -9999 -9999 -9999 -9999 -9999 -9999 -9999 -9999 -9999 -9999 -9999 -9999 -9999 -9999 -9999 -9999 -9999 -9999 -9999 -9999 -9999 -9999 -9999 -9999 -9999 -9999 -9999 -9999 -9999 -9999 -9999 -9999 -9999 -9999 -9999 -9999 -9999 -9999 -9999 -9999 -9999 -9999 -9999 -9999 -9999 -9999 -9999 -9999 -9999 -9999 -9999 -9999 -9999 -9999 -9999 -9999 -9999 -9999 -9999 -9999 -9999 -9999 -9999 -9999 -9999 -9999 -9999 -9999 -9999 -9999 -9999 -9999 -9999 -9999 -9999 -9999 -9999 -9999 -9999 -9999 -9999 -9999 -9999 -9999 -9999 -9999 -9999 -9999 -9999 -9999 -9999 -9999 -9999 -9999 -9999 -9999 -9999 -9999 -9999 -9999 -9999 -9999 -9999 -9999 -9999 -9999 -9999 -9999 -9999 -9999 -9999 -9999 -9999 -9999 -9999 -9999 -9999 -9999 -9999 -9999 -9999 -9999 -9999 -9999 -9999 -9999 -9999 -9999 -9999 -9999 -9999 -9999 -9999 -9999 -9999 -9999 -9999 -9999 -9999 -9999 -9999 -9999 -9999 -9999 -9999 -9999 -9999 -9999 -9999 -9999 -9999 -9999 -9999 -9999 -9999 -9999 -9999 -9999 -9999 -9999 -9999 -9999 -9999 -9999 -9999 -9999 -9999 -9999 -9999 -9999 -9999 -9999 -9999 -9999 -9999 -9999 -9999 -9999 -9999 -9999 -9999 -9999 -9999 -9999 -9999 -9999
-9999 -9999 -9999 -9999 -9999 -9999 -9999 -9999 -9999 -9999 -9999 -9999 -9999 -9999 -9999 -9999 -9999 -9999 -9999 -9999 -9999 -9999 -9999 -9999 -9999 -9999 -9999 -9999 -9999 -9999 -9999 -9999 -9999 -9999 -9999 -9999 -9999 -9999 -9999 -9999 -9999 -9999 -9999 -9999 -9999 -9999 -9999 -9999 -9999 -9999 -9999 -9999 -9999 -9999 -9999 -9999 -9999 -9999 -9999 -9999 -9999 -9999 2688 2488 2517 2726 2976 3146 3175 3079 3175 3184 3081 3136 3017 3141 -9999 -9999 -9999 -9999 -9999 -9999 -9999 -9999 -9999 -9999 -9999 -9999 -9999 -9999 -9999 -9999 -9999 -9999 -9999 -9999 -9999 -9999 -9999 -9999 -9999 -9999 -9999 -9999 -9999 -9999 -9999 -9999 -9999 -9999 -9999 -9999 -9999 -9999 -9999 -9999 -9999 -9999 -9999 -9999 -9999 -9999 -9999 -9999 -9999 -9999 -9999 -9999 -9999 -9999 -9999 -9999 -9999 -9999 -9999 -9999 -9999 -9999 -9999 -9999 -9999 -9999 -9999 -9999 -9999 -9999 -9999 -9999 -9999 -9999 -9999 -9999 -9999 -9999 -9999 -9999 -9999 -9999 -9999 -9999 -9999 -9999 -9999 -9999 -9999 -9999 -9999 -9999 -9999 -9999 -9999 -9999 -9999 -9999 -9999 -9999 -9999 -9999 -9999 -9999 -9999 -9999 -9999 -9999 -9999 -9999 -9999 -9999 -9999 -9999 -9999 -9999 -9999 -9999 -9999 -9999 -9999 -9999 -9999 -9999 -9999 -9999 -9999 -9999 -9999 -9999 -9999 -9999 -9999 -9999 -9999 -9999 -9999 -9999 -9999 -9999 -9999 -9999 -9999 -9999 -9999 -9999 -9999 -9999 -9999 -9999 -9999 -9999 -9999 -9999 -9999 -9999 -9999 -9999 -9999 -9999 -9999 -9999 -9999 -9999 -9999 -9999 -9999 -9999 -9999 -9999 -9999 -9999 -9999 -9999 -9999 -9999 -9999 -9999 -9999 -9999 -9999 -9999 -9999 -9999 -9999 -9999 -9999 -9999 -9999 -9999 -9999 -9999 -9999 -9999 -9999 -9999 -9999 -9999 -9999 -9999 -9999 -9999 -9999 -9999 -9999 -9999 -9999 -9999 -9999 -9999 -9999 -9999 -9999 -9999 -9999 -9999 -9999 -9999 -9999 -9999 -9999 -9999 -9999 -9999 -9999 -9999 -9999 -9999 -9999 -9999 -9999 -9999 -9999 -9999 -9999 -9999 -9999 -9999 -9999 -9999 -9999 -9999 -9999 -9999 -9999 -9999 -9999 -9999 -9999 -9999 -9999 -9999 -9999 -9999 -9999 -9999 -9999 -9999 -9999 -9999 -9999 -9999 -9999 -9999 -9999 -9999 -9999 -9999 -9999 -9999 -9999 -9999 -9999 -9999 -9999 -9999 -9999 -9999 -9999 -9999 -9999 -9999 -9999 -9999 -9999 -9999 -9999
-9999 -9999 -9999 -9999 -9999 -9999 -9999 -9999 -9999 -9999 -9999 -9999 -9999 -9999 -9999 -9999 -9999 -9999 -9999 -9999 -9999 -9999 -9999 -9999 -9999 -9999 -9999 -9999 -9999 -9999 -9999 -9999 -9999 -9999 -9999 -9999 -9999 -9999 -9999 -9999 -9999 -9999 -9999 -9999 -9999 -9999 -9999 -9999 -9999 -9999 -9999 -9999 -9999 -9999 -9999 -9999 -9999 -9999 -9999 -9999 -9999 -9999 -9999 2728 2677 2613 2757 2990 -9999 -9999 -9999 3297 3272 3256 3210 -9999 -9999 -9999 -9999 -9999 -9999 -9999 -9999 -9999 -9999 -9999 -9999 -9999 -9999 -9999 -9999 -9999 -9999 -9999 -9999 -9999 -9999 -9999 -9999 -9999 -9999 -9999 -9999 -9999 -9999 -9999 -9999 -9999 -9999 -9999 -9999 -9999 -9999 -9999 -9999 -9999 -9999 -9999 -9999 -9999 -9999 -9999 -9999 -9999 -9999 -9999 -9999 -9999 -9999 -9999 -9999 -9999 -9999 -9999 -9999 -9999 -9999 -9999 -9999 -9999 -9999 -9999 -9999 -9999 -9999 -9999 -9999 -9999 -9999 -9999 -9999 -9999 -9999 -9999 -9999 -9999 -9999 -9999 -9999 -9999 -9999 -9999 -9999 -9999 -9999 -9999 -9999 -9999 -9999 -9999 -9999 -9999 -9999 -9999 -9999 -9999 -9999 -9999 -9999 -9999 -9999 -9999 -9999 -9999 -9999 -9999 -9999 -9999 -9999 -9999 -9999 -9999 -9999 -9999 -9999 -9999 -9999 -9999 -9999 -9999 -9999 -9999 -9999 -9999 -9999 -9999 -9999 -9999 -9999 -9999 -9999 -9999 -9999 -9999 -9999 -9999 -9999 -9999 -9999 -9999 -9999 -9999 -9999 -9999 -9999 -9999 -9999 -9999 -9999 -9999 -9999 -9999 -9999 -9999 -9999 -9999 -9999 -9999 -9999 -9999 -9999 -9999 -9999 -9999 -9999 -9999 -9999 -9999 -9999 -9999 -9999 -9999 -9999 -9999 -9999 -9999 -9999 -9999 -9999 -9999 -9999 -9999 -9999 -9999 -9999 -9999 -9999 -9999 -9999 -9999 -9999 -9999 -9999 -9999 -9999 -9999 -9999 -9999 -9999 -9999 -9999 -9999 -9999 -9999 -9999 -9999 -9999 -9999 -9999 -9999 -9999 -9999 -9999 -9999 -9999 -9999 -9999 -9999 -9999 -9999 -9999 -9999 -9999 -9999 -9999 -9999 -9999 -9999 -9999 -9999 -9999 -9999 -9999 -9999 -9999 -9999 -9999 -9999 -9999 -9999 -9999 -9999 -9999 -9999 -9999 -9999 -9999 -9999 -9999 -9999 -9999 -9999 -9999 -9999 -9999 -9999 -9999 -9999 -9999 -9999 -9999 -9999 -9999 -9999 -9999 -9999 -9999 -9999 -9999 -9999 -9999 -9999 -9999 -9999 -9999 -9999 -9999 -9999 -9999 -9999 -9999 -9999 -9999
