NCOLS 308 
NROWS 234 
XLLCORNER 73.0959013760208 
YLLCORNER 39.7531434753496 
CELLSIZE 0.005892565925393 
NODATA_value -9999 
-9999.000000000000000 -9999 -9999 -9999 -9999 -9999 -9999 -9999 -9999 -9999 -9999 -9999 -9999 -9999 -9999 -9999 -9999 -9999 -9999 -9999 -9999 -9999 -9999 -9999 -9999 -9999 -9999 -9999 -9999 -9999 -9999 -9999 -9999 -9999 -9999 -9999 -9999 -9999 -9999 -9999 -9999 -9999 -9999 -9999 -9999 -9999 -9999 -9999 -9999 -9999 -9999 -9999 -9999 -9999 -9999 -9999 -9999 -9999 -9999 -9999 -9999 -9999 -9999 -9999 -9999 -9999 -9999 -9999 -9999 -9999 -9999 -9999 -9999 -9999 -9999 -9999 -9999 -9999 -9999 -9999 -9999 -9999 -9999 -9999 -9999 -9999 -9999 -9999 -9999 -9999 -9999 -9999 -9999 -9999 -9999 -9999 -9999 -9999 -9999 -9999 -9999 -9999 -9999 -9999 -9999 -9999 -9999 -9999 -9999 -9999 -9999 3208 3095 3167 -9999 -9999 -9999 -9999 -9999 -9999 -9999 -9999 -9999 -9999 -9999 -9999 -9999 -9999 -9999 -9999 -9999 -9999 -9999 -9999 -9999 -9999 -9999 -9999 -9999 -9999 -9999 -9999 -9999 -9999 -9999 -9999 -9999 -9999 -9999 -9999 -9999 -9999 -9999 -9999 -9999 -9999 -9999 -9999 -9999 -9999 -9999 -9999 -9999 -9999 -9999 -9999 -9999 -9999 -9999 -9999 -9999 -9999 -9999 -9999 -9999 -9999 -9999 -9999 -9999 -9999 -9999 -9999 -9999 -9999 -9999 -9999 -9999 -9999 -9999 -9999 -9999 -9999 -9999 -9999 -9999 -9999 -9999 -9999 -9999 -9999 -9999 -9999 -9999 -9999 -9999 -9999 -9999 -9999 -9999 -9999 -9999 -9999 -9999 -9999 -9999 -9999 -9999 -9999 -9999 -9999 -9999 -9999 -9999 -9999 -9999 -9999 -9999 -9999 -9999 -9999 -9999 -9999 -9999 -9999 -9999 -9999 -9999 -9999 -9999 -9999 -9999 -9999 -9999 -9999 -9999 -9999 -9999 -9999 -9999 -9999 -9999 -9999 -9999 -9999 -9999 -9999 -9999 -9999 -9999 -9999 -9999 -9999 -9999 -9999 -9999 -9999 -9999 -9999 -9999 -9999 -9999 -9999 -9999 -9999 -9999 -9999 -9999 -9999 -9999 -9999 -9999 -9999 -9999 -9999 -9999 -9999 -9999 -9999 -9999 -9999 -9999 -9999 -9999 -9999 -9999 -9999 -9999 -9999 -9999 -9999 -9999 -9999 -9999 -9999 -9999 -9999 -9999 -9999
-9999 -9999 -9999 -9999 -9999 -9999 -9999 -9999 -9999 -9999 -9999 -9999 -9999 -9999 -9999 -9999 -9999 -9999 -9999 -9999 -9999 -9999 -9999 -9999 -9999 -9999 -9999 -9999 -9999 -9999 -9999 -9999 -9999 -9999 -9999 -9999 -9999 -9999 -9999 -9999 -9999 -9999 -9999 -9999 -9999 -9999 -9999 -9999 -9999 -9999 -9999 -9999 -9999 -9999 -9999 -9999 -9999 -9999 -9999 -9999 -9999 -9999 -9999 -9999 -9999 -9999 -9999 -9999 -9999 -9999 -9999 -9999 -9999 -9999 -9999 -9999 -9999 -9999 -9999 -9999 -9999 -9999 -9999 -9999 -9999 -9999 -9999 -9999 -9999 -9999 -9999 -9999 -9999 -9999 -9999 -9999 -9999 -9999 -9999 -9999 -9999 -9999 -9999 -9999 -9999 -9999 -9999 -9999 -9999 3104 2973 2837 2739 2921 3060 3245 3255 -9999 -9999 -9999 -9999 3394 3190 3168 -9999 -9999 -9999 -9999 -9999 -9999 -9999 -9999 -9999 -9999 -9999 -9999 -9999 -9999 -9999 -9999 -9999 -9999 -9999 -9999 -9999 -9999 -9999 -9999 -9999 -9999 -9999 -9999 -9999 -9999 -9999 -9999 -9999 -9999 -9999 -9999 -9999 -9999 -9999 -9999 -9999 -9999 -9999 -9999 -9999 -9999 -9999 -9999 -9999 -9999 -9999 -9999 -9999 -9999 -9999 -9999 -9999 -9999 -9999 -9999 -9999 -9999 -9999 -9999 -9999 -9999 -9999 -9999 -9999 -9999 -9999 -9999 -9999 -9999 -9999 -9999 -9999 -9999 -9999 -9999 -9999 -9999 -9999 -9999 -9999 -9999 -9999 -9999 -9999 -9999 -9999 -9999 -9999 -9999 -9999 -9999 -9999 -9999 -9999 -9999 -9999 -9999 -9999 -9999 -9999 -9999 -9999 -9999 -9999 -9999 -9999 -9999 -9999 -9999 -9999 -9999 -9999 -9999 -9999 -9999 -9999 -9999 -9999 -9999 -9999 -9999 -9999 -9999 -9999 -9999 -9999 -9999 -9999 -9999 -9999 -9999 -9999 -9999 -9999 -9999 -9999 -9999 -9999 -9999 -9999 -9999 -9999 -9999 -9999 -9999 -9999 -9999 -9999 -9999 -9999 -9999 -9999 -9999 -9999 -9999 -9999 -9999 -9999 -9999 -9999 -9999 -9999 -9999 -9999 -9999 -9999 -9999 -9999 -9999 -9999 -9999 -9999 -9999 -9999 -9999 -9999 -9999 -9999 -9999
-9999 -9999 -9999 -9999 -9999 -9999 -9999 -9999 -9999 -9999 -9999 -9999 -9999 -9999 -9999 -9999 -9999 -9999 -9999 -9999 -9999 -9999 -9999 -9999 -9999 -9999 -9999 -9999 -9999 -9999 -9999 -9999 -9999 -9999 -9999 -9999 -9999 -9999 -9999 -9999 -9999 -9999 -9999 -9999 -9999 -9999 -9999 -9999 -9999 -9999 -9999 -9999 -9999 -9999 -9999 -9999 -9999 -9999 -9999 -9999 -9999 -9999 -9999 -9999 -9999 -9999 -9999 -9999 -9999 -9999 -9999 -9999 -9999 -9999 -9999 -9999 -9999 -9999 -9999 -9999 -9999 -9999 -9999 -9999 -9999 -9999 -9999 -9999 -9999 -9999 -9999 -9999 -9999 -9999 -9999 -9999 -9999 -9999 -9999 -9999 -9999 -9999 -9999 -9999 -9999 -9999 -9999 3123 2853 2893 2844 2634 2636 2864 3002 2903 2939 3034 3182 3263 3390 3116 2860 2766 2823 2805 2904 2927 3062 3200 -9999 -9999 -9999 -9999 -9999 -9999 -9999 -9999 -9999 -9999 -9999 -9999 -9999 -9999 -9999 -9999 -9999 -9999 -9999 -9999 -9999 -9999 -9999 -9999 -9999 -9999 -9999 -9999 -9999 -9999 -9999 -9999 -9999 -9999 -9999 -9999 -9999 -9999 -9999 -9999 -9999 -9999 -9999 -9999 -9999 -9999 -9999 -9999 -9999 -9999 -9999 -9999 -9999 -9999 -9999 -9999 -9999 -9999 -9999 -9999 -9999 -9999 -9999 -9999 -9999 -9999 -9999 -9999 -9999 -9999 -9999 -9999 -9999 -9999 -9999 -9999 -9999 -9999 -9999 -9999 -9999 -9999 -9999 -9999 -9999 -9999 -9999 -9999 -9999 -9999 -9999 -9999 -9999 -9999 -9999 -9999 -9999 -9999 -9999 -9999 -9999 -9999 -9999 -9999 -9999 -9999 -9999 -9999 -9999 -9999 -9999 -9999 -9999 -9999 -9999 -9999 -9999 -9999 -9999 -9999 -9999 -9999 -9999 -9999 -9999 -9999 -9999 -9999 -9999 -9999 -9999 -9999 -9999 -9999 -9999 -9999 -9999 -9999 -9999 -9999 -9999 -9999 -9999 -9999 -9999 -9999 -9999 -9999 -9999 -9999 -9999 -9999 -9999 -9999 -9999 -9999 -9999 -9999 -9999 -9999 -9999 -9999 -9999 -9999 -9999 -9999 -9999 -9999 -9999 -9999 -9999 -9999 -9999 -9999 -9999 -9999 -9999 -9999
-9999 -9999 -9999 -9999 -9999 -9999 -9999 -9999 -9999 -9999 -9999 -9999 -9999 -9999 -9999 -9999 -9999 -9999 -9999 -9999 -9999 -9999 -9999 -9999 -9999 -9999 -9999 -9999 -9999 -9999 -9999 -9999 -9999 -9999 -9999 -9999 -9999 -9999 -9999 -9999 -9999 -9999 -9999 -9999 -9999 -9999 -9999 -9999 -9999 -9999 -9999 -9999 -9999 -9999 -9999 -9999 -9999 -9999 -9999 -9999 -9999 -9999 -9999 -9999 -9999 -9999 -9999 -9999 -9999 -9999 -9999 -9999 -9999 -9999 -9999 -9999 -9999 -9999 -9999 -9999 -9999 -9999 -9999 -9999 -9999 -9999 -9999 -9999 -9999 -9999 -9999 -9999 -9999 -9999 -9999 -9999 2581 2680 -9999 -9999 -9999 -9999 -9999 2714 2639 2770 2917 2906 2661 2473 2459 2430 2455 2690 2793 2617 2616 2743 2896 2962 3044 3011 2784 2670 2495 2628 2736 2827 3036 3193 -9999 -9999 -9999 -9999 -9999 -9999 -9999 -9999 -9999 -9999 -9999 -9999 -9999 -9999 -9999 -9999 -9999 -9999 -9999 -9999 -9999 -9999 -9999 -9999 -9999 -9999 -9999 -9999 -9999 -9999 -9999 -9999 -9999 -9999 -9999 -9999 -9999 -9999 -9999 -9999 -9999 -9999 -9999 -9999 -9999 -9999 -9999 -9999 -9999 -9999 -9999 -9999 -9999 -9999 -9999 -9999 -9999 -9999 -9999 -9999 -9999 -9999 -9999 -9999 -9999 -9999 -9999 -9999 -9999 -9999 -9999 -9999 -9999 -9999 -9999 -9999 -9999 -9999 -9999 -9999 -9999 -9999 -9999 -9999 -9999 -9999 -9999 -9999 -9999 -9999 -9999 -9999 -9999 -9999 -9999 -9999 -9999 -9999 -9999 -9999 -9999 -9999 -9999 -9999 -9999 -9999 -9999 -9999 -9999 -9999 -9999 -9999 -9999 -9999 -9999 -9999 -9999 -9999 -9999 -9999 -9999 -9999 -9999 -9999 -9999 -9999 -9999 -9999 -9999 -9999 -9999 -9999 -9999 -9999 -9999 -9999 -9999 -9999 -9999 -9999 -9999 -9999 -9999 -9999 -9999 -9999 -9999 -9999 -9999 -9999 -9999 -9999 -9999 -9999 -9999 -9999 -9999 -9999 -9999 -9999 -9999 -9999 -9999 -9999 -9999 -9999 -9999 -9999 -9999 -9999 -9999 -9999 -9999 -9999 -9999 -9999 -9999 -9999
-9999 -9999 -9999 -9999 -9999 -9999 -9999 -9999 -9999 -9999 -9999 -9999 -9999 -9999 -9999 -9999 -9999 -9999 -9999 -9999 -9999 -9999 -9999 -9999 -9999 -9999 -9999 -9999 -9999 -9999 -9999 -9999 -9999 -9999 -9999 -9999 -9999 -9999 -9999 -9999 -9999 -9999 -9999 -9999 -9999 -9999 -9999 -9999 -9999 -9999 -9999 -9999 -9999 -9999 -9999 -9999 -9999 -9999 -9999 -9999 -9999 -9999 -9999 -9999 -9999 -9999 -9999 -9999 -9999 -9999 -9999 -9999 -9999 -9999 -9999 -9999 -9999 -9999 -9999 -9999 -9999 -9999 -9999 -9999 -9999 -9999 -9999 -9999 -9999 -9999 -9999 -9999 -9999 -9999 2582 2454 2542 2640 2788 -9999 -9999 2762 2734 2637 2517 2720 2842 2843 2626 2412 2343 2347 2397 2665 2626 2506 2527 2623 2835 2855 2971 2984 2742 2611 2461 2780 2914 2964 3159 -9999 -9999 -9999 -9999 -9999 -9999 -9999 -9999 -9999 -9999 -9999 -9999 -9999 -9999 -9999 -9999 -9999 -9999 -9999 -9999 -9999 -9999 -9999 -9999 -9999 -9999 -9999 -9999 -9999 -9999 -9999 -9999 -9999 -9999 -9999 -9999 -9999 -9999 -9999 -9999 -9999 -9999 -9999 -9999 -9999 -9999 -9999 -9999 -9999 -9999 -9999 -9999 -9999 -9999 -9999 -9999 -9999 -9999 -9999 -9999 -9999 -9999 -9999 -9999 -9999 -9999 -9999 -9999 -9999 -9999 -9999 -9999 -9999 -9999 -9999 -9999 -9999 -9999 -9999 -9999 -9999 -9999 -9999 -9999 -9999 -9999 -9999 -9999 -9999 -9999 -9999 -9999 -9999 -9999 -9999 -9999 -9999 -9999 -9999 -9999 -9999 -9999 -9999 -9999 -9999 -9999 -9999 -9999 -9999 -9999 -9999 -9999 -9999 -9999 -9999 -9999 -9999 -9999 -9999 -9999 -9999 -9999 -9999 -9999 -9999 -9999 -9999 -9999 -9999 -9999 -9999 -9999 -9999 -9999 -9999 -9999 -9999 -9999 -9999 -9999 -9999 -9999 -9999 -9999 -9999 -9999 -9999 -9999 -9999 -9999 -9999 -9999 -9999 -9999 -9999 -9999 -9999 -9999 -9999 -9999 -9999 -9999 -9999 -9999 -9999 -9999 -9999 -9999 -9999 -9999 -9999 -9999 -9999 -9999 -9999 -9999 -9999 -9999 -9999
-9999 -9999 -9999 -9999 -9999 -9999 -9999 -9999 -9999 -9999 -9999 -9999 -9999 -9999 -9999 -9999 -9999 -9999 -9999 -9999 -9999 -9999 -9999 -9999 -9999 -9999 -9999 -9999 -9999 -9999 -9999 -9999 -9999 -9999 -9999 -9999 -9999 -9999 -9999 -9999 -9999 -9999 -9999 -9999 -9999 -9999 -9999 -9999 -9999 -9999 -9999 -9999 -9999 -9999 -9999 -9999 -9999 -9999 -9999 -9999 -9999 -9999 -9999 -9999 -9999 -9999 -9999 -9999 -9999 -9999 -9999 -9999 -9999 -9999 -9999 -9999 -9999 -9999 -9999 -9999 -9999 -9999 -9999 -9999 -9999 -9999 -9999 -9999 -9999 -9999 -9999 -9999 2405 2433 2368 2457 2543 2491 2488 2584 2711 2513 2425 2457 2373 2470 2500 2677 2649 2467 2333 2287 2453 2416 2325 2336 2502 2706 2720 2791 2942 2881 2601 2430 2428 2665 2971 3128 -9999 -9999 -9999 -9999 -9999 -9999 -9999 -9999 -9999 -9999 -9999 -9999 -9999 -9999 -9999 -9999 -9999 -9999 -9999 -9999 -9999 -9999 -9999 -9999 -9999 -9999 -9999 -9999 -9999 -9999 -9999 -9999 -9999 -9999 -9999 -9999 -9999 -9999 -9999 -9999 -9999 -9999 -9999 -9999 -9999 -9999 -9999 -9999 -9999 -9999 -9999 -9999 -9999 -9999 -9999 -9999 -9999 -9999 -9999 -9999 -9999 -9999 -9999 -9999 -9999 -9999 -9999 -9999 -9999 -9999 -9999 -9999 -9999 -9999 -9999 -9999 -9999 -9999 -9999 -9999 -9999 -9999 -9999 -9999 -9999 -9999 -9999 -9999 -9999 -9999 -9999 -9999 -9999 -9999 -9999 -9999 -9999 -9999 -9999 -9999 -9999 -9999 -9999 -9999 -9999 -9999 -9999 -9999 -9999 -9999 -9999 -9999 -9999 -9999 -9999 -9999 -9999 -9999 -9999 -9999 -9999 -9999 -9999 -9999 -9999 -9999 -9999 -9999 -9999 -9999 -9999 -9999 -9999 -9999 -9999 -9999 -9999 -9999 -9999 -9999 -9999 -9999 -9999 -9999 -9999 -9999 -9999 -9999 -9999 -9999 -9999 -9999 -9999 -9999 -9999 -9999 -9999 -9999 -9999 -9999 -9999 -9999 -9999 -9999 -9999 -9999 -9999 -9999 -9999 -9999 -9999 -9999 -9999 -9999 -9999 -9999 -9999 -9999 -9999 -9999
-9999 -9999 -9999 -9999 -9999 -9999 -9999 -9999 -9999 -9999 -9999 -9999 -9999 -9999 -9999 -9999 -9999 -9999 -9999 -9999 -9999 -9999 -9999 -9999 -9999 -9999 -9999 -9999 -9999 -9999 -9999 -9999 -9999 -9999 -9999 -9999 -9999 -9999 -9999 -9999 -9999 -9999 -9999 -9999 -9999 -9999 -9999 -9999 -9999 -9999 -9999 -9999 -9999 -9999 -9999 -9999 -9999 -9999 -9999 -9999 -9999 -9999 -9999 -9999 -9999 -9999 -9999 -9999 -9999 -9999 -9999 -9999 -9999 -9999 -9999 -9999 -9999 -9999 -9999 -9999 -9999 -9999 -9999 -9999 -9999 -9999 -9999 -9999 2135 -9999 -9999 2174 2249 2259 2244 2282 2339 2397 2482 2655 2560 2446 2388 2280 2317 2474 2531 2611 2442 2327 2182 2207 2288 2183 2194 2377 2493 2602 2679 2709 2778 2755 2423 2360 2309 2541 2811 2978 3190 -9999 -9999 -9999 -9999 -9999 -9999 -9999 -9999 -9999 -9999 -9999 -9999 -9999 -9999 -9999 -9999 -9999 -9999 -9999 -9999 -9999 -9999 -9999 -9999 -9999 -9999 -9999 -9999 -9999 -9999 -9999 -9999 -9999 -9999 -9999 -9999 -9999 -9999 -9999 -9999 -9999 -9999 -9999 -9999 -9999 -9999 -9999 -9999 -9999 -9999 -9999 -9999 -9999 -9999 -9999 -9999 -9999 -9999 -9999 -9999 -9999 -9999 -9999 -9999 -9999 -9999 -9999 -9999 -9999 -9999 -9999 -9999 -9999 -9999 -9999 -9999 -9999 -9999 -9999 -9999 -9999 -9999 -9999 -9999 -9999 -9999 -9999 -9999 -9999 -9999 -9999 -9999 -9999 -9999 -9999 -9999 -9999 -9999 -9999 -9999 -9999 -9999 -9999 -9999 -9999 -9999 -9999 -9999 -9999 -9999 -9999 -9999 -9999 -9999 -9999 -9999 -9999 -9999 -9999 -9999 -9999 -9999 -9999 -9999 -9999 -9999 -9999 -9999 -9999 -9999 -9999 -9999 -9999 -9999 -9999 -9999 -9999 -9999 -9999 -9999 -9999 -9999 -9999 -9999 -9999 -9999 -9999 -9999 -9999 -9999 -9999 -9999 -9999 -9999 -9999 -9999 -9999 -9999 -9999 -9999 -9999 -9999 -9999 -9999 -9999 -9999 -9999 -9999 -9999 -9999 -9999 -9999 -9999 -9999 -9999 -9999 -9999 -9999 -9999
-9999 -9999 -9999 -9999 -9999 -9999 -9999 -9999 -9999 -9999 -9999 -9999 -9999 -9999 -9999 -9999 -9999 -9999 -9999 -9999 -9999 -9999 -9999 -9999 -9999 -9999 -9999 -9999 -9999 -9999 -9999 -9999 -9999 -9999 -9999 -9999 -9999 -9999 -9999 -9999 -9999 -9999 -9999 -9999 -9999 -9999 -9999 -9999 -9999 -9999 -9999 -9999 -9999 -9999 -9999 -9999 -9999 -9999 -9999 -9999 -9999 -9999 -9999 -9999 -9999 -9999 -9999 -9999 -9999 -9999 -9999 -9999 -9999 -9999 -9999 -9999 -9999 -9999 -9999 -9999 -9999 -9999 -9999 -9999 -9999 -9999 -9999 2033 2076 2093 2209 2222 2234 2229 2271 2370 2541 2552 2671 2638 2544 2533 2516 2252 2299 2400 2396 2408 2319 2134 2064 2103 2114 2092 2179 2407 2567 2633 2531 2538 2525 2708 2413 2262 2321 2670 2904 2953 3114 3168 -9999 -9999 -9999 -9999 -9999 -9999 -9999 -9999 -9999 -9999 -9999 -9999 -9999 -9999 -9999 -9999 -9999 -9999 -9999 -9999 -9999 -9999 -9999 -9999 -9999 -9999 -9999 -9999 -9999 -9999 -9999 -9999 -9999 -9999 -9999 -9999 -9999 -9999 -9999 -9999 -9999 -9999 -9999 -9999 -9999 -9999 -9999 -9999 -9999 -9999 -9999 -9999 -9999 -9999 -9999 -9999 -9999 -9999 -9999 -9999 -9999 -9999 -9999 -9999 -9999 -9999 -9999 -9999 -9999 -9999 -9999 -9999 -9999 -9999 -9999 -9999 -9999 -9999 -9999 -9999 -9999 -9999 -9999 -9999 -9999 -9999 -9999 -9999 -9999 -9999 -9999 -9999 -9999 -9999 -9999 -9999 -9999 -9999 -9999 -9999 -9999 -9999 -9999 -9999 -9999 -9999 -9999 -9999 -9999 -9999 -9999 -9999 -9999 -9999 -9999 -9999 -9999 -9999 -9999 -9999 -9999 -9999 -9999 -9999 -9999 -9999 -9999 -9999 -9999 -9999 -9999 -9999 -9999 -9999 -9999 -9999 -9999 -9999 -9999 -9999 -9999 -9999 -9999 -9999 -9999 -9999 -9999 -9999 -9999 -9999 -9999 -9999 -9999 -9999 -9999 -9999 -9999 -9999 -9999 -9999 -9999 -9999 -9999 -9999 -9999 -9999 -9999 -9999 -9999 -9999 -9999 -9999 -9999 -9999 -9999 -9999 -9999 -9999
-9999 -9999 -9999 -9999 -9999 -9999 -9999 -9999 -9999 -9999 -9999 -9999 -9999 -9999 -9999 -9999 -9999 -9999 -9999 -9999 -9999 -9999 -9999 -9999 -9999 -9999 -9999 -9999 -9999 -9999 -9999 -9999 -9999 -9999 -9999 -9999 -9999 -9999 -9999 -9999 -9999 -9999 -9999 -9999 -9999 -9999 -9999 -9999 -9999 -9999 -9999 -9999 -9999 -9999 -9999 -9999 -9999 -9999 -9999 -9999 -9999 -9999 -9999 -9999 -9999 -9999 -9999 -9999 -9999 -9999 -9999 -9999 -9999 -9999 -9999 -9999 -9999 -9999 -9999 -9999 -9999 -9999 -9999 -9999 -9999 2148 2011 2076 2124 2163 2240 2313 2333 2267 2322 2422 2574 2617 2603 2552 2444 2394 2419 2300 2187 2244 2245 2293 2235 2113 2046 2062 2045 2135 2187 2335 2536 2621 2440 2432 2387 2614 2373 2205 2288 2616 2830 2920 2968 3011 2981 3128 3173 -9999 -9999 -9999 -9999 -9999 -9999 -9999 -9999 -9999 -9999 -9999 -9999 -9999 -9999 -9999 -9999 -9999 -9999 -9999 -9999 -9999 -9999 -9999 -9999 -9999 -9999 -9999 -9999 -9999 -9999 -9999 -9999 -9999 -9999 -9999 -9999 -9999 -9999 -9999 -9999 -9999 -9999 -9999 -9999 -9999 -9999 -9999 -9999 -9999 -9999 -9999 -9999 -9999 -9999 -9999 -9999 -9999 -9999 -9999 -9999 -9999 -9999 -9999 -9999 -9999 -9999 -9999 -9999 -9999 -9999 -9999 -9999 -9999 -9999 -9999 -9999 -9999 -9999 -9999 -9999 -9999 -9999 -9999 -9999 -9999 -9999 -9999 -9999 -9999 -9999 -9999 -9999 -9999 -9999 -9999 -9999 -9999 -9999 -9999 -9999 -9999 -9999 -9999 -9999 -9999 -9999 -9999 -9999 -9999 -9999 -9999 -9999 -9999 -9999 -9999 -9999 -9999 -9999 -9999 -9999 -9999 -9999 -9999 -9999 -9999 -9999 -9999 -9999 -9999 -9999 -9999 -9999 -9999 -9999 -9999 -9999 -9999 -9999 -9999 -9999 -9999 -9999 -9999 -9999 -9999 -9999 -9999 -9999 -9999 -9999 -9999 -9999 -9999 -9999 -9999 -9999 -9999 -9999 -9999 -9999 -9999 -9999 -9999 -9999 -9999 -9999 -9999 -9999 -9999 -9999 -9999 -9999 -9999 -9999 -9999
-9999 -9999 -9999 -9999 -9999 -9999 -9999 -9999 -9999 -9999 -9999 -9999 -9999 -9999 -9999 -9999 -9999 -9999 -9999 -9999 -9999 -9999 -9999 -9999 -9999 -9999 -9999 -9999 -9999 -9999 -9999 -9999 -9999 -9999 -9999 -9999 -9999 -9999 -9999 -9999 -9999 -9999 -9999 -9999 -9999 -9999 -9999 -9999 -9999 -9999 -9999 -9999 -9999 -9999 -9999 -9999 -9999 -9999 -9999 -9999 -9999 -9999 -9999 -9999 -9999 -9999 -9999 -9999 -9999 -9999 -9999 -9999 -9999 -9999 -9999 -9999 -9999 -9999 -9999 -9999 -9999 -9999 -9999 2181 2094 2076 2250 2321 2291 2258 2349 2401 2466 2480 2492 2501 2481 2424 2391 2390 2360 2200 2206 2226 2077 2122 2158 2162 2112 2146 2061 1985 1980 2057 2113 2232 2413 2549 2434 2337 2162 2366 2324 2127 2282 2440 2688 2656 2596 2642 2736 2804 2815 2946 3254 -9999 -9999 -9999 -9999 -9999 -9999 -9999 -9999 -9999 -9999 -9999 -9999 -9999 -9999 -9999 -9999 -9999 -9999 -9999 -9999 -9999 -9999 -9999 -9999 -9999 -9999 -9999 -9999 -9999 -9999 -9999 -9999 -9999 -9999 -9999 -9999 -9999 -9999 -9999 -9999 -9999 -9999 -9999 -9999 -9999 -9999 -9999 -9999 -9999 -9999 -9999 -9999 -9999 -9999 -9999 -9999 -9999 -9999 -9999 -9999 -9999 -9999 -9999 -9999 -9999 -9999 -9999 -9999 -9999 -9999 -9999 -9999 -9999 -9999 -9999 -9999 -9999 -9999 -9999 -9999 -9999 -9999 -9999 -9999 -9999 -9999 -9999 -9999 -9999 -9999 -9999 -9999 -9999 -9999 -9999 -9999 -9999 -9999 -9999 -9999 -9999 -9999 -9999 -9999 -9999 -9999 -9999 -9999 -9999 -9999 -9999 -9999 -9999 -9999 -9999 -9999 -9999 -9999 -9999 -9999 -9999 -9999 -9999 -9999 -9999 -9999 -9999 -9999 -9999 -9999 -9999 -9999 -9999 -9999 -9999 -9999 -9999 -9999 -9999 -9999 -9999 -9999 -9999 -9999 -9999 -9999 -9999 -9999 -9999 -9999 -9999 -9999 -9999 -9999 -9999 -9999 -9999 -9999 -9999 -9999 -9999 -9999 -9999 -9999 -9999 -9999 -9999 -9999 -9999 -9999 -9999 -9999 -9999
-9999 -9999 -9999 -9999 -9999 -9999 -9999 -9999 -9999 -9999 -9999 -9999 -9999 -9999 -9999 -9999 -9999 -9999 -9999 -9999 -9999 -9999 -9999 -9999 -9999 -9999 -9999 -9999 -9999 -9999 -9999 -9999 -9999 -9999 -9999 -9999 -9999 -9999 -9999 -9999 -9999 -9999 -9999 -9999 -9999 -9999 -9999 -9999 -9999 -9999 -9999 -9999 -9999 -9999 -9999 -9999 -9999 -9999 -9999 -9999 -9999 -9999 -9999 -9999 -9999 -9999 -9999 -9999 -9999 -9999 -9999 -9999 -9999 -9999 -9999 -9999 -9999 -9999 -9999 -9999 -9999 -9999 2209 1971 2079 2144 2304 2433 2413 2447 2602 2646 2549 2497 2341 2318 2344 2268 2189 2236 2216 2131 2070 2087 2089 2028 2054 2033 2091 2123 2080 1940 1948 2105 2178 2324 2470 2565 2469 2320 2152 2158 2125 2034 2159 2258 2288 2289 2449 2405 2501 2702 2866 3196 -9999 -9999 -9999 -9999 -9999 -9999 -9999 -9999 -9999 -9999 -9999 -9999 -9999 -9999 -9999 -9999 -9999 -9999 -9999 -9999 -9999 -9999 -9999 -9999 -9999 -9999 -9999 -9999 -9999 -9999 -9999 -9999 -9999 -9999 -9999 -9999 -9999 -9999 -9999 -9999 -9999 -9999 -9999 -9999 -9999 -9999 -9999 -9999 -9999 -9999 -9999 -9999 -9999 -9999 -9999 -9999 -9999 -9999 -9999 -9999 -9999 -9999 -9999 -9999 -9999 -9999 -9999 -9999 -9999 -9999 -9999 -9999 -9999 -9999 -9999 -9999 -9999 -9999 -9999 -9999 -9999 -9999 -9999 -9999 -9999 -9999 -9999 -9999 -9999 -9999 -9999 -9999 -9999 -9999 -9999 -9999 -9999 -9999 -9999 -9999 -9999 -9999 -9999 -9999 -9999 -9999 -9999 -9999 -9999 -9999 -9999 -9999 -9999 -9999 -9999 -9999 -9999 -9999 -9999 -9999 -9999 -9999 -9999 -9999 -9999 -9999 -9999 -9999 -9999 -9999 -9999 -9999 -9999 -9999 -9999 -9999 -9999 -9999 -9999 -9999 -9999 -9999 -9999 -9999 -9999 -9999 -9999 -9999 -9999 -9999 -9999 -9999 -9999 -9999 -9999 -9999 -9999 -9999 -9999 -9999 -9999 -9999 -9999 -9999 -9999 -9999 -9999 -9999 -9999 -9999 -9999 -9999 -9999 -9999
-9999 -9999 -9999 -9999 -9999 -9999 -9999 -9999 -9999 -9999 -9999 -9999 -9999 -9999 -9999 -9999 -9999 -9999 -9999 -9999 -9999 -9999 -9999 -9999 -9999 -9999 -9999 -9999 -9999 -9999 -9999 -9999 -9999 -9999 -9999 -9999 -9999 -9999 -9999 -9999 -9999 -9999 -9999 -9999 -9999 -9999 -9999 -9999 -9999 -9999 -9999 -9999 -9999 -9999 -9999 -9999 -9999 -9999 -9999 -9999 -9999 -9999 -9999 -9999 -9999 -9999 -9999 -9999 -9999 -9999 -9999 -9999 -9999 -9999 -9999 -9999 -9999 -9999 -9999 -9999 -9999 2341 2058 2052 2133 2337 2458 2500 2602 2652 2653 2447 2425 2464 2251 2271 2197 2101 2004 2103 2109 2035 1987 2035 1972 1967 2012 2063 2025 1998 1989 1905 2012 2125 2194 2274 2384 2457 2409 2262 2075 2025 2147 2187 2248 2252 2334 2325 2451 2552 2524 2771 2911 3164 -9999 -9999 -9999 -9999 -9999 -9999 -9999 -9999 -9999 -9999 -9999 -9999 -9999 -9999 -9999 -9999 -9999 -9999 -9999 -9999 -9999 -9999 -9999 -9999 -9999 -9999 -9999 -9999 -9999 -9999 -9999 -9999 -9999 -9999 -9999 -9999 -9999 -9999 -9999 -9999 -9999 -9999 -9999 -9999 -9999 -9999 -9999 -9999 -9999 -9999 -9999 -9999 -9999 -9999 -9999 -9999 -9999 -9999 -9999 -9999 -9999 -9999 -9999 -9999 -9999 -9999 -9999 -9999 -9999 -9999 -9999 -9999 -9999 -9999 -9999 -9999 -9999 -9999 -9999 -9999 -9999 -9999 -9999 -9999 -9999 -9999 -9999 -9999 -9999 -9999 -9999 -9999 -9999 -9999 -9999 -9999 -9999 -9999 -9999 -9999 -9999 -9999 -9999 -9999 -9999 -9999 -9999 -9999 -9999 -9999 -9999 -9999 -9999 -9999 -9999 -9999 -9999 -9999 -9999 -9999 -9999 -9999 -9999 -9999 -9999 -9999 -9999 -9999 -9999 -9999 -9999 -9999 -9999 -9999 -9999 -9999 -9999 -9999 -9999 -9999 -9999 -9999 -9999 -9999 -9999 -9999 -9999 -9999 -9999 -9999 -9999 -9999 -9999 -9999 -9999 -9999 -9999 -9999 -9999 -9999 -9999 -9999 -9999 -9999 -9999 -9999 -9999 -9999 -9999 -9999 -9999 -9999 -9999 -9999
-9999 -9999 -9999 -9999 -9999 -9999 -9999 -9999 -9999 -9999 -9999 -9999 -9999 -9999 -9999 -9999 -9999 -9999 -9999 -9999 -9999 -9999 -9999 -9999 -9999 -9999 -9999 -9999 -9999 -9999 -9999 -9999 -9999 -9999 -9999 -9999 -9999 -9999 -9999 -9999 -9999 -9999 -9999 -9999 -9999 -9999 -9999 -9999 -9999 -9999 -9999 -9999 -9999 -9999 -9999 -9999 -9999 -9999 -9999 -9999 -9999 -9999 -9999 -9999 -9999 -9999 -9999 -9999 -9999 -9999 -9999 -9999 -9999 -9999 -9999 -9999 -9999 -9999 -9999 -9999 -9999 2401 2134 1955 2052 2332 2511 2542 2634 2637 2486 2428 2303 2405 2162 2261 2191 2067 1955 2037 2022 1954 1936 1961 1936 1986 2033 1992 1942 1933 1893 1980 2061 2153 2177 2254 2341 2403 2242 2187 2014 2065 2223 2305 2405 2380 2452 2428 2624 2669 2660 2747 2887 3186 -9999 -9999 -9999 -9999 -9999 -9999 -9999 -9999 -9999 -9999 -9999 -9999 -9999 -9999 -9999 -9999 -9999 -9999 -9999 -9999 -9999 -9999 -9999 -9999 -9999 -9999 -9999 -9999 -9999 -9999 -9999 -9999 -9999 -9999 -9999 -9999 -9999 -9999 -9999 -9999 -9999 -9999 -9999 -9999 -9999 -9999 -9999 -9999 -9999 -9999 -9999 -9999 -9999 -9999 -9999 -9999 -9999 -9999 -9999 -9999 -9999 -9999 -9999 -9999 -9999 -9999 -9999 -9999 -9999 -9999 -9999 -9999 -9999 -9999 -9999 -9999 -9999 -9999 -9999 -9999 -9999 -9999 -9999 -9999 -9999 -9999 -9999 -9999 -9999 -9999 -9999 -9999 -9999 -9999 -9999 -9999 -9999 -9999 -9999 -9999 -9999 -9999 -9999 -9999 -9999 -9999 -9999 -9999 -9999 -9999 -9999 -9999 -9999 -9999 -9999 -9999 -9999 -9999 -9999 -9999 -9999 -9999 -9999 -9999 -9999 -9999 -9999 -9999 -9999 -9999 -9999 -9999 -9999 -9999 -9999 -9999 -9999 -9999 -9999 -9999 -9999 -9999 -9999 -9999 -9999 -9999 -9999 -9999 -9999 -9999 -9999 -9999 -9999 -9999 -9999 -9999 -9999 -9999 -9999 -9999 -9999 -9999 -9999 -9999 -9999 -9999 -9999 -9999 -9999 -9999 -9999 -9999 -9999 -9999
-9999 -9999 -9999 -9999 -9999 -9999 -9999 -9999 -9999 -9999 -9999 -9999 -9999 -9999 -9999 -9999 -9999 -9999 -9999 -9999 -9999 -9999 -9999 -9999 -9999 -9999 -9999 -9999 -9999 -9999 -9999 -9999 -9999 -9999 -9999 -9999 -9999 -9999 -9999 -9999 -9999 -9999 -9999 -9999 -9999 -9999 -9999 -9999 -9999 -9999 -9999 -9999 -9999 -9999 -9999 -9999 -9999 -9999 -9999 -9999 -9999 -9999 -9999 -9999 -9999 -9999 -9999 -9999 -9999 -9999 -9999 -9999 -9999 -9999 -9999 -9999 -9999 -9999 -9999 2455 2455 2319 2021 1944 2060 2351 2536 2416 2497 2416 2169 2203 2053 2176 2066 1994 1971 1940 1882 1851 1836 1862 1874 1909 1910 1879 1870 1839 1925 2036 2024 2100 2191 2186 2189 2197 2243 2138 1995 1939 2002 2254 2529 2568 2720 2804 2885 2831 2903 2974 3010 2981 2983 3271 -9999 -9999 -9999 -9999 -9999 -9999 -9999 -9999 -9999 -9999 -9999 -9999 -9999 -9999 -9999 -9999 -9999 -9999 -9999 -9999 -9999 -9999 -9999 -9999 -9999 -9999 -9999 -9999 -9999 -9999 -9999 -9999 -9999 -9999 -9999 -9999 -9999 -9999 -9999 -9999 -9999 -9999 -9999 -9999 -9999 -9999 -9999 -9999 -9999 -9999 -9999 -9999 -9999 -9999 -9999 -9999 -9999 -9999 -9999 -9999 -9999 -9999 -9999 -9999 -9999 -9999 -9999 -9999 -9999 -9999 -9999 -9999 -9999 -9999 -9999 -9999 -9999 -9999 -9999 -9999 -9999 -9999 -9999 -9999 -9999 -9999 -9999 -9999 -9999 -9999 -9999 -9999 -9999 -9999 -9999 -9999 -9999 -9999 -9999 -9999 -9999 -9999 -9999 -9999 -9999 -9999 -9999 -9999 -9999 -9999 -9999 -9999 -9999 -9999 -9999 -9999 -9999 -9999 -9999 -9999 -9999 -9999 -9999 -9999 -9999 -9999 -9999 -9999 -9999 -9999 -9999 -9999 -9999 -9999 -9999 -9999 -9999 -9999 -9999 -9999 -9999 -9999 -9999 -9999 -9999 -9999 -9999 -9999 -9999 -9999 -9999 -9999 -9999 -9999 -9999 -9999 -9999 -9999 -9999 -9999 -9999 -9999 -9999 -9999 -9999 -9999 -9999 -9999 -9999 -9999 -9999 -9999 -9999 -9999
-9999 -9999 -9999 -9999 -9999 -9999 -9999 -9999 -9999 -9999 -9999 -9999 -9999 -9999 -9999 -9999 -9999 -9999 -9999 -9999 -9999 -9999 -9999 -9999 -9999 -9999 -9999 -9999 -9999 -9999 -9999 -9999 -9999 -9999 -9999 -9999 -9999 -9999 -9999 -9999 -9999 -9999 -9999 -9999 -9999 -9999 -9999 -9999 -9999 -9999 -9999 -9999 -9999 -9999 -9999 -9999 -9999 -9999 -9999 -9999 -9999 -9999 -9999 -9999 -9999 -9999 -9999 -9999 -9999 -9999 -9999 -9999 -9999 -9999 -9999 -9999 -9999 -9999 2385 2200 2285 2164 1891 2012 2113 2315 2260 2244 2155 2144 2172 1951 1957 1900 1874 1837 1817 1793 1834 1882 1935 1892 1853 1832 1782 1859 1849 1919 1997 2153 2157 2181 2182 2157 2125 2159 2005 1873 2064 2206 2449 2582 2653 2700 2815 2961 3055 3086 2921 2941 3117 3256 3302 -9999 -9999 -9999 -9999 -9999 -9999 -9999 -9999 -9999 -9999 -9999 -9999 -9999 -9999 -9999 -9999 -9999 -9999 -9999 -9999 -9999 -9999 -9999 -9999 -9999 -9999 -9999 -9999 -9999 -9999 -9999 -9999 -9999 -9999 -9999 -9999 -9999 -9999 -9999 -9999 -9999 -9999 -9999 -9999 -9999 -9999 -9999 -9999 -9999 -9999 -9999 -9999 -9999 -9999 -9999 -9999 -9999 -9999 -9999 -9999 -9999 -9999 -9999 -9999 -9999 -9999 -9999 -9999 -9999 -9999 -9999 -9999 -9999 -9999 -9999 -9999 -9999 -9999 -9999 -9999 -9999 -9999 -9999 -9999 -9999 -9999 -9999 -9999 -9999 -9999 -9999 -9999 -9999 -9999 -9999 -9999 -9999 -9999 -9999 -9999 -9999 -9999 -9999 -9999 -9999 -9999 -9999 -9999 -9999 -9999 -9999 -9999 -9999 -9999 -9999 -9999 -9999 -9999 -9999 -9999 -9999 -9999 -9999 -9999 -9999 -9999 -9999 -9999 -9999 -9999 -9999 -9999 -9999 -9999 -9999 -9999 -9999 -9999 -9999 -9999 -9999 -9999 -9999 -9999 -9999 -9999 -9999 -9999 -9999 -9999 -9999 -9999 -9999 -9999 -9999 -9999 -9999 -9999 -9999 -9999 -9999 -9999 -9999 -9999 -9999 -9999 -9999 -9999 -9999 -9999 -9999 -9999 -9999 -9999 -9999
-9999 -9999 -9999 -9999 -9999 -9999 -9999 -9999 -9999 -9999 -9999 -9999 -9999 -9999 -9999 -9999 -9999 -9999 -9999 -9999 -9999 -9999 -9999 -9999 -9999 -9999 -9999 -9999 -9999 -9999 -9999 -9999 -9999 -9999 -9999 -9999 -9999 -9999 -9999 -9999 -9999 -9999 -9999 -9999 -9999 -9999 -9999 -9999 -9999 -9999 -9999 -9999 -9999 -9999 -9999 -9999 -9999 -9999 -9999 -9999 -9999 -9999 -9999 -9999 -9999 -9999 -9999 -9999 -9999 -9999 -9999 -9999 2238 2174 2215 2342 2384 2272 2321 2012 1969 2011 1793 2100 2199 2141 2099 2038 2125 2048 1865 1869 1764 1760 1769 1834 1897 1888 1936 1961 1875 1828 1804 1760 1887 1902 1997 1975 2025 2136 2089 2090 2091 1983 1876 1866 2021 2225 2158 2113 2246 2420 2592 2647 2790 2975 3068 3021 2798 2899 3082 3216 3276 -9999 -9999 -9999 -9999 -9999 -9999 -9999 -9999 -9999 -9999 -9999 -9999 -9999 -9999 -9999 -9999 -9999 -9999 -9999 -9999 -9999 -9999 -9999 -9999 -9999 -9999 -9999 -9999 -9999 -9999 -9999 -9999 -9999 -9999 -9999 -9999 -9999 -9999 -9999 -9999 -9999 -9999 -9999 -9999 -9999 -9999 -9999 -9999 -9999 -9999 -9999 -9999 -9999 -9999 -9999 -9999 -9999 -9999 -9999 -9999 -9999 -9999 -9999 -9999 -9999 -9999 -9999 -9999 -9999 -9999 -9999 -9999 -9999 -9999 -9999 -9999 -9999 -9999 -9999 -9999 -9999 -9999 -9999 -9999 -9999 -9999 -9999 -9999 -9999 -9999 -9999 -9999 -9999 -9999 -9999 -9999 -9999 -9999 -9999 -9999 -9999 -9999 -9999 -9999 -9999 -9999 -9999 -9999 -9999 -9999 -9999 -9999 -9999 -9999 -9999 -9999 -9999 -9999 -9999 -9999 -9999 -9999 -9999 -9999 -9999 -9999 -9999 -9999 -9999 -9999 -9999 -9999 -9999 -9999 -9999 -9999 -9999 -9999 -9999 -9999 -9999 -9999 -9999 -9999 -9999 -9999 -9999 -9999 -9999 -9999 -9999 -9999 -9999 -9999 -9999 -9999 -9999 -9999 -9999 -9999 -9999 -9999 -9999 -9999 -9999 -9999 -9999 -9999 -9999 -9999 -9999 -9999 -9999 -9999 -9999
-9999 -9999 -9999 -9999 -9999 -9999 -9999 -9999 -9999 -9999 -9999 -9999 -9999 -9999 -9999 -9999 -9999 -9999 -9999 -9999 -9999 -9999 -9999 -9999 -9999 -9999 -9999 -9999 -9999 -9999 -9999 -9999 -9999 -9999 -9999 -9999 -9999 -9999 -9999 -9999 -9999 -9999 -9999 -9999 -9999 -9999 -9999 -9999 -9999 -9999 -9999 -9999 -9999 -9999 -9999 -9999 -9999 -9999 -9999 -9999 -9999 -9999 -9999 -9999 -9999 -9999 -9999 -9999 -9999 -9999 -9999 2219 2094 2123 2252 2295 2342 2113 2120 2030 1991 1755 2004 2169 2081 1956 1914 1996 1929 1868 1784 1715 1904 1884 1979 1957 2013 2012 1993 1872 1833 1749 1729 1782 1847 1940 1972 2074 2006 2068 2015 2005 1902 1938 2078 2200 2303 2268 2377 2387 2295 2450 2682 2753 2864 2973 3002 2876 2803 3046 3128 3194 3227 3297 -9999 -9999 -9999 -9999 -9999 -9999 -9999 -9999 -9999 -9999 -9999 -9999 -9999 -9999 -9999 -9999 -9999 -9999 -9999 -9999 -9999 -9999 -9999 -9999 -9999 -9999 -9999 -9999 -9999 -9999 -9999 -9999 -9999 -9999 -9999 -9999 -9999 -9999 -9999 -9999 -9999 -9999 -9999 -9999 -9999 -9999 -9999 -9999 -9999 -9999 -9999 -9999 -9999 -9999 -9999 -9999 -9999 -9999 -9999 -9999 -9999 -9999 -9999 -9999 -9999 -9999 -9999 -9999 -9999 -9999 -9999 -9999 -9999 -9999 -9999 -9999 -9999 -9999 -9999 -9999 -9999 -9999 -9999 -9999 -9999 -9999 -9999 -9999 -9999 -9999 -9999 -9999 -9999 -9999 -9999 -9999 -9999 -9999 -9999 -9999 -9999 -9999 -9999 -9999 -9999 -9999 -9999 -9999 -9999 -9999 -9999 -9999 -9999 -9999 -9999 -9999 -9999 -9999 -9999 -9999 -9999 -9999 -9999 -9999 -9999 -9999 -9999 -9999 -9999 -9999 -9999 -9999 -9999 -9999 -9999 -9999 -9999 -9999 -9999 -9999 -9999 -9999 -9999 -9999 -9999 -9999 -9999 -9999 -9999 -9999 -9999 -9999 -9999 -9999 -9999 -9999 -9999 -9999 -9999 -9999 -9999 -9999 -9999 -9999 -9999 -9999 -9999 -9999 -9999 -9999 -9999 -9999 -9999 -9999
-9999 -9999 -9999 -9999 -9999 -9999 -9999 -9999 -9999 -9999 -9999 -9999 -9999 -9999 -9999 -9999 -9999 -9999 -9999 -9999 -9999 -9999 -9999 -9999 -9999 -9999 -9999 -9999 -9999 -9999 -9999 -9999 -9999 -9999 -9999 -9999 -9999 -9999 -9999 -9999 -9999 -9999 -9999 -9999 -9999 -9999 -9999 -9999 -9999 -9999 -9999 -9999 -9999 -9999 -9999 -9999 -9999 -9999 -9999 -9999 -9999 -9999 -9999 -9999 -9999 -9999 -9999 -9999 -9999 -9999 2217 2174 2052 2148 2183 2277 2334 2124 1959 1964 1891 1792 2063 2034 2037 1889 1952 1938 1859 1788 1690 1838 1949 1924 1975 2009 2047 1998 1913 1861 1792 1721 1810 1854 1880 1927 2008 2003 1965 2016 2011 1899 1796 2041 2106 2216 2291 2336 2440 2426 2422 2554 2635 2739 2864 2968 3031 2918 2718 3042 2981 3024 3143 3315 -9999 -9999 -9999 -9999 -9999 -9999 -9999 -9999 -9999 -9999 -9999 -9999 -9999 -9999 -9999 -9999 -9999 -9999 -9999 -9999 -9999 -9999 -9999 -9999 -9999 -9999 -9999 -9999 -9999 -9999 -9999 -9999 -9999 -9999 -9999 -9999 -9999 -9999 -9999 -9999 -9999 -9999 -9999 -9999 -9999 -9999 -9999 -9999 -9999 -9999 -9999 -9999 -9999 -9999 -9999 -9999 -9999 -9999 -9999 -9999 -9999 -9999 -9999 -9999 -9999 -9999 -9999 -9999 -9999 -9999 -9999 -9999 -9999 -9999 -9999 -9999 -9999 -9999 -9999 -9999 -9999 -9999 -9999 -9999 -9999 -9999 -9999 -9999 -9999 -9999 -9999 -9999 -9999 -9999 -9999 -9999 -9999 -9999 -9999 -9999 -9999 -9999 -9999 -9999 -9999 -9999 -9999 -9999 -9999 -9999 -9999 -9999 -9999 -9999 -9999 -9999 -9999 -9999 -9999 -9999 -9999 -9999 -9999 -9999 -9999 -9999 -9999 -9999 -9999 -9999 -9999 -9999 -9999 -9999 -9999 -9999 -9999 -9999 -9999 -9999 -9999 -9999 -9999 -9999 -9999 -9999 -9999 -9999 -9999 -9999 -9999 -9999 -9999 -9999 -9999 -9999 -9999 -9999 -9999 -9999 -9999 -9999 -9999 -9999 -9999 -9999 -9999 -9999 -9999 -9999 -9999 -9999 -9999 -9999
-9999 -9999 -9999 -9999 -9999 -9999 -9999 -9999 -9999 -9999 -9999 -9999 -9999 -9999 -9999 -9999 -9999 -9999 -9999 -9999 -9999 -9999 -9999 -9999 -9999 -9999 -9999 -9999 -9999 -9999 -9999 -9999 -9999 -9999 -9999 -9999 -9999 -9999 -9999 -9999 -9999 -9999 -9999 -9999 -9999 -9999 -9999 -9999 -9999 -9999 -9999 -9999 -9999 -9999 -9999 -9999 -9999 -9999 -9999 -9999 -9999 -9999 -9999 -9999 -9999 -9999 -9999 -9999 -9999 -9999 2101 2132 1946 1998 2202 2261 2127 2000 1915 1826 1734 1811 1947 1891 1854 1779 1796 1692 1671 1719 1890 1981 2041 2053 2063 2064 1982 1950 1901 1828 1737 1743 1779 1832 1946 2037 1987 1915 1959 1889 1910 1794 1969 2041 2092 2176 2306 2347 2416 2471 2528 2601 2724 2767 2872 2962 2767 2637 2627 2772 2919 3154 3276 3377 -9999 -9999 -9999 -9999 -9999 -9999 -9999 -9999 -9999 -9999 -9999 -9999 -9999 -9999 -9999 -9999 -9999 -9999 -9999 -9999 -9999 -9999 -9999 -9999 -9999 -9999 -9999 -9999 -9999 -9999 -9999 -9999 -9999 -9999 -9999 -9999 -9999 -9999 -9999 -9999 -9999 -9999 -9999 -9999 -9999 -9999 -9999 -9999 -9999 -9999 -9999 -9999 -9999 -9999 -9999 -9999 -9999 -9999 -9999 -9999 -9999 -9999 -9999 -9999 -9999 -9999 -9999 -9999 -9999 -9999 -9999 -9999 -9999 -9999 -9999 -9999 -9999 -9999 -9999 -9999 -9999 -9999 -9999 -9999 -9999 -9999 -9999 -9999 -9999 -9999 -9999 -9999 -9999 -9999 -9999 -9999 -9999 -9999 -9999 -9999 -9999 -9999 -9999 -9999 -9999 -9999 -9999 -9999 -9999 -9999 -9999 -9999 -9999 -9999 -9999 -9999 -9999 -9999 -9999 -9999 -9999 -9999 -9999 -9999 -9999 -9999 -9999 -9999 -9999 -9999 -9999 -9999 -9999 -9999 -9999 -9999 -9999 -9999 -9999 -9999 -9999 -9999 -9999 -9999 -9999 -9999 -9999 -9999 -9999 -9999 -9999 -9999 -9999 -9999 -9999 -9999 -9999 -9999 -9999 -9999 -9999 -9999 -9999 -9999 -9999 -9999 -9999 -9999 -9999 -9999 -9999 -9999 -9999 -9999
-9999 -9999 -9999 -9999 -9999 -9999 -9999 -9999 -9999 -9999 -9999 -9999 -9999 -9999 -9999 -9999 -9999 -9999 -9999 -9999 -9999 -9999 -9999 -9999 -9999 -9999 -9999 -9999 -9999 -9999 -9999 -9999 -9999 -9999 -9999 -9999 -9999 -9999 -9999 -9999 -9999 -9999 -9999 -9999 -9999 -9999 -9999 -9999 -9999 -9999 -9999 -9999 -9999 -9999 -9999 -9999 -9999 -9999 -9999 -9999 -9999 -9999 -9999 -9999 -9999 -9999 -9999 2164 2048 2076 2034 2047 1864 2045 2209 2162 2041 1773 1766 1670 1804 1863 1783 1677 1648 1628 1665 1848 1949 1892 1992 1934 1952 1981 2075 1970 1852 1839 1812 1781 1687 1806 1853 1977 2033 1973 1956 1921 1807 1770 1792 1941 2031 2125 2157 2305 2361 2486 2559 2582 2619 2708 2817 2865 2971 2909 2606 2517 2725 2956 3095 3248 3327 -9999 -9999 -9999 -9999 -9999 -9999 -9999 -9999 -9999 -9999 -9999 -9999 -9999 -9999 -9999 -9999 -9999 -9999 -9999 -9999 -9999 -9999 -9999 -9999 -9999 -9999 -9999 -9999 -9999 -9999 -9999 -9999 -9999 -9999 -9999 -9999 -9999 -9999 -9999 -9999 -9999 -9999 -9999 -9999 -9999 -9999 -9999 -9999 -9999 -9999 -9999 -9999 -9999 -9999 -9999 -9999 -9999 -9999 -9999 -9999 -9999 -9999 -9999 -9999 -9999 -9999 -9999 -9999 -9999 -9999 -9999 -9999 -9999 -9999 -9999 -9999 -9999 -9999 -9999 -9999 -9999 -9999 -9999 -9999 -9999 -9999 -9999 -9999 -9999 -9999 -9999 -9999 -9999 -9999 -9999 -9999 -9999 -9999 -9999 -9999 -9999 -9999 -9999 -9999 -9999 -9999 -9999 -9999 -9999 -9999 -9999 -9999 -9999 -9999 -9999 -9999 -9999 -9999 -9999 -9999 -9999 -9999 -9999 -9999 -9999 -9999 -9999 -9999 -9999 -9999 -9999 -9999 -9999 -9999 -9999 -9999 -9999 -9999 -9999 -9999 -9999 -9999 -9999 -9999 -9999 -9999 -9999 -9999 -9999 -9999 -9999 -9999 -9999 -9999 -9999 -9999 -9999 -9999 -9999 -9999 -9999 -9999 -9999 -9999 -9999 -9999 -9999 -9999 -9999 -9999 -9999 -9999 -9999 -9999 -9999
-9999 -9999 -9999 -9999 -9999 -9999 -9999 -9999 -9999 -9999 -9999 -9999 -9999 -9999 -9999 -9999 -9999 -9999 -9999 -9999 -9999 -9999 -9999 -9999 -9999 -9999 -9999 -9999 -9999 -9999 -9999 -9999 -9999 -9999 -9999 -9999 -9999 -9999 -9999 -9999 -9999 -9999 -9999 -9999 -9999 -9999 -9999 1734 -9999 -9999 -9999 -9999 -9999 -9999 -9999 -9999 -9999 -9999 -9999 -9999 -9999 -9999 -9999 -9999 -9999 -9999 2096 2094 2025 2084 2048 1923 1846 2085 2077 2022 1908 1759 1624 1842 1837 1616 1674 1780 1863 1915 1874 1916 1946 1979 2061 2080 2068 2027 2072 1927 1867 1852 1760 1702 1698 1811 1806 1940 1957 1951 1993 1842 1722 1899 1950 1893 1936 2071 2121 2206 2349 2477 2577 2617 2700 2785 2838 2871 2957 2695 2490 2491 2694 2847 2990 3263 3441 -9999 -9999 -9999 -9999 -9999 -9999 -9999 -9999 -9999 -9999 -9999 -9999 -9999 -9999 -9999 -9999 -9999 -9999 -9999 -9999 -9999 -9999 -9999 -9999 -9999 -9999 -9999 -9999 -9999 -9999 -9999 -9999 -9999 -9999 -9999 -9999 -9999 -9999 -9999 -9999 -9999 -9999 -9999 -9999 -9999 -9999 -9999 -9999 -9999 -9999 -9999 -9999 -9999 -9999 -9999 -9999 -9999 -9999 -9999 -9999 -9999 -9999 -9999 -9999 -9999 -9999 -9999 -9999 -9999 -9999 -9999 -9999 -9999 -9999 -9999 -9999 -9999 -9999 -9999 -9999 -9999 -9999 -9999 -9999 -9999 -9999 -9999 -9999 -9999 -9999 -9999 -9999 -9999 -9999 -9999 -9999 -9999 -9999 -9999 -9999 -9999 -9999 -9999 -9999 -9999 -9999 -9999 -9999 -9999 -9999 -9999 -9999 -9999 -9999 -9999 -9999 -9999 -9999 -9999 -9999 -9999 -9999 -9999 -9999 -9999 -9999 -9999 -9999 -9999 -9999 -9999 -9999 -9999 -9999 -9999 -9999 -9999 -9999 -9999 -9999 -9999 -9999 -9999 -9999 -9999 -9999 -9999 -9999 -9999 -9999 -9999 -9999 -9999 -9999 -9999 -9999 -9999 -9999 -9999 -9999 -9999 -9999 -9999 -9999 -9999 -9999 -9999 -9999 -9999 -9999 -9999 -9999 -9999 -9999 -9999
-9999 -9999 -9999 -9999 -9999 -9999 -9999 -9999 -9999 -9999 -9999 -9999 -9999 -9999 -9999 -9999 -9999 -9999 -9999 -9999 -9999 -9999 -9999 -9999 -9999 -9999 -9999 -9999 -9999 -9999 -9999 -9999 -9999 -9999 -9999 -9999 -9999 -9999 -9999 -9999 -9999 -9999 -9999 -9999 -9999 1747 1730 1693 1769 1826 1826 1860 -9999 -9999 -9999 -9999 -9999 -9999 -9999 -9999 -9999 -9999 -9999 -9999 2136 2081 2059 2069 2032 2064 2055 1983 1867 2069 2023 2045 1949 1872 1628 1764 1674 1664 1904 1984 1990 2008 1985 1970 1970 2003 2044 2097 2030 1945 2033 1992 1924 1870 1833 1690 1738 1878 1912 1946 1976 1858 1909 1774 1769 1899 1967 2027 2002 2090 2154 2236 2344 2448 2558 2604 2686 2752 2787 2829 2874 2617 2471 2530 2613 2717 2904 3272 3397 3387 3395 3388 -9999 -9999 -9999 -9999 -9999 -9999 -9999 -9999 -9999 -9999 -9999 -9999 -9999 -9999 -9999 -9999 -9999 -9999 -9999 -9999 -9999 -9999 -9999 -9999 -9999 -9999 -9999 -9999 -9999 -9999 -9999 -9999 -9999 -9999 -9999 -9999 -9999 -9999 -9999 -9999 -9999 -9999 -9999 -9999 -9999 -9999 -9999 -9999 -9999 -9999 -9999 -9999 -9999 -9999 -9999 -9999 -9999 -9999 -9999 -9999 -9999 -9999 -9999 -9999 -9999 -9999 -9999 -9999 -9999 -9999 -9999 -9999 -9999 -9999 -9999 -9999 -9999 -9999 -9999 -9999 -9999 -9999 -9999 -9999 -9999 -9999 -9999 -9999 -9999 -9999 -9999 -9999 -9999 -9999 -9999 -9999 -9999 -9999 -9999 -9999 -9999 -9999 -9999 -9999 -9999 -9999 -9999 -9999 -9999 -9999 -9999 -9999 -9999 -9999 -9999 -9999 -9999 -9999 -9999 -9999 -9999 -9999 -9999 -9999 -9999 -9999 -9999 -9999 -9999 -9999 -9999 -9999 -9999 -9999 -9999 -9999 -9999 -9999 -9999 -9999 -9999 -9999 -9999 -9999 -9999 -9999 -9999 -9999 -9999 -9999 -9999 -9999 -9999 -9999 -9999 -9999 -9999 -9999 -9999 -9999 -9999 -9999 -9999 -9999 -9999 -9999 -9999 -9999 -9999 -9999 -9999 -9999
-9999 -9999 -9999 -9999 -9999 -9999 -9999 -9999 -9999 -9999 -9999 -9999 -9999 -9999 -9999 -9999 -9999 -9999 -9999 -9999 -9999 -9999 -9999 -9999 -9999 -9999 -9999 -9999 -9999 -9999 -9999 -9999 -9999 -9999 -9999 -9999 -9999 -9999 -9999 -9999 -9999 -9999 -9999 -9999 1664 1654 1660 1664 1717 1759 1770 1789 1816 1890 -9999 -9999 -9999 -9999 -9999 -9999 2127 2105 2086 2096 2081 1992 1940 2016 1920 2008 1876 1844 1887 1953 1936 1957 1940 1883 1674 1620 1720 1825 1946 1997 1981 2035 2033 2016 2090 2071 2095 1987 1941 1869 1976 1844 1856 1827 1808 1648 1822 1991 2052 2041 1874 1825 1746 1794 1856 1969 1951 2061 2222 2250 2239 2327 2414 2532 2611 2659 2701 2697 2687 2699 2657 2466 2505 2660 2936 3044 3163 3241 3215 3211 3066 3183 3295 3367 -9999 -9999 -9999 3225 3162 3364 -9999 -9999 -9999 -9999 -9999 -9999 -9999 -9999 -9999 -9999 -9999 -9999 -9999 -9999 -9999 -9999 -9999 -9999 -9999 -9999 -9999 -9999 -9999 -9999 -9999 -9999 -9999 -9999 -9999 -9999 -9999 -9999 -9999 -9999 -9999 -9999 -9999 -9999 -9999 -9999 -9999 -9999 -9999 -9999 -9999 -9999 -9999 -9999 -9999 -9999 -9999 -9999 -9999 -9999 -9999 -9999 -9999 -9999 -9999 -9999 -9999 -9999 -9999 -9999 -9999 -9999 -9999 -9999 -9999 -9999 -9999 -9999 -9999 -9999 -9999 -9999 -9999 -9999 -9999 -9999 -9999 -9999 -9999 -9999 -9999 -9999 -9999 -9999 -9999 -9999 -9999 -9999 -9999 -9999 -9999 -9999 -9999 -9999 -9999 -9999 -9999 -9999 -9999 -9999 -9999 -9999 -9999 -9999 -9999 -9999 -9999 -9999 -9999 -9999 -9999 -9999 -9999 -9999 -9999 -9999 -9999 -9999 -9999 -9999 -9999 -9999 -9999 -9999 -9999 -9999 -9999 -9999 -9999 -9999 -9999 -9999 -9999 -9999 -9999 -9999 -9999 -9999 -9999 -9999 -9999 -9999 -9999 -9999 -9999 -9999 -9999 -9999 -9999 -9999 -9999 -9999 -9999 -9999 -9999 -9999 -9999 -9999 -9999 -9999
-9999 -9999 -9999 -9999 -9999 -9999 -9999 -9999 -9999 -9999 -9999 -9999 -9999 -9999 -9999 -9999 -9999 -9999 -9999 -9999 -9999 -9999 -9999 -9999 -9999 -9999 -9999 -9999 -9999 -9999 -9999 -9999 -9999 -9999 -9999 -9999 -9999 -9999 -9999 -9999 -9999 -9999 -9999 -9999 1559 1571 1566 1634 1688 1736 1684 1734 1763 1851 1854 1880 1979 -9999 -9999 2114 2028 1966 2031 2038 2009 1939 1826 1901 1836 1825 1731 1702 1794 1899 1959 1871 1923 1827 1621 1770 1861 1929 1972 1988 2049 2022 2093 2077 2015 2003 1986 1894 1808 1863 1952 1782 1800 1831 1683 1744 1880 1986 2035 1923 1861 1698 1742 1959 2052 2110 2161 2206 2288 2411 2465 2606 2690 2679 2810 2807 2743 2637 2577 2576 2491 2359 2670 2725 2818 2888 2982 3019 3021 2898 2855 3020 3013 3042 3203 3112 3077 2913 2947 3225 3316 3364 -9999 -9999 -9999 -9999 -9999 3377 3431 -9999 -9999 -9999 -9999 -9999 -9999 -9999 -9999 -9999 -9999 -9999 -9999 -9999 -9999 -9999 -9999 -9999 -9999 -9999 -9999 -9999 -9999 -9999 -9999 -9999 -9999 -9999 -9999 -9999 -9999 -9999 -9999 -9999 -9999 -9999 -9999 -9999 -9999 -9999 -9999 -9999 -9999 -9999 -9999 -9999 -9999 -9999 -9999 -9999 -9999 -9999 -9999 -9999 -9999 -9999 -9999 -9999 -9999 -9999 -9999 -9999 -9999 -9999 -9999 -9999 -9999 -9999 -9999 -9999 -9999 -9999 -9999 -9999 -9999 -9999 -9999 -9999 -9999 -9999 -9999 -9999 -9999 -9999 -9999 -9999 -9999 -9999 -9999 -9999 -9999 -9999 -9999 -9999 -9999 -9999 -9999 -9999 -9999 -9999 -9999 -9999 -9999 -9999 -9999 -9999 -9999 -9999 -9999 -9999 -9999 -9999 -9999 -9999 -9999 -9999 -9999 -9999 -9999 -9999 -9999 -9999 -9999 -9999 -9999 -9999 -9999 -9999 -9999 -9999 -9999 -9999 -9999 -9999 -9999 -9999 -9999 -9999 -9999 -9999 -9999 -9999 -9999 -9999 -9999 -9999 -9999 -9999 -9999 -9999 -9999 -9999 -9999 -9999 -9999 -9999
-9999 -9999 -9999 -9999 -9999 -9999 -9999 -9999 -9999 -9999 -9999 -9999 -9999 -9999 -9999 -9999 -9999 -9999 -9999 -9999 -9999 -9999 -9999 -9999 -9999 -9999 -9999 -9999 -9999 -9999 -9999 -9999 -9999 -9999 -9999 -9999 -9999 -9999 -9999 -9999 -9999 -9999 -9999 1537 1533 1509 1522 1555 1649 1678 1654 1654 1716 1779 1818 1894 1996 2026 2008 2053 2043 1832 1940 1941 1806 1776 1768 1824 1705 1651 1756 1816 1859 1877 1893 1883 1878 1767 1535 1835 1912 1937 2008 2089 2101 2106 2100 2126 2047 2027 1846 1789 1816 1855 1901 1823 1692 1747 1668 1811 1856 2050 2085 1909 1808 1713 1865 2020 2052 2138 2228 2292 2448 2510 2529 2630 2706 2888 2847 2806 2760 2680 2477 2381 2244 2355 2595 2627 2672 2760 2894 2791 2802 2797 2734 2757 2751 2846 2933 2780 2759 2700 3004 3187 3019 3123 3004 2980 2993 2958 3102 3113 3278 3325 -9999 -9999 -9999 -9999 -9999 -9999 -9999 -9999 -9999 -9999 -9999 -9999 -9999 -9999 -9999 -9999 -9999 -9999 -9999 -9999 -9999 -9999 -9999 -9999 -9999 -9999 -9999 -9999 -9999 -9999 -9999 -9999 -9999 -9999 -9999 -9999 -9999 -9999 -9999 -9999 -9999 -9999 -9999 -9999 -9999 -9999 -9999 -9999 -9999 -9999 -9999 -9999 -9999 -9999 -9999 -9999 -9999 -9999 -9999 -9999 -9999 -9999 -9999 -9999 -9999 -9999 -9999 -9999 -9999 -9999 -9999 -9999 -9999 -9999 -9999 -9999 -9999 -9999 -9999 -9999 -9999 -9999 -9999 -9999 -9999 -9999 -9999 -9999 -9999 -9999 -9999 -9999 -9999 -9999 -9999 -9999 -9999 -9999 -9999 -9999 -9999 -9999 -9999 -9999 -9999 -9999 -9999 -9999 -9999 -9999 -9999 -9999 -9999 -9999 -9999 -9999 -9999 -9999 -9999 -9999 -9999 -9999 -9999 -9999 -9999 -9999 -9999 -9999 -9999 -9999 -9999 -9999 -9999 -9999 -9999 -9999 -9999 -9999 -9999 -9999 -9999 -9999 -9999 -9999 -9999 -9999 -9999 -9999 -9999 -9999 -9999 -9999 -9999 -9999
-9999 -9999 -9999 -9999 -9999 -9999 -9999 -9999 -9999 -9999 -9999 -9999 -9999 -9999 -9999 -9999 -9999 -9999 -9999 -9999 -9999 -9999 -9999 -9999 -9999 -9999 -9999 -9999 -9999 -9999 -9999 -9999 -9999 -9999 -9999 -9999 -9999 -9999 -9999 -9999 -9999 -9999 1582 1468 1507 1492 1485 1578 1628 1634 1639 1623 1765 1802 1858 1943 1958 1939 2009 2018 2007 1789 1874 1895 1740 1692 1791 1778 1649 1667 1832 1886 1821 1851 1848 1870 1861 1735 1574 1896 1968 1990 2035 2083 2127 2043 2097 2138 2091 2089 1918 1758 1773 1777 1856 1769 1732 1663 1724 1900 1920 2060 2072 1953 1770 1707 1898 1924 1993 2166 2212 2312 2383 2390 2427 2490 2604 2774 2747 2703 2675 2572 2406 2302 2100 2241 2503 2591 2647 2692 2857 2807 2717 2693 2654 2656 2641 2745 2827 2626 2595 2746 2979 3053 2890 2927 2808 2835 2827 2848 2907 3013 3133 3182 3328 -9999 -9999 -9999 -9999 -9999 -9999 -9999 -9999 -9999 -9999 -9999 -9999 -9999 -9999 -9999 -9999 -9999 -9999 -9999 -9999 -9999 -9999 -9999 -9999 -9999 -9999 -9999 -9999 -9999 -9999 -9999 -9999 -9999 -9999 -9999 -9999 -9999 -9999 -9999 -9999 -9999 -9999 -9999 -9999 -9999 -9999 -9999 -9999 -9999 -9999 -9999 -9999 -9999 -9999 -9999 -9999 -9999 -9999 -9999 -9999 -9999 -9999 -9999 -9999 -9999 -9999 -9999 -9999 -9999 -9999 -9999 -9999 -9999 -9999 -9999 -9999 -9999 -9999 -9999 -9999 -9999 -9999 -9999 -9999 -9999 -9999 -9999 -9999 -9999 -9999 -9999 -9999 -9999 -9999 -9999 -9999 -9999 -9999 -9999 -9999 -9999 -9999 -9999 -9999 -9999 -9999 -9999 -9999 -9999 -9999 -9999 -9999 -9999 -9999 -9999 -9999 -9999 -9999 -9999 -9999 -9999 -9999 -9999 -9999 -9999 -9999 -9999 -9999 -9999 -9999 -9999 -9999 -9999 -9999 -9999 -9999 -9999 -9999 -9999 -9999 -9999 -9999 -9999 -9999 -9999 -9999 -9999 -9999 -9999 -9999 -9999 -9999 -9999
-9999 -9999 -9999 -9999 -9999 -9999 -9999 -9999 -9999 -9999 -9999 -9999 -9999 -9999 -9999 -9999 -9999 -9999 -9999 -9999 -9999 -9999 -9999 -9999 -9999 -9999 -9999 -9999 -9999 -9999 -9999 -9999 -9999 -9999 -9999 -9999 -9999 -9999 -9999 -9999 -9999 1484 1477 1417 1421 1418 1476 1551 1566 1540 1562 1678 1755 1871 1895 1886 1862 1889 1896 1934 1892 1826 1715 1685 1699 1602 1621 1587 1690 1769 1856 1853 1727 1773 1769 1850 1797 1559 1626 1833 1928 2070 2123 2082 2041 2053 2135 2064 2074 2028 1882 1778 1670 1726 1783 1755 1619 1656 1813 1943 2055 2093 2080 1928 1808 1711 1774 1935 2060 2038 2014 2088 2116 2301 2410 2374 2559 2509 2426 2418 2478 2409 2195 2062 1974 2144 2469 2612 2652 2558 2714 2839 2716 2631 2481 2440 2445 2599 2671 2441 2467 2759 2921 2829 2689 2623 2721 2856 2891 2925 3047 3106 3022 3100 3331 3477 -9999 -9999 -9999 -9999 -9999 -9999 -9999 -9999 -9999 -9999 -9999 -9999 -9999 -9999 -9999 -9999 -9999 -9999 -9999 -9999 -9999 -9999 -9999 -9999 -9999 -9999 -9999 -9999 -9999 -9999 -9999 -9999 -9999 -9999 -9999 -9999 -9999 -9999 -9999 -9999 -9999 -9999 -9999 -9999 -9999 -9999 -9999 -9999 -9999 -9999 -9999 -9999 -9999 -9999 -9999 -9999 -9999 -9999 -9999 -9999 -9999 -9999 -9999 -9999 -9999 -9999 -9999 -9999 -9999 -9999 -9999 -9999 -9999 -9999 -9999 -9999 -9999 -9999 -9999 -9999 -9999 -9999 -9999 -9999 -9999 -9999 -9999 -9999 -9999 -9999 -9999 -9999 -9999 -9999 -9999 -9999 -9999 -9999 -9999 -9999 -9999 -9999 -9999 -9999 -9999 -9999 -9999 -9999 -9999 -9999 -9999 -9999 -9999 -9999 -9999 -9999 -9999 -9999 -9999 -9999 -9999 -9999 -9999 -9999 -9999 -9999 -9999 -9999 -9999 -9999 -9999 -9999 -9999 -9999 -9999 -9999 -9999 -9999 -9999 -9999 -9999 -9999 -9999 -9999 -9999 -9999 -9999 -9999 -9999 -9999 -9999 -9999
-9999 -9999 -9999 -9999 -9999 -9999 -9999 -9999 -9999 -9999 -9999 -9999 -9999 -9999 -9999 -9999 -9999 -9999 -9999 -9999 -9999 -9999 -9999 -9999 -9999 -9999 -9999 -9999 -9999 -9999 -9999 -9999 -9999 -9999 -9999 -9999 -9999 -9999 -9999 -9999 -9999 1480 1385 1351 1342 1412 1453 1504 1510 1558 1579 1597 1758 1770 1780 1837 1790 1776 1784 1758 1704 1680 1614 1599 1553 1539 1625 1646 1697 1783 1851 1779 1674 1761 1854 1733 1624 1532 1836 1984 2033 2115 2073 1962 1976 2050 2116 1988 1956 1958 1835 1816 1798 1754 1646 1599 1824 1820 1761 1848 1965 2068 2024 1844 1855 1768 1651 1796 1906 1891 1947 2133 2320 2311 2268 2413 2599 2649 2405 2311 2110 2078 2173 2031 1922 2196 2447 2506 2427 2488 2637 2533 2475 2479 2344 2217 2278 2305 2248 2315 2436 2537 2553 2528 2727 2829 2868 2973 3130 3154 3150 3205 3244 3202 3281 3444 3638 -9999 -9999 -9999 -9999 -9999 -9999 -9999 -9999 -9999 -9999 -9999 -9999 -9999 -9999 -9999 -9999 -9999 -9999 -9999 -9999 -9999 -9999 -9999 -9999 -9999 -9999 -9999 -9999 -9999 -9999 -9999 -9999 -9999 -9999 -9999 -9999 -9999 -9999 -9999 -9999 -9999 -9999 -9999 -9999 -9999 -9999 -9999 -9999 -9999 -9999 -9999 -9999 -9999 -9999 -9999 -9999 -9999 -9999 -9999 -9999 -9999 -9999 -9999 -9999 -9999 -9999 -9999 -9999 -9999 -9999 -9999 -9999 -9999 -9999 -9999 -9999 -9999 -9999 -9999 -9999 -9999 -9999 -9999 -9999 -9999 -9999 -9999 -9999 -9999 -9999 -9999 -9999 -9999 -9999 -9999 -9999 -9999 -9999 -9999 -9999 -9999 -9999 -9999 -9999 -9999 -9999 -9999 -9999 -9999 -9999 -9999 -9999 -9999 -9999 -9999 -9999 -9999 -9999 -9999 -9999 -9999 -9999 -9999 -9999 -9999 -9999 -9999 -9999 -9999 -9999 -9999 -9999 -9999 -9999 -9999 -9999 -9999 -9999 -9999 -9999 -9999 -9999 -9999 -9999 -9999 -9999 -9999 -9999 -9999 -9999 -9999
-9999 -9999 -9999 -9999 -9999 -9999 -9999 -9999 -9999 -9999 -9999 -9999 -9999 -9999 -9999 -9999 -9999 -9999 -9999 -9999 -9999 -9999 -9999 -9999 -9999 -9999 -9999 -9999 -9999 -9999 -9999 -9999 -9999 -9999 -9999 -9999 -9999 -9999 -9999 -9999 1471 1440 1388 1346 1322 1381 1427 1424 1440 1472 1477 1575 1677 1732 1735 1749 1687 1650 1659 1621 1564 1568 1492 1491 1608 1649 1689 1652 1690 1811 1771 1684 1747 1843 1842 1669 1490 1672 1837 1954 2029 2074 1943 1927 1974 2068 2105 2006 1902 1832 1768 1745 1702 1645 1570 1821 1915 1948 1844 1975 2056 2104 2070 2027 2079 1960 1926 1670 1791 1897 1995 2200 2289 2150 2195 2345 2424 2643 2587 2464 2323 2089 1895 1970 1837 2013 2106 2144 2431 2579 2448 2350 2343 2253 2190 2099 2180 2284 2352 2382 2415 2444 2586 2636 2777 2867 3088 3166 3327 3420 3299 3431 3502 3431 3384 3465 3397 -9999 -9999 -9999 -9999 -9999 -9999 -9999 -9999 -9999 -9999 -9999 -9999 -9999 -9999 -9999 -9999 -9999 -9999 -9999 -9999 -9999 -9999 -9999 -9999 -9999 -9999 -9999 -9999 -9999 -9999 -9999 -9999 -9999 -9999 -9999 -9999 -9999 -9999 -9999 -9999 -9999 -9999 -9999 -9999 -9999 -9999 -9999 -9999 -9999 -9999 -9999 -9999 -9999 -9999 -9999 -9999 -9999 -9999 -9999 -9999 -9999 -9999 -9999 -9999 -9999 -9999 -9999 -9999 -9999 -9999 -9999 -9999 -9999 -9999 -9999 -9999 -9999 -9999 -9999 -9999 -9999 -9999 -9999 -9999 -9999 -9999 -9999 -9999 -9999 -9999 -9999 -9999 -9999 -9999 -9999 -9999 -9999 -9999 -9999 -9999 -9999 -9999 -9999 -9999 -9999 -9999 -9999 -9999 -9999 -9999 -9999 -9999 -9999 -9999 -9999 -9999 -9999 -9999 -9999 -9999 -9999 -9999 -9999 -9999 -9999 -9999 -9999 -9999 -9999 -9999 -9999 -9999 -9999 -9999 -9999 -9999 -9999 -9999 -9999 -9999 -9999 -9999 -9999 -9999 -9999 -9999 -9999 -9999 -9999 -9999 -9999
-9999 -9999 -9999 -9999 -9999 -9999 -9999 -9999 -9999 -9999 -9999 -9999 -9999 -9999 -9999 -9999 -9999 -9999 -9999 -9999 -9999 -9999 -9999 -9999 -9999 -9999 -9999 -9999 -9999 -9999 -9999 -9999 -9999 -9999 -9999 -9999 -9999 -9999 -9999 1495 1439 1401 1372 1317 1295 1371 1404 1393 1421 1440 1474 1569 1643 1680 1686 1697 1666 1642 1601 1613 1531 1499 1487 1544 1673 1684 1632 1608 1714 1795 1773 1676 1771 1845 1804 1662 1490 1689 1807 1965 2049 2025 1898 1999 2035 2122 2111 2084 1984 1918 1828 1815 1782 1664 1594 1801 1866 1945 1957 1918 2039 2135 2165 2102 2177 2138 2032 1787 1695 1948 2065 2164 2174 2080 2150 2271 2463 2562 2689 2652 2487 2169 1889 1825 1828 1916 2089 2158 2386 2478 2369 2329 2310 2254 2224 2101 2285 2411 2434 2453 2502 2568 2671 2749 2799 2874 3130 3236 3294 3311 3369 3487 3479 3361 3243 3339 3238 3444 3403 3255 3253 3508 -9999 -9999 -9999 -9999 -9999 -9999 -9999 -9999 -9999 -9999 -9999 -9999 -9999 -9999 -9999 -9999 -9999 -9999 -9999 -9999 -9999 -9999 -9999 -9999 -9999 -9999 -9999 -9999 -9999 -9999 -9999 -9999 -9999 -9999 -9999 -9999 -9999 -9999 -9999 -9999 -9999 -9999 -9999 -9999 -9999 -9999 -9999 -9999 -9999 -9999 -9999 -9999 -9999 -9999 -9999 -9999 -9999 -9999 -9999 -9999 -9999 -9999 -9999 -9999 -9999 -9999 -9999 -9999 -9999 -9999 -9999 -9999 -9999 -9999 -9999 -9999 -9999 -9999 -9999 -9999 -9999 -9999 -9999 -9999 -9999 -9999 -9999 -9999 -9999 -9999 -9999 -9999 -9999 -9999 -9999 -9999 -9999 -9999 -9999 -9999 -9999 -9999 -9999 -9999 -9999 -9999 -9999 -9999 -9999 -9999 -9999 -9999 -9999 -9999 -9999 -9999 -9999 -9999 -9999 -9999 -9999 -9999 -9999 -9999 -9999 -9999 -9999 -9999 -9999 -9999 -9999 -9999 -9999 -9999 -9999 -9999 -9999 -9999 -9999 -9999 -9999 -9999 -9999 -9999 -9999 -9999
-9999 -9999 -9999 -9999 -9999 -9999 -9999 -9999 -9999 -9999 -9999 -9999 -9999 -9999 -9999 -9999 -9999 -9999 -9999 -9999 -9999 -9999 -9999 -9999 -9999 -9999 -9999 -9999 -9999 -9999 -9999 -9999 -9999 -9999 -9999 -9999 -9999 -9999 1428 1427 1466 1395 1315 1328 1271 1345 1389 1353 1451 1455 1468 1541 1599 1554 1577 1575 1568 1648 1515 1556 1435 1494 1559 1613 1692 1597 1585 1654 1758 1767 1660 1605 1763 1782 1781 1484 1473 1658 1898 2028 2013 1907 1896 1985 2061 2164 2043 1957 1958 1983 1941 1909 1718 1587 1738 1858 1858 1818 1992 2052 2072 2169 2239 2271 2185 2154 2086 1889 1612 1890 1960 1859 1925 2149 2230 2216 2319 2448 2613 2650 2484 2261 1999 1895 1761 2011 2178 2256 2440 2377 2299 2210 2231 2198 2013 1993 2124 2429 2629 2620 2709 2788 2871 2982 3075 3116 3258 3055 2909 2926 3023 3248 3051 3041 2856 2951 2931 3121 3080 2988 3084 3325 3502 -9999 -9999 -9999 -9999 -9999 -9999 -9999 -9999 -9999 -9999 -9999 -9999 -9999 -9999 -9999 -9999 -9999 -9999 -9999 -9999 -9999 -9999 -9999 -9999 -9999 -9999 -9999 -9999 -9999 -9999 -9999 -9999 -9999 -9999 -9999 -9999 -9999 -9999 -9999 -9999 -9999 -9999 -9999 -9999 -9999 -9999 -9999 -9999 -9999 -9999 -9999 -9999 -9999 -9999 -9999 -9999 -9999 -9999 -9999 -9999 -9999 -9999 -9999 -9999 -9999 -9999 -9999 -9999 -9999 -9999 -9999 -9999 -9999 -9999 -9999 -9999 -9999 -9999 -9999 -9999 -9999 -9999 -9999 -9999 -9999 -9999 -9999 -9999 -9999 -9999 -9999 -9999 -9999 -9999 -9999 -9999 -9999 -9999 -9999 -9999 -9999 -9999 -9999 -9999 -9999 -9999 -9999 -9999 -9999 -9999 -9999 -9999 -9999 -9999 -9999 -9999 -9999 -9999 -9999 -9999 -9999 -9999 -9999 -9999 -9999 -9999 -9999 -9999 -9999 -9999 -9999 -9999 -9999 -9999 -9999 -9999 -9999 -9999 -9999 -9999 -9999 -9999 -9999 -9999 -9999
-9999 -9999 -9999 -9999 -9999 -9999 -9999 -9999 -9999 -9999 -9999 -9999 -9999 -9999 -9999 -9999 -9999 -9999 -9999 -9999 -9999 -9999 -9999 -9999 -9999 -9999 -9999 -9999 -9999 -9999 -9999 -9999 -9999 -9999 -9999 -9999 -9999 -9999 1393 1408 1407 1384 1298 1258 1238 1324 1339 1365 1346 1365 1399 1455 1456 1452 1482 1534 1569 1538 1499 1442 1449 1552 1601 1608 1629 1517 1614 1677 1761 1667 1562 1631 1722 1715 1725 1421 1532 1817 1986 1919 1899 1820 1977 2022 2039 2142 2020 1851 1901 1945 1939 1803 1542 1615 1836 1967 2068 2069 1971 2098 2232 2224 2201 2283 2083 2053 1985 1745 1650 1783 1932 2056 2276 2299 2360 2527 2497 2518 2389 2360 2284 2073 2119 1945 1701 1956 2198 2264 2237 2180 2097 2118 2057 1943 1968 2175 2275 2365 2439 2608 2683 2861 3082 2982 3018 3093 3123 2823 2708 2768 2946 3142 2947 2795 2675 2720 2837 2869 2822 2829 2985 3216 3344 3517 -9999 -9999 -9999 -9999 -9999 -9999 -9999 -9999 -9999 -9999 -9999 -9999 -9999 -9999 -9999 -9999 -9999 -9999 -9999 -9999 -9999 -9999 -9999 -9999 -9999 -9999 -9999 -9999 -9999 -9999 -9999 -9999 -9999 -9999 -9999 -9999 -9999 -9999 -9999 -9999 -9999 -9999 -9999 -9999 -9999 -9999 -9999 -9999 -9999 -9999 -9999 -9999 -9999 -9999 -9999 -9999 -9999 -9999 -9999 -9999 -9999 -9999 -9999 -9999 -9999 -9999 -9999 -9999 -9999 -9999 -9999 -9999 -9999 -9999 -9999 -9999 -9999 -9999 -9999 -9999 -9999 -9999 -9999 -9999 -9999 -9999 -9999 -9999 -9999 -9999 -9999 -9999 -9999 -9999 -9999 -9999 -9999 -9999 -9999 -9999 -9999 -9999 -9999 -9999 -9999 -9999 -9999 -9999 -9999 -9999 -9999 -9999 -9999 -9999 -9999 -9999 -9999 -9999 -9999 -9999 -9999 -9999 -9999 -9999 -9999 -9999 -9999 -9999 -9999 -9999 -9999 -9999 -9999 -9999 -9999 -9999 -9999 -9999 -9999 -9999 -9999 -9999 -9999 -9999
-9999 -9999 -9999 -9999 -9999 -9999 -9999 -9999 -9999 -9999 -9999 -9999 -9999 -9999 -9999 -9999 -9999 -9999 -9999 -9999 -9999 -9999 -9999 -9999 -9999 -9999 -9999 -9999 -9999 -9999 -9999 -9999 -9999 -9999 -9999 -9999 -9999 1478 1347 1357 1366 1299 1301 1278 1211 1246 1249 1280 1318 1359 1368 1384 1411 1473 1500 1541 1554 1515 1449 1398 1436 1544 1557 1606 1555 1491 1618 1649 1735 1582 1541 1599 1618 1685 1527 1501 1641 1916 1883 1802 1764 1863 1968 2041 2067 2102 1944 1895 1716 1830 1679 1560 1661 1790 1899 1954 2111 2159 2141 2196 2214 2098 2096 2253 2111 2065 1931 1598 1799 1921 2045 2213 2331 2425 2493 2451 2438 2410 2142 2031 2024 1899 1935 1824 1733 1909 1908 1955 2011 2018 1961 1828 1805 1915 2051 2339 2476 2577 2633 2785 2840 2970 2887 2767 2968 3068 2972 2709 2540 2687 2876 3068 2866 2718 2507 2717 2598 2618 2633 2781 2935 3133 3215 3364 3586 -9999 -9999 -9999 -9999 -9999 -9999 -9999 -9999 -9999 -9999 -9999 -9999 -9999 -9999 -9999 -9999 -9999 -9999 -9999 -9999 -9999 -9999 -9999 -9999 -9999 -9999 -9999 -9999 -9999 -9999 -9999 -9999 -9999 -9999 -9999 -9999 -9999 -9999 -9999 -9999 -9999 -9999 -9999 -9999 -9999 -9999 -9999 -9999 -9999 -9999 -9999 -9999 -9999 -9999 -9999 -9999 -9999 -9999 -9999 -9999 -9999 -9999 -9999 -9999 -9999 -9999 -9999 -9999 -9999 -9999 -9999 -9999 -9999 -9999 -9999 -9999 -9999 -9999 -9999 -9999 -9999 -9999 -9999 -9999 -9999 -9999 -9999 -9999 -9999 -9999 -9999 -9999 -9999 -9999 -9999 -9999 -9999 -9999 -9999 -9999 -9999 -9999 -9999 -9999 -9999 -9999 -9999 -9999 -9999 -9999 -9999 -9999 -9999 -9999 -9999 -9999 -9999 -9999 -9999 -9999 -9999 -9999 -9999 -9999 -9999 -9999 -9999 -9999 -9999 -9999 -9999 -9999 -9999 -9999 -9999 -9999 -9999 -9999 -9999 -9999 -9999 -9999 -9999
-9999 -9999 -9999 -9999 -9999 -9999 -9999 -9999 -9999 -9999 -9999 -9999 -9999 -9999 -9999 -9999 -9999 -9999 -9999 -9999 -9999 -9999 -9999 -9999 -9999 -9999 -9999 -9999 -9999 -9999 -9999 -9999 -9999 -9999 -9999 -9999 -9999 1429 1334 1319 1383 1348 1234 1212 1202 1285 1316 1391 1441 1444 1437 1452 1482 1504 1497 1505 1432 1408 1364 1418 1463 1550 1526 1560 1508 1476 1536 1605 1659 1543 1490 1557 1466 1439 1432 1698 1814 1920 1748 1781 1891 1947 2048 2101 2075 2092 1940 1795 1576 1616 1511 1605 1803 1869 1987 2061 2214 2188 2032 2014 1979 2078 1946 2046 2000 1816 1808 1578 1795 2026 2198 2338 2474 2541 2492 2391 2500 2159 2182 2049 1805 1732 1643 1605 1666 1709 1721 1720 1712 1727 1741 1963 2059 2168 2412 2562 2634 2828 2880 2926 2991 3117 2862 2607 2734 2801 2802 2609 2372 2470 2649 2744 2702 2686 2414 2535 2532 2739 2849 2965 2886 3046 3169 3328 3577 -9999 -9999 -9999 -9999 -9999 -9999 -9999 -9999 -9999 -9999 -9999 -9999 -9999 -9999 -9999 -9999 -9999 -9999 -9999 -9999 -9999 -9999 -9999 -9999 -9999 -9999 -9999 -9999 -9999 -9999 -9999 -9999 -9999 -9999 -9999 -9999 -9999 -9999 -9999 -9999 -9999 -9999 -9999 -9999 -9999 -9999 -9999 -9999 -9999 -9999 -9999 -9999 -9999 -9999 -9999 -9999 -9999 -9999 -9999 -9999 -9999 -9999 -9999 -9999 -9999 -9999 -9999 -9999 -9999 -9999 -9999 -9999 -9999 -9999 -9999 -9999 -9999 -9999 -9999 -9999 -9999 -9999 -9999 -9999 -9999 -9999 -9999 -9999 -9999 -9999 -9999 -9999 -9999 -9999 -9999 -9999 -9999 -9999 -9999 -9999 -9999 -9999 -9999 -9999 -9999 -9999 -9999 -9999 -9999 -9999 -9999 -9999 -9999 -9999 -9999 -9999 -9999 -9999 -9999 -9999 -9999 -9999 -9999 -9999 -9999 -9999 -9999 -9999 -9999 -9999 -9999 -9999 -9999 -9999 -9999 -9999 -9999 -9999 -9999 -9999 -9999 -9999 -9999
-9999 -9999 -9999 -9999 -9999 -9999 -9999 -9999 -9999 -9999 -9999 -9999 -9999 -9999 -9999 -9999 -9999 -9999 -9999 -9999 -9999 -9999 -9999 -9999 -9999 -9999 -9999 -9999 -9999 -9999 -9999 -9999 -9999 -9999 -9999 -9999 -9999 1383 1311 1287 1364 1336 1258 1201 1182 1241 1276 1401 1409 1393 1387 1392 1461 1471 1468 1463 1392 1347 1404 1441 1497 1537 1484 1507 1489 1453 1531 1595 1603 1514 1437 1475 1368 1443 1604 1819 1866 1888 1685 1874 1869 1948 2056 2041 2050 2012 1917 1733 1529 1483 1632 1661 1740 1774 1894 2082 2208 2198 1995 1896 1860 2068 1969 1925 1962 1662 1628 1644 1953 2051 2188 2440 2549 2530 2505 2335 2440 2142 1994 2019 1704 1626 1581 1662 1813 1888 1930 1902 1867 1799 1902 1964 2135 2350 2520 2650 2697 2889 3065 3035 3028 3022 2870 2569 2590 2613 2684 2561 2311 2368 2602 2616 2513 2540 2411 2397 2586 2774 2846 2960 2921 3045 3126 3294 3469 3649 -9999 -9999 -9999 -9999 -9999 -9999 -9999 -9999 -9999 -9999 -9999 -9999 -9999 -9999 -9999 -9999 -9999 -9999 -9999 -9999 -9999 -9999 -9999 -9999 -9999 -9999 -9999 -9999 -9999 -9999 -9999 -9999 -9999 -9999 -9999 -9999 -9999 -9999 -9999 -9999 -9999 -9999 -9999 -9999 -9999 -9999 -9999 -9999 -9999 -9999 -9999 -9999 -9999 -9999 -9999 -9999 -9999 -9999 -9999 -9999 -9999 -9999 -9999 -9999 -9999 -9999 -9999 -9999 -9999 -9999 -9999 -9999 -9999 -9999 -9999 -9999 -9999 -9999 -9999 -9999 -9999 -9999 -9999 -9999 -9999 -9999 -9999 -9999 -9999 -9999 -9999 -9999 -9999 -9999 -9999 -9999 -9999 -9999 -9999 -9999 -9999 -9999 -9999 -9999 -9999 -9999 -9999 -9999 -9999 -9999 -9999 -9999 -9999 -9999 -9999 -9999 -9999 -9999 -9999 -9999 -9999 -9999 -9999 -9999 -9999 -9999 -9999 -9999 -9999 -9999 -9999 -9999 -9999 -9999 -9999 -9999 -9999 -9999 -9999 -9999 -9999 -9999
-9999 -9999 -9999 -9999 -9999 -9999 -9999 -9999 -9999 -9999 -9999 -9999 -9999 -9999 -9999 -9999 -9999 -9999 -9999 -9999 -9999 -9999 -9999 -9999 -9999 -9999 -9999 -9999 -9999 -9999 -9999 -9999 -9999 -9999 -9999 -9999 -9999 1474 1357 1253 1324 1326 1245 1195 1185 1281 1351 1362 1294 1279 1301 1364 1418 1412 1417 1363 1309 1418 1516 1482 1483 1465 1422 1485 1472 1414 1452 1496 1535 1390 1338 1389 1636 1808 1847 1801 1786 1792 1643 1797 1901 2016 2031 2007 2043 1771 1681 1590 1540 1663 1807 1904 1894 1909 1996 2116 2112 2027 2025 1791 1718 1818 1796 1635 1737 1553 1671 1912 2146 2318 2387 2351 2558 2411 2448 2252 2013 2099 1834 1693 1550 1639 1798 1908 1997 2174 2308 2318 2217 2134 2163 1996 2076 2260 2467 2573 2607 2817 3030 2828 2743 2674 2752 2545 2356 2360 2442 2542 2261 2224 2440 2401 2306 2253 2327 2658 2673 2686 2766 3021 3133 3124 3173 3250 3338 3463 -9999 -9999 -9999 -9999 -9999 -9999 -9999 -9999 -9999 -9999 -9999 -9999 -9999 -9999 -9999 -9999 -9999 -9999 -9999 -9999 -9999 -9999 -9999 -9999 -9999 -9999 -9999 -9999 -9999 -9999 -9999 -9999 -9999 -9999 -9999 -9999 -9999 -9999 -9999 -9999 -9999 -9999 -9999 -9999 -9999 -9999 -9999 -9999 -9999 -9999 -9999 -9999 -9999 -9999 -9999 -9999 -9999 -9999 -9999 -9999 -9999 -9999 -9999 -9999 -9999 -9999 -9999 -9999 -9999 -9999 -9999 -9999 -9999 -9999 -9999 -9999 -9999 -9999 -9999 -9999 -9999 -9999 -9999 -9999 -9999 -9999 -9999 -9999 -9999 -9999 -9999 -9999 -9999 -9999 -9999 -9999 -9999 -9999 -9999 -9999 -9999 -9999 -9999 -9999 -9999 -9999 -9999 -9999 -9999 -9999 -9999 -9999 -9999 -9999 -9999 -9999 -9999 -9999 -9999 -9999 -9999 -9999 -9999 -9999 -9999 -9999 -9999 -9999 -9999 -9999 -9999 -9999 -9999 -9999 -9999 -9999 -9999 -9999 -9999 -9999 -9999 -9999
-9999 -9999 -9999 -9999 -9999 -9999 -9999 -9999 -9999 -9999 -9999 -9999 -9999 -9999 -9999 -9999 -9999 -9999 -9999 -9999 -9999 -9999 -9999 -9999 -9999 -9999 -9999 -9999 -9999 -9999 -9999 -9999 -9999 -9999 -9999 -9999 -9999 1421 1301 1243 1260 1294 1234 1178 1191 1275 1353 1262 1235 1332 1321 1305 1386 1409 1414 1287 1401 1453 1409 1434 1547 1434 1401 1432 1419 1367 1481 1510 1382 1315 1458 1538 1685 1737 1673 1698 1754 1669 1747 1932 1908 1973 1935 2031 1887 1660 1487 1477 1633 1717 1856 1967 2046 2093 2153 2227 2127 1962 1727 1809 1596 1529 1476 1504 1570 1775 1911 2128 2326 2416 2389 2265 2458 2476 2350 2054 1963 1748 1621 1530 1699 1914 1989 1994 2116 2333 2539 2630 2515 2446 2424 2328 2347 2351 2391 2578 2697 2842 2775 2775 2681 2534 2406 2584 2396 2310 2169 2289 2301 2241 2206 2141 2297 2425 2670 2945 3034 3045 3076 3092 3322 3288 3376 3559 3523 3535 3532 -9999 -9999 -9999 -9999 -9999 -9999 -9999 -9999 -9999 -9999 -9999 -9999 -9999 -9999 -9999 -9999 -9999 -9999 -9999 -9999 -9999 -9999 -9999 -9999 -9999 -9999 -9999 -9999 -9999 -9999 -9999 -9999 -9999 -9999 -9999 -9999 -9999 -9999 -9999 -9999 -9999 -9999 -9999 -9999 -9999 -9999 -9999 -9999 -9999 -9999 -9999 -9999 -9999 -9999 -9999 -9999 -9999 -9999 -9999 -9999 -9999 -9999 -9999 -9999 -9999 -9999 -9999 -9999 -9999 -9999 -9999 -9999 -9999 -9999 -9999 -9999 -9999 -9999 -9999 -9999 -9999 -9999 -9999 -9999 -9999 -9999 -9999 -9999 -9999 -9999 -9999 -9999 -9999 -9999 -9999 -9999 -9999 -9999 -9999 -9999 -9999 -9999 -9999 -9999 -9999 -9999 -9999 -9999 -9999 -9999 -9999 -9999 -9999 -9999 -9999 -9999 -9999 -9999 -9999 -9999 -9999 -9999 -9999 -9999 -9999 -9999 -9999 -9999 -9999 -9999 -9999 -9999 -9999 -9999 -9999 -9999 -9999 -9999 -9999 -9999 -9999
-9999 -9999 -9999 -9999 -9999 -9999 -9999 -9999 -9999 -9999 -9999 -9999 -9999 -9999 -9999 -9999 -9999 -9999 -9999 -9999 -9999 -9999 -9999 -9999 -9999 -9999 -9999 -9999 -9999 -9999 -9999 -9999 -9999 -9999 -9999 -9999 -9999 -9999 1371 1249 1236 1246 1257 1144 1173 1257 1253 1208 1255 1277 1260 1339 1379 1399 1385 1270 1394 1346 1434 1474 1462 1403 1369 1410 1349 1358 1410 1397 1296 1372 1461 1500 1558 1544 1582 1632 1586 1603 1855 1839 1899 1911 2001 1902 1843 1658 1428 1539 1733 1750 1737 1912 2061 2144 2278 2230 2136 2087 1902 1593 1478 1641 1776 1913 2012 2120 2173 2259 2419 2317 2257 2092 2346 2312 2283 2020 1811 1588 1559 1717 1894 2054 2179 2238 2378 2571 2590 2631 2521 2496 2560 2685 2661 2605 2668 2747 2788 2616 2497 2560 2603 2423 2124 2282 2176 2142 2024 2021 2064 2109 2275 2298 2386 2493 2659 2812 2931 3114 3224 3101 3264 3444 3513 3569 3354 3258 3237 -9999 -9999 -9999 -9999 -9999 -9999 -9999 -9999 -9999 -9999 -9999 -9999 -9999 -9999 -9999 -9999 -9999 -9999 -9999 -9999 -9999 -9999 -9999 -9999 -9999 -9999 -9999 -9999 -9999 -9999 -9999 -9999 -9999 -9999 -9999 -9999 -9999 -9999 -9999 -9999 -9999 -9999 -9999 -9999 -9999 -9999 -9999 -9999 -9999 -9999 -9999 -9999 -9999 -9999 -9999 -9999 -9999 -9999 -9999 -9999 -9999 -9999 -9999 -9999 -9999 -9999 -9999 -9999 -9999 -9999 -9999 -9999 -9999 -9999 -9999 -9999 -9999 -9999 -9999 -9999 -9999 -9999 -9999 -9999 -9999 -9999 -9999 -9999 -9999 -9999 -9999 -9999 -9999 -9999 -9999 -9999 -9999 -9999 -9999 -9999 -9999 -9999 -9999 -9999 -9999 -9999 -9999 -9999 -9999 -9999 -9999 -9999 -9999 -9999 -9999 -9999 -9999 -9999 -9999 -9999 -9999 -9999 -9999 -9999 -9999 -9999 -9999 -9999 -9999 -9999 -9999 -9999 -9999 -9999 -9999 -9999 -9999 -9999 -9999 -9999 -9999
-9999 -9999 -9999 -9999 -9999 -9999 -9999 -9999 -9999 -9999 -9999 -9999 -9999 -9999 -9999 -9999 -9999 -9999 -9999 -9999 -9999 -9999 -9999 -9999 -9999 -9999 -9999 -9999 -9999 -9999 -9999 -9999 -9999 -9999 -9999 -9999 -9999 -9999 -9999 1235 1217 1277 1287 1161 1146 1217 1212 1201 1217 1239 1231 1309 1347 1372 1381 1262 1318 1350 1479 1440 1446 1377 1350 1380 1310 1350 1369 1329 1309 1353 1401 1431 1450 1460 1501 1510 1547 1739 1887 1814 1895 1865 1973 1747 1723 1627 1393 1591 1682 1820 1928 2022 2132 2186 2248 2287 2165 2078 1972 1651 1508 1808 1892 2073 2177 2153 2117 2115 2314 2287 2250 1973 2164 2197 2096 1828 1672 1512 1635 1798 1974 2101 2265 2327 2432 2520 2463 2524 2415 2361 2429 2652 2726 2765 2817 2881 2818 2545 2384 2374 2434 2298 2089 2101 1992 1971 1999 2170 2150 2304 2482 2571 2431 2478 2661 2777 2988 3109 3127 3009 3274 3334 3357 3400 3293 3129 3149 3373 3451 3537 3470 3375 3441 3663 -9999 -9999 -9999 -9999 -9999 -9999 -9999 -9999 -9999 -9999 -9999 -9999 -9999 -9999 -9999 -9999 -9999 -9999 -9999 -9999 -9999 -9999 -9999 -9999 -9999 -9999 -9999 -9999 -9999 -9999 -9999 -9999 -9999 -9999 -9999 -9999 -9999 -9999 -9999 -9999 -9999 -9999 -9999 -9999 -9999 -9999 -9999 -9999 -9999 -9999 -9999 -9999 -9999 -9999 -9999 -9999 -9999 -9999 -9999 -9999 -9999 -9999 -9999 -9999 -9999 -9999 -9999 -9999 -9999 -9999 -9999 -9999 -9999 -9999 -9999 -9999 -9999 -9999 -9999 -9999 -9999 -9999 -9999 -9999 -9999 -9999 -9999 -9999 -9999 -9999 -9999 -9999 -9999 -9999 -9999 -9999 -9999 -9999 -9999 -9999 -9999 -9999 -9999 -9999 -9999 -9999 -9999 -9999 -9999 -9999 -9999 -9999 -9999 -9999 -9999 -9999 -9999 -9999 -9999 -9999 -9999 -9999 -9999 -9999 -9999 -9999 -9999 -9999 -9999 -9999 -9999 -9999 -9999 -9999
-9999 -9999 -9999 -9999 -9999 -9999 -9999 -9999 -9999 -9999 -9999 -9999 -9999 -9999 -9999 -9999 -9999 -9999 -9999 -9999 -9999 -9999 -9999 -9999 -9999 -9999 -9999 -9999 -9999 -9999 -9999 -9999 -9999 -9999 -9999 -9999 -9999 -9999 1262 1167 1236 1223 1256 1192 1118 1145 1172 1157 1205 1215 1254 1297 1337 1337 1360 1244 1314 1414 1457 1437 1340 1339 1296 1280 1278 1265 1302 1336 1448 1605 1607 1607 1633 1675 1732 1761 1807 1832 1807 1753 1777 1875 1853 1747 1652 1471 1472 1705 1955 2004 2119 2158 2174 2142 2190 2151 1932 1872 1688 1492 1614 1901 2028 2088 1883 2022 1885 2011 2096 1924 2041 1921 1838 1883 1818 1705 1526 1542 1798 1902 2064 2120 2036 2077 2159 2145 2222 2323 2183 2027 2156 2337 2448 2705 2662 2711 2775 2526 2250 2103 2108 2061 1952 1941 2161 2216 2298 2561 2478 2503 2413 2581 2786 2728 2743 2879 2943 2827 2836 2943 3008 3115 3171 3163 3185 3126 3000 3100 3238 3164 3123 3330 3433 3615 -9999 -9999 -9999 -9999 -9999 -9999 -9999 -9999 -9999 -9999 -9999 -9999 -9999 -9999 -9999 -9999 -9999 -9999 -9999 -9999 -9999 -9999 -9999 -9999 -9999 -9999 -9999 -9999 -9999 -9999 -9999 -9999 -9999 -9999 -9999 -9999 -9999 -9999 -9999 -9999 -9999 -9999 -9999 -9999 -9999 -9999 -9999 -9999 -9999 -9999 -9999 -9999 -9999 -9999 -9999 -9999 -9999 -9999 -9999 -9999 -9999 -9999 -9999 -9999 -9999 -9999 -9999 -9999 -9999 -9999 -9999 -9999 -9999 -9999 -9999 -9999 -9999 -9999 -9999 -9999 -9999 -9999 -9999 -9999 -9999 -9999 -9999 -9999 -9999 -9999 -9999 -9999 -9999 -9999 -9999 -9999 -9999 -9999 -9999 -9999 -9999 -9999 -9999 -9999 -9999 -9999 -9999 -9999 -9999 -9999 -9999 -9999 -9999 -9999 -9999 -9999 -9999 -9999 -9999 -9999 -9999 -9999 -9999 -9999 -9999 -9999 -9999 -9999 -9999 -9999 -9999 -9999 -9999 -9999
-9999 -9999 -9999 -9999 -9999 -9999 -9999 -9999 -9999 -9999 -9999 -9999 -9999 -9999 -9999 -9999 -9999 -9999 -9999 -9999 -9999 -9999 -9999 -9999 -9999 -9999 -9999 -9999 -9999 -9999 -9999 -9999 -9999 -9999 -9999 -9999 -9999 -9999 1278 1152 1171 1180 1263 1207 1100 1121 1130 1220 1245 1247 1260 1301 1340 1270 1322 1229 1345 1421 1432 1371 1335 1284 1243 1238 1340 1430 1548 1576 1594 1580 1611 1600 1592 1646 1674 1741 1754 1748 1696 1773 1753 1673 1627 1547 1504 1394 1647 1892 2013 2069 2103 2045 2148 2074 2196 1968 2041 1979 1686 1410 1610 1848 1941 1730 1657 1871 1717 1820 1867 1672 1800 1771 1596 1586 1579 1493 1524 1686 1748 1761 1892 1711 1847 1863 1785 1804 2002 2042 1879 1983 2212 2390 2475 2585 2371 2459 2551 2421 2140 1958 1838 1813 1934 2182 2402 2469 2519 2647 2731 2845 2686 2817 2824 2811 2851 2939 2707 2812 2954 3006 3004 3004 3066 2949 2962 2878 2854 3088 2943 3111 3165 3387 3539 3651 -9999 -9999 -9999 -9999 -9999 -9999 -9999 -9999 -9999 -9999 -9999 -9999 -9999 -9999 -9999 -9999 -9999 -9999 -9999 -9999 -9999 -9999 -9999 -9999 -9999 -9999 -9999 -9999 -9999 -9999 -9999 -9999 -9999 -9999 -9999 -9999 -9999 -9999 -9999 -9999 -9999 -9999 -9999 -9999 -9999 -9999 -9999 -9999 -9999 -9999 -9999 -9999 -9999 -9999 -9999 -9999 -9999 -9999 -9999 -9999 -9999 -9999 -9999 -9999 -9999 -9999 -9999 -9999 -9999 -9999 -9999 -9999 -9999 -9999 -9999 -9999 -9999 -9999 -9999 -9999 -9999 -9999 -9999 -9999 -9999 -9999 -9999 -9999 -9999 -9999 -9999 -9999 -9999 -9999 -9999 -9999 -9999 -9999 -9999 -9999 -9999 -9999 -9999 -9999 -9999 -9999 -9999 -9999 -9999 -9999 -9999 -9999 -9999 -9999 -9999 -9999 -9999 -9999 -9999 -9999 -9999 -9999 -9999 -9999 -9999 -9999 -9999 -9999 -9999 -9999 -9999 -9999 -9999 -9999
-9999 -9999 -9999 -9999 -9999 -9999 -9999 -9999 -9999 -9999 -9999 -9999 -9999 -9999 -9999 -9999 -9999 -9999 -9999 -9999 -9999 -9999 -9999 -9999 -9999 -9999 -9999 -9999 -9999 -9999 -9999 -9999 -9999 -9999 -9999 -9999 -9999 -9999 -9999 1185 1135 1179 1244 1146 1084 1119 1130 1208 1206 1246 1243 1279 1355 1264 1236 1276 1398 1372 1378 1325 1262 1224 1305 1377 1456 1452 1547 1532 1501 1558 1565 1591 1507 1575 1653 1720 1772 1605 1676 1637 1571 1508 1488 1361 1364 1537 1799 1952 2097 2048 1919 2059 2028 2106 2215 1948 1690 1642 1599 1413 1744 1611 1517 1438 1422 1452 1472 1453 1443 1457 1437 1427 1438 1428 1431 1456 1450 1464 1490 1503 1489 1493 1499 1499 1519 1571 1699 1777 1794 1972 2080 2178 2198 2248 2069 2302 2276 2017 1847 1785 1890 2044 2055 2190 2250 2358 2531 2627 2772 2913 3045 3095 3016 2892 2862 2848 2572 2765 2850 2755 2702 2820 2862 2754 2867 2730 2792 2820 3069 3048 3130 3211 3334 3521 3756 -9999 -9999 -9999 -9999 -9999 -9999 -9999 -9999 -9999 -9999 -9999 -9999 -9999 -9999 -9999 -9999 -9999 -9999 -9999 -9999 -9999 -9999 -9999 -9999 -9999 -9999 -9999 -9999 -9999 -9999 -9999 -9999 -9999 -9999 -9999 -9999 -9999 -9999 -9999 -9999 -9999 -9999 -9999 -9999 -9999 -9999 -9999 -9999 -9999 -9999 -9999 -9999 -9999 -9999 -9999 -9999 -9999 -9999 -9999 -9999 -9999 -9999 -9999 -9999 -9999 -9999 -9999 -9999 -9999 -9999 -9999 -9999 -9999 -9999 -9999 -9999 -9999 -9999 -9999 -9999 -9999 -9999 -9999 -9999 -9999 -9999 -9999 -9999 -9999 -9999 -9999 -9999 -9999 -9999 -9999 -9999 -9999 -9999 -9999 -9999 -9999 -9999 -9999 -9999 -9999 -9999 -9999 -9999 -9999 -9999 -9999 -9999 -9999 -9999 -9999 -9999 -9999 -9999 -9999 -9999 -9999 -9999 -9999 -9999 -9999 -9999 -9999 -9999 -9999 -9999 -9999 -9999 -9999
-9999 -9999 -9999 -9999 -9999 -9999 -9999 -9999 -9999 -9999 -9999 -9999 -9999 -9999 -9999 -9999 -9999 -9999 -9999 -9999 -9999 -9999 -9999 -9999 -9999 -9999 -9999 -9999 -9999 -9999 -9999 -9999 -9999 -9999 -9999 -9999 -9999 -9999 -9999 1190 1122 1164 1218 1148 1074 1117 1140 1216 1196 1213 1209 1261 1347 1276 1206 1292 1359 1357 1331 1299 1237 1247 1370 1418 1407 1468 1519 1499 1470 1550 1570 1544 1476 1556 1612 1749 1722 1496 1683 1643 1511 1416 1348 1394 1504 1665 1891 2002 2074 2037 1871 1920 2055 2108 2100 2034 1784 1690 1495 1426 1688 1443 1378 1383 1391 1388 1392 1389 1400 1410 1423 1437 1467 1525 1562 1645 1586 1515 1501 1501 1509 1523 1567 1617 1589 1547 1581 1647 1743 1783 1875 2001 2010 2077 2006 2151 2089 1835 1743 1923 1937 2207 2178 2297 2333 2388 2576 2765 2810 2950 3027 3101 2898 2869 2721 2806 2540 2745 2728 2633 2623 2719 2781 2729 2670 2720 2767 2855 3070 3134 3228 3325 3336 3467 3655 3665 3628 -9999 -9999 -9999 -9999 -9999 -9999 -9999 -9999 -9999 -9999 -9999 -9999 -9999 -9999 -9999 -9999 -9999 -9999 -9999 -9999 -9999 -9999 -9999 -9999 -9999 -9999 -9999 -9999 -9999 -9999 -9999 -9999 -9999 -9999 -9999 -9999 -9999 -9999 -9999 -9999 -9999 -9999 -9999 -9999 -9999 -9999 -9999 -9999 -9999 -9999 -9999 -9999 -9999 -9999 -9999 -9999 -9999 -9999 -9999 -9999 -9999 -9999 -9999 -9999 -9999 -9999 -9999 -9999 -9999 -9999 -9999 -9999 -9999 -9999 -9999 -9999 -9999 -9999 -9999 -9999 -9999 -9999 -9999 -9999 -9999 -9999 -9999 -9999 -9999 -9999 -9999 -9999 -9999 -9999 -9999 -9999 -9999 -9999 -9999 -9999 -9999 -9999 -9999 -9999 -9999 -9999 -9999 -9999 -9999 -9999 -9999 -9999 -9999 -9999 -9999 -9999 -9999 -9999 -9999 -9999 -9999 -9999 -9999 -9999 -9999 -9999 -9999 -9999 -9999 -9999 -9999
-9999 -9999 -9999 -9999 -9999 -9999 -9999 -9999 -9999 -9999 -9999 -9999 -9999 -9999 -9999 -9999 -9999 -9999 -9999 -9999 -9999 -9999 -9999 -9999 -9999 -9999 -9999 -9999 -9999 -9999 -9999 -9999 -9999 -9999 -9999 -9999 -9999 1297 1307 1259 1092 1099 1092 1082 1155 1198 1170 1184 1196 1212 1238 1293 1332 1221 1189 1276 1324 1303 1261 1232 1210 1300 1422 1408 1409 1445 1461 1414 1500 1492 1537 1485 1477 1567 1663 1734 1715 1423 1556 1560 1449 1394 1601 1737 1800 1845 1917 1958 1862 1828 1911 2046 1989 1850 1826 1753 1769 1667 1378 1434 1350 1389 1441 1585 1617 1588 1580 1628 1672 1564 1624 1725 1650 1710 1764 2006 1962 1901 1829 1808 1869 1768 1859 1978 1994 1890 1715 1604 1613 1605 1600 1633 1700 1792 1875 1787 1665 1803 2015 2174 2222 2332 2447 2546 2547 2577 2684 2894 3119 3063 2835 2836 2732 2735 2713 2552 2474 2443 2468 2579 2662 2649 2658 2812 2858 2927 2902 2978 3059 3236 3197 3103 3079 3206 3303 3362 3594 3504 3569 3510 3645 -9999 -9999 -9999 -9999 -9999 -9999 -9999 -9999 -9999 -9999 -9999 -9999 -9999 -9999 -9999 -9999 -9999 -9999 -9999 -9999 -9999 -9999 -9999 -9999 -9999 -9999 -9999 -9999 -9999 -9999 -9999 -9999 -9999 -9999 -9999 -9999 -9999 -9999 -9999 -9999 -9999 -9999 -9999 -9999 -9999 -9999 -9999 -9999 -9999 -9999 -9999 -9999 -9999 -9999 -9999 -9999 -9999 -9999 -9999 -9999 -9999 -9999 -9999 -9999 -9999 -9999 -9999 -9999 -9999 -9999 -9999 -9999 -9999 -9999 -9999 -9999 -9999 -9999 -9999 -9999 -9999 -9999 -9999 -9999 -9999 -9999 -9999 -9999 -9999 -9999 -9999 -9999 -9999 -9999 -9999 -9999 -9999 -9999 -9999 -9999 -9999 -9999 -9999 -9999 -9999 -9999 -9999 -9999 -9999 -9999 -9999 -9999 -9999 -9999 -9999 -9999 -9999 -9999 -9999 -9999 -9999 -9999 -9999 -9999 -9999 -9999 -9999
-9999 -9999 -9999 -9999 -9999 -9999 -9999 -9999 -9999 -9999 -9999 -9999 -9999 -9999 -9999 -9999 -9999 -9999 -9999 -9999 -9999 -9999 -9999 -9999 -9999 -9999 -9999 -9999 -9999 -9999 -9999 -9999 -9999 -9999 -9999 -9999 -9999 1298 1274 1159 1101 1046 1077 1139 1139 1177 1145 1132 1199 1255 1259 1289 1348 1213 1179 1286 1241 1306 1190 1181 1242 1397 1377 1329 1379 1420 1413 1374 1464 1460 1439 1404 1453 1533 1635 1640 1601 1493 1395 1308 1313 1467 1673 1813 1778 1876 1881 1897 1712 1811 2002 1803 1903 1900 1596 1666 1480 1443 1334 1356 1436 1624 1652 1858 1725 1828 1785 1757 1948 1670 1742 1808 1710 1838 1973 1959 2219 2254 2087 2166 1982 1880 2038 2141 2102 1816 1821 1908 1735 1831 1952 1869 1799 1765 1699 1628 1671 1954 2160 2364 2466 2625 2714 2765 2771 2839 2935 2973 2809 2767 2853 2751 2634 2520 2389 2367 2507 2786 2745 2789 2899 3071 3067 3150 3143 3140 3130 3242 3120 3100 2973 2887 3056 3250 3387 3520 3579 3375 3257 3315 3491 3650 -9999 -9999 -9999 -9999 -9999 -9999 -9999 -9999 -9999 -9999 -9999 -9999 -9999 -9999 -9999 -9999 -9999 -9999 -9999 -9999 -9999 -9999 -9999 -9999 -9999 -9999 -9999 -9999 -9999 -9999 -9999 -9999 -9999 -9999 -9999 -9999 -9999 -9999 -9999 -9999 -9999 -9999 -9999 -9999 -9999 -9999 -9999 -9999 -9999 -9999 -9999 -9999 -9999 -9999 -9999 -9999 -9999 -9999 -9999 -9999 -9999 -9999 -9999 -9999 -9999 -9999 -9999 -9999 -9999 -9999 -9999 -9999 -9999 -9999 -9999 -9999 -9999 -9999 -9999 -9999 -9999 -9999 -9999 -9999 -9999 -9999 -9999 -9999 -9999 -9999 -9999 -9999 -9999 -9999 -9999 -9999 -9999 -9999 -9999 -9999 -9999 -9999 -9999 -9999 -9999 -9999 -9999 -9999 -9999 -9999 -9999 -9999 -9999 -9999 -9999 -9999 -9999 -9999 -9999 -9999 -9999 -9999 -9999 -9999 -9999 -9999
-9999 -9999 -9999 -9999 -9999 -9999 -9999 -9999 -9999 -9999 -9999 -9999 -9999 -9999 -9999 -9999 -9999 -9999 -9999 -9999 -9999 -9999 -9999 -9999 -9999 -9999 -9999 -9999 -9999 -9999 -9999 -9999 -9999 -9999 -9999 -9999 1253 1275 1139 1105 1042 1023 1082 1141 1097 1113 1097 1134 1209 1206 1229 1308 1303 1216 1166 1207 1264 1247 1172 1205 1367 1373 1327 1294 1355 1382 1348 1414 1432 1385 1332 1355 1511 1528 1561 1507 1426 1341 1267 1468 1580 1706 1734 1775 1707 1764 1756 1795 1713 1842 1914 1673 1641 1784 1735 1447 1337 1324 1386 1550 1773 1651 1784 1973 1844 2034 2116 2114 2084 1970 1912 2094 1994 1821 1953 2175 2186 2336 2392 2297 1948 2077 2262 2252 1947 2057 2164 2186 1814 1895 2156 2279 2217 2066 2012 1889 1811 1730 1984 2130 2240 2480 2497 2492 2561 2608 2824 2932 2632 2483 2469 2400 2337 2262 2394 2568 2719 3004 3027 3072 3127 3146 3144 3178 3248 3090 3007 3026 2988 3073 2950 2759 2925 3074 3200 3252 3458 3266 3154 3260 3354 3541 -9999 -9999 -9999 -9999 -9999 -9999 -9999 -9999 -9999 -9999 -9999 -9999 -9999 -9999 -9999 -9999 -9999 -9999 -9999 -9999 -9999 -9999 -9999 -9999 -9999 -9999 -9999 -9999 -9999 -9999 -9999 -9999 -9999 -9999 -9999 -9999 -9999 -9999 -9999 -9999 -9999 -9999 -9999 -9999 -9999 -9999 -9999 -9999 -9999 -9999 -9999 -9999 -9999 -9999 -9999 -9999 -9999 -9999 -9999 -9999 -9999 -9999 -9999 -9999 -9999 -9999 -9999 -9999 -9999 -9999 -9999 -9999 -9999 -9999 -9999 -9999 -9999 -9999 -9999 -9999 -9999 -9999 -9999 -9999 -9999 -9999 -9999 -9999 -9999 -9999 -9999 -9999 -9999 -9999 -9999 -9999 -9999 -9999 -9999 -9999 -9999 -9999 -9999 -9999 -9999 -9999 -9999 -9999 -9999 -9999 -9999 -9999 -9999 -9999 -9999 -9999 -9999 -9999 -9999 -9999 -9999 -9999 -9999 -9999 -9999 -9999
-9999 -9999 -9999 -9999 -9999 -9999 -9999 -9999 -9999 -9999 -9999 -9999 -9999 -9999 -9999 -9999 -9999 -9999 -9999 -9999 -9999 -9999 -9999 -9999 -9999 -9999 -9999 -9999 -9999 -9999 -9999 -9999 -9999 -9999 -9999 -9999 1170 1099 1079 1034 1015 1050 1098 1051 1071 1106 1144 1186 1186 1256 1291 1283 1262 1202 1155 1250 1195 1152 1263 1330 1301 1325 1282 1329 1338 1357 1352 1374 1336 1287 1401 1482 1442 1513 1458 1375 1296 1286 1456 1626 1645 1648 1682 1764 1664 1628 1687 1616 1753 1747 1639 1597 1497 1577 1433 1311 1375 1433 1624 1860 1983 2011 1956 1951 2168 2119 2165 2422 2383 2309 2297 2376 2129 1949 2064 2226 2408 2526 2379 2290 2092 2300 2466 2353 2117 2155 2413 2307 1885 1985 2264 2450 2559 2394 2330 2217 2045 1745 1742 1939 2008 2252 2201 2191 2349 2429 2690 2754 2445 2335 2226 2174 2351 2441 2513 2758 2879 3025 3097 3050 3075 3138 3127 2970 3143 2974 2892 2740 2935 2766 2709 2647 2877 3049 2962 3103 3105 3024 3028 3090 3213 3332 3468 -9999 -9999 -9999 -9999 -9999 -9999 -9999 -9999 -9999 -9999 -9999 -9999 -9999 -9999 -9999 -9999 -9999 -9999 -9999 -9999 -9999 -9999 -9999 -9999 -9999 -9999 -9999 -9999 -9999 -9999 -9999 -9999 -9999 -9999 -9999 -9999 -9999 -9999 -9999 -9999 -9999 -9999 -9999 -9999 -9999 -9999 -9999 -9999 -9999 -9999 -9999 -9999 -9999 -9999 -9999 -9999 -9999 -9999 -9999 -9999 -9999 -9999 -9999 -9999 -9999 -9999 -9999 -9999 -9999 -9999 -9999 -9999 -9999 -9999 -9999 -9999 -9999 -9999 -9999 -9999 -9999 -9999 -9999 -9999 -9999 -9999 -9999 -9999 -9999 -9999 -9999 -9999 -9999 -9999 -9999 -9999 -9999 -9999 -9999 -9999 -9999 -9999 -9999 -9999 -9999 -9999 -9999 -9999 -9999 -9999 -9999 -9999 -9999 -9999 -9999 -9999 -9999 -9999 -9999 -9999 -9999 -9999 -9999 -9999 -9999
-9999 -9999 -9999 -9999 -9999 -9999 -9999 -9999 -9999 -9999 -9999 -9999 -9999 -9999 -9999 -9999 -9999 -9999 -9999 -9999 -9999 -9999 -9999 -9999 -9999 -9999 -9999 -9999 -9999 -9999 -9999 -9999 -9999 -9999 -9999 1178 1134 1066 1047 1010 1012 1035 1076 1045 1080 1111 1130 1165 1241 1290 1309 1245 1233 1194 1146 1234 1151 1160 1330 1310 1288 1284 1277 1306 1309 1337 1342 1328 1275 1305 1430 1473 1403 1484 1407 1301 1248 1337 1523 1597 1581 1574 1627 1705 1621 1564 1633 1575 1683 1617 1535 1438 1386 1485 1316 1393 1522 1608 1640 1787 2031 2225 2169 2098 2299 2320 2335 2484 2518 2486 2506 2500 2259 2032 2105 2333 2516 2635 2431 2343 2157 2379 2528 2474 2128 2215 2406 2292 1996 1932 2222 2397 2497 2620 2508 2330 2132 1950 1676 1797 1909 2060 2057 2156 2337 2442 2676 2624 2262 2195 2178 2255 2482 2626 2603 2856 2988 3105 3128 3021 3014 3182 3118 2925 3059 2940 2847 2659 2875 2735 2622 2697 2958 3003 2903 3040 2961 2920 3057 3145 3323 3451 3502 3510 -9999 -9999 -9999 -9999 -9999 -9999 -9999 -9999 -9999 -9999 -9999 -9999 -9999 -9999 -9999 -9999 -9999 -9999 -9999 -9999 -9999 -9999 -9999 -9999 -9999 -9999 -9999 -9999 -9999 -9999 -9999 -9999 -9999 -9999 -9999 -9999 -9999 -9999 -9999 -9999 -9999 -9999 -9999 -9999 -9999 -9999 -9999 -9999 -9999 -9999 -9999 -9999 -9999 -9999 -9999 -9999 -9999 -9999 -9999 -9999 -9999 -9999 -9999 -9999 -9999 -9999 -9999 -9999 -9999 -9999 -9999 -9999 -9999 -9999 -9999 -9999 -9999 -9999 -9999 -9999 -9999 -9999 -9999 -9999 -9999 -9999 -9999 -9999 -9999 -9999 -9999 -9999 -9999 -9999 -9999 -9999 -9999 -9999 -9999 -9999 -9999 -9999 -9999 -9999 -9999 -9999 -9999 -9999 -9999 -9999 -9999 -9999 -9999 -9999 -9999 -9999 -9999 -9999 -9999 -9999 -9999 -9999 -9999 -9999
-9999 -9999 -9999 -9999 -9999 -9999 -9999 -9999 -9999 -9999 -9999 -9999 -9999 -9999 -9999 -9999 -9999 -9999 -9999 -9999 -9999 -9999 -9999 -9999 -9999 -9999 -9999 -9999 -9999 -9999 -9999 -9999 -9999 -9999 1120 1048 1053 1040 993 1004 1045 1046 1046 1060 1055 1079 1094 1149 1233 1313 1341 1231 1170 1121 1123 1124 1147 1275 1264 1239 1215 1258 1263 1262 1274 1331 1335 1247 1309 1386 1363 1333 1347 1345 1279 1224 1269 1414 1417 1510 1488 1438 1577 1511 1478 1498 1485 1561 1536 1418 1325 1296 1328 1337 1434 1556 1819 1946 2014 2041 2104 2090 2138 2193 2335 2407 2463 2448 2607 2672 2693 2719 2473 2280 2286 2470 2669 2704 2409 2341 2361 2401 2466 2309 2240 2428 2443 2480 2382 2195 2084 2330 2464 2636 2497 2501 2399 1987 1843 1759 1697 1849 2065 2244 2378 2434 2391 2261 2008 1989 2166 2354 2664 2711 2974 3021 3152 3142 3110 2930 2906 3109 3006 2755 2843 2718 2594 2522 2559 2605 2510 2630 2830 2874 2797 2823 2798 2979 3205 3247 3178 3291 3310 3250 3362 3610 -9999 -9999 -9999 -9999 -9999 -9999 -9999 -9999 -9999 -9999 -9999 -9999 -9999 -9999 -9999 -9999 -9999 -9999 -9999 -9999 -9999 -9999 -9999 -9999 -9999 -9999 -9999 -9999 -9999 -9999 -9999 -9999 -9999 -9999 -9999 -9999 -9999 -9999 -9999 -9999 -9999 -9999 -9999 -9999 -9999 -9999 -9999 -9999 -9999 -9999 -9999 -9999 -9999 -9999 -9999 -9999 -9999 -9999 -9999 -9999 -9999 -9999 -9999 -9999 -9999 -9999 -9999 -9999 -9999 -9999 -9999 -9999 -9999 -9999 -9999 -9999 -9999 -9999 -9999 -9999 -9999 -9999 -9999 -9999 -9999 -9999 -9999 -9999 -9999 -9999 -9999 -9999 -9999 -9999 -9999 -9999 -9999 -9999 -9999 -9999 -9999 -9999 -9999 -9999 -9999 -9999 -9999 -9999 -9999 -9999 -9999 -9999 -9999 -9999 -9999 -9999 -9999 -9999 -9999 -9999 -9999 -9999
-9999 -9999 -9999 -9999 -9999 -9999 -9999 -9999 -9999 -9999 -9999 -9999 -9999 -9999 -9999 -9999 -9999 -9999 -9999 -9999 -9999 -9999 -9999 -9999 -9999 -9999 -9999 -9999 -9999 -9999 -9999 -9999 -9999 -9999 1028 1041 987 984 1040 1077 1051 1077 1109 1102 1088 1088 1109 1178 1220 1324 1311 1200 1095 1107 1134 1221 1261 1242 1182 1172 1206 1194 1236 1255 1307 1347 1273 1217 1297 1282 1272 1273 1273 1257 1207 1254 1281 1354 1322 1397 1398 1445 1455 1416 1444 1389 1439 1513 1287 1273 1305 1440 1484 1422 1586 1679 1680 1701 1691 1745 1778 1826 1855 1965 2061 2168 2191 2230 2360 2444 2498 2644 2807 2623 2547 2630 2802 2712 2617 2657 2464 2470 2378 2360 2531 2580 2501 2437 2248 2209 2228 2444 2564 2756 2707 2507 2340 2163 2144 2051 2053 1830 1795 1948 2062 2089 1925 1873 1977 2085 2279 2470 2693 2797 3052 3161 3068 2955 2967 2929 2752 2878 2873 2633 2554 2518 2434 2337 2391 2489 2562 2584 2515 2660 2657 2688 2808 2904 2940 2932 3123 3124 3092 3181 3318 3515 -9999 -9999 -9999 -9999 -9999 -9999 -9999 -9999 -9999 -9999 -9999 -9999 -9999 -9999 -9999 -9999 -9999 -9999 -9999 -9999 -9999 -9999 -9999 -9999 -9999 -9999 -9999 -9999 -9999 -9999 -9999 -9999 -9999 -9999 -9999 -9999 -9999 -9999 -9999 -9999 -9999 -9999 -9999 -9999 -9999 -9999 -9999 -9999 -9999 -9999 -9999 -9999 -9999 -9999 -9999 -9999 -9999 -9999 -9999 -9999 -9999 -9999 -9999 -9999 -9999 -9999 -9999 -9999 -9999 -9999 -9999 -9999 -9999 -9999 -9999 -9999 -9999 -9999 -9999 -9999 -9999 -9999 -9999 -9999 -9999 -9999 -9999 -9999 -9999 -9999 -9999 -9999 -9999 -9999 -9999 -9999 -9999 -9999 -9999 -9999 -9999 -9999 -9999 -9999 -9999 -9999 -9999 -9999 -9999 -9999 -9999 -9999 -9999 -9999 -9999 -9999 -9999 -9999 -9999 -9999 -9999 -9999
-9999 -9999 -9999 -9999 -9999 -9999 -9999 -9999 -9999 -9999 -9999 -9999 -9999 -9999 -9999 -9999 -9999 -9999 -9999 -9999 -9999 -9999 -9999 -9999 -9999 -9999 -9999 -9999 -9999 -9999 -9999 -9999 -9999 -9999 982 974 992 1010 1024 1050 1078 1085 1115 1131 1123 1101 1127 1186 1245 1246 1214 1086 1127 1171 1204 1213 1211 1153 1214 1233 1248 1236 1247 1263 1302 1333 1221 1193 1218 1225 1219 1215 1205 1192 1219 1240 1251 1261 1382 1330 1330 1422 1350 1392 1381 1352 1385 1277 1275 1305 1432 1441 1658 1754 1753 1746 1793 1900 1956 1917 2011 2121 2151 2080 2270 2352 2291 2477 2509 2491 2581 2740 2834 3003 2919 2874 3005 2899 2970 2866 2638 2690 2493 2584 2679 2721 2451 2331 2454 2367 2234 2412 2540 2717 2858 2720 2626 2518 2393 2528 2341 2129 2012 1828 1743 1783 1792 1942 2107 2198 2370 2609 2845 2960 3003 2796 2750 2829 2773 2662 2570 2670 2582 2378 2247 2404 2485 2571 2694 2795 2854 2892 2673 2642 2780 2896 2761 2739 2762 2791 2854 3048 3209 3315 3394 3608 -9999 -9999 -9999 -9999 -9999 -9999 -9999 -9999 -9999 -9999 -9999 -9999 -9999 -9999 -9999 -9999 -9999 -9999 -9999 -9999 -9999 -9999 -9999 -9999 -9999 -9999 -9999 -9999 -9999 -9999 -9999 -9999 -9999 -9999 -9999 -9999 -9999 -9999 -9999 -9999 -9999 -9999 -9999 -9999 -9999 -9999 -9999 -9999 -9999 -9999 -9999 -9999 -9999 -9999 -9999 -9999 -9999 -9999 -9999 -9999 -9999 -9999 -9999 -9999 -9999 -9999 -9999 -9999 -9999 -9999 -9999 -9999 -9999 -9999 -9999 -9999 -9999 -9999 -9999 -9999 -9999 -9999 -9999 -9999 -9999 -9999 -9999 -9999 -9999 -9999 -9999 -9999 -9999 -9999 -9999 -9999 -9999 -9999 -9999 -9999 -9999 -9999 -9999 -9999 -9999 -9999 -9999 -9999 -9999 -9999 -9999 -9999 -9999 -9999 -9999 -9999 -9999 -9999 -9999 -9999 -9999 -9999
-9999 -9999 -9999 -9999 -9999 -9999 -9999 -9999 -9999 -9999 -9999 -9999 -9999 -9999 -9999 -9999 -9999 -9999 -9999 -9999 -9999 -9999 -9999 -9999 -9999 -9999 -9999 -9999 -9999 -9999 -9999 -9999 -9999 -9999 970 976 984 990 1003 1028 1061 1083 1087 1128 1143 1128 1132 1194 1234 1237 1157 1077 1102 1145 1170 1180 1150 1195 1208 1213 1247 1245 1279 1291 1296 1287 1196 1187 1201 1197 1183 1184 1190 1186 1192 1211 1233 1267 1360 1309 1382 1378 1343 1358 1332 1335 1370 1259 1313 1389 1607 1534 1563 1693 1917 1990 2010 2038 2149 2021 2196 2202 2303 2249 2316 2445 2476 2533 2659 2593 2690 2825 2920 3089 3113 3040 3090 3059 3038 2890 2777 2799 2590 2694 2881 2809 2483 2441 2605 2501 2249 2419 2487 2680 2833 2696 2656 2595 2682 2613 2512 2360 2247 1955 1784 1760 1798 1963 2113 2228 2438 2600 2874 2987 2872 2728 2518 2596 2571 2531 2411 2485 2386 2236 2294 2401 2486 2682 2878 2965 3001 3016 2855 2733 2943 3048 2875 2854 2908 2927 2988 2965 3104 3243 3483 3709 -9999 -9999 -9999 -9999 -9999 -9999 -9999 -9999 -9999 -9999 -9999 -9999 -9999 -9999 -9999 -9999 -9999 -9999 -9999 -9999 -9999 -9999 -9999 -9999 -9999 -9999 -9999 -9999 -9999 -9999 -9999 -9999 -9999 -9999 -9999 -9999 -9999 -9999 -9999 -9999 -9999 -9999 -9999 -9999 -9999 -9999 -9999 -9999 -9999 -9999 -9999 -9999 -9999 -9999 -9999 -9999 -9999 -9999 -9999 -9999 -9999 -9999 -9999 -9999 -9999 -9999 -9999 -9999 -9999 -9999 -9999 -9999 -9999 -9999 -9999 -9999 -9999 -9999 -9999 -9999 -9999 -9999 -9999 -9999 -9999 -9999 -9999 -9999 -9999 -9999 -9999 -9999 -9999 -9999 -9999 -9999 -9999 -9999 -9999 -9999 -9999 -9999 -9999 -9999 -9999 -9999 -9999 -9999 -9999 -9999 -9999 -9999 -9999 -9999 -9999 -9999 -9999 -9999 -9999 -9999 -9999 -9999
-9999 -9999 -9999 -9999 -9999 -9999 -9999 -9999 -9999 -9999 -9999 -9999 -9999 -9999 -9999 -9999 -9999 -9999 -9999 -9999 -9999 -9999 -9999 -9999 -9999 -9999 -9999 -9999 -9999 -9999 -9999 -9999 -9999 955 966 971 975 978 983 1000 1035 1049 1066 1094 1100 1131 1156 1118 1116 1115 1065 1086 1197 1205 1188 1159 1153 1155 1167 1186 1206 1229 1253 1272 1224 1177 1166 1164 1165 1166 1166 1166 1171 1176 1181 1191 1198 1218 1252 1317 1326 1325 1300 1294 1277 1295 1247 1294 1459 1444 1638 1776 1764 1663 1794 1955 2016 2021 2273 2314 2330 2298 2307 2520 2481 2555 2604 2548 2619 2797 2870 3004 2894 2929 2968 2786 2840 2924 3090 3118 3080 2836 2850 2938 3083 2887 2602 2666 2877 2741 2389 2433 2571 2711 2879 2931 2869 2895 2831 2654 2440 2234 1949 1924 1983 1965 1914 1809 1973 2171 2409 2585 2625 2630 2531 2474 2210 2198 2202 2254 2210 2186 2275 2440 2678 2556 2447 2695 2876 2904 2989 3239 3035 2885 2940 3085 3139 3079 3102 3233 3227 3212 3161 3186 3245 3404 3604 -9999 -9999 -9999 -9999 -9999 -9999 -9999 -9999 -9999 -9999 -9999 -9999 -9999 -9999 -9999 -9999 -9999 -9999 -9999 -9999 -9999 -9999 -9999 -9999 -9999 -9999 -9999 -9999 -9999 -9999 -9999 -9999 -9999 -9999 -9999 -9999 -9999 -9999 -9999 -9999 -9999 -9999 -9999 -9999 -9999 -9999 -9999 -9999 -9999 -9999 -9999 -9999 -9999 -9999 -9999 -9999 -9999 -9999 -9999 -9999 -9999 -9999 -9999 -9999 -9999 -9999 -9999 -9999 -9999 -9999 -9999 -9999 -9999 -9999 -9999 -9999 -9999 -9999 -9999 -9999 -9999 -9999 -9999 -9999 -9999 -9999 -9999 -9999 -9999 -9999 -9999 -9999 -9999 -9999 -9999 -9999 -9999 -9999 -9999 -9999 -9999 -9999 -9999 -9999 -9999 -9999 -9999 -9999 -9999 -9999 -9999 -9999 -9999 -9999 -9999 -9999 -9999 -9999 -9999 -9999 -9999
-9999 -9999 -9999 -9999 -9999 -9999 -9999 -9999 -9999 -9999 -9999 -9999 -9999 -9999 -9999 -9999 -9999 -9999 -9999 -9999 -9999 -9999 -9999 -9999 -9999 -9999 -9999 -9999 -9999 -9999 -9999 -9999 949 952 957 962 968 971 978 986 997 1003 1019 1027 1023 1033 1034 1040 1056 1086 1094 1160 1149 1180 1188 1241 1214 1226 1186 1186 1202 1214 1247 1205 1147 1147 1144 1146 1151 1160 1169 1172 1181 1214 1243 1223 1200 1198 1203 1209 1212 1217 1224 1229 1232 1239 1354 1537 1633 1708 1585 1715 1934 1970 1882 1863 2090 2128 2206 2286 2334 2416 2416 2331 2280 2286 2344 2558 2730 2798 2818 2835 2667 2618 2720 2719 2570 2692 2882 3001 3231 3144 3121 3203 3072 2961 2847 2977 3051 2699 2478 2713 2726 2831 3046 2958 2836 2811 2729 2465 2303 2021 2191 2297 2174 2170 2145 2067 2179 2046 1883 2054 2189 2236 2320 2123 2046 2152 2196 2319 2367 2553 2698 2731 2841 2696 2622 2570 2717 2874 3030 3263 3141 2973 2926 2964 3179 3259 3266 3267 3383 3384 3432 3465 3513 3535 3749 -9999 -9999 -9999 -9999 -9999 -9999 -9999 -9999 -9999 -9999 -9999 -9999 -9999 -9999 -9999 -9999 -9999 -9999 -9999 -9999 -9999 -9999 -9999 -9999 -9999 -9999 -9999 -9999 -9999 -9999 -9999 -9999 -9999 -9999 -9999 -9999 -9999 -9999 -9999 -9999 -9999 -9999 -9999 -9999 -9999 -9999 -9999 -9999 -9999 -9999 -9999 -9999 -9999 -9999 -9999 -9999 -9999 -9999 -9999 -9999 -9999 -9999 -9999 -9999 -9999 -9999 -9999 -9999 -9999 -9999 -9999 -9999 -9999 -9999 -9999 -9999 -9999 -9999 -9999 -9999 -9999 -9999 -9999 -9999 -9999 -9999 -9999 -9999 -9999 -9999 -9999 -9999 -9999 -9999 -9999 -9999 -9999 -9999 -9999 -9999 -9999 -9999 -9999 -9999 -9999 -9999 -9999 -9999 -9999 -9999 -9999 -9999 -9999 -9999 -9999 -9999 -9999 -9999 -9999 -9999 -9999
-9999 -9999 -9999 -9999 -9999 -9999 -9999 -9999 -9999 -9999 -9999 -9999 -9999 -9999 -9999 -9999 -9999 -9999 -9999 -9999 -9999 -9999 -9999 -9999 -9999 -9999 929 929 933 936 940 944 949 952 956 962 968 972 978 984 991 995 1002 1009 1019 1075 1099 1148 1182 1208 1182 1185 1181 1180 1173 1189 1202 1207 1231 1248 1226 1268 1159 1137 1132 1135 1149 1155 1166 1171 1205 1250 1317 1300 1336 1409 1354 1222 1300 1229 1224 1230 1241 1250 1273 1383 1411 1503 1644 1678 1870 1849 1823 1879 1994 2067 2177 2187 2156 2242 2103 2133 2146 2148 2213 2373 2486 2674 2454 2502 2596 2519 2658 2380 2477 2601 2420 2538 2810 2894 2956 3168 3255 3315 3233 3230 3102 3191 2951 2697 2762 2977 3055 3091 3160 2797 2643 2550 2491 2235 2148 2218 2440 2639 2460 2404 2324 2199 2366 2481 2381 2014 1963 1984 2019 2161 2359 2413 2530 2544 2714 2641 2731 2866 3062 2858 2835 2679 2733 2905 3010 3244 3271 3146 3081 3044 3026 3122 3066 3087 3130 3212 3267 3284 3401 3490 3663 -9999 -9999 -9999 -9999 -9999 -9999 -9999 -9999 -9999 -9999 -9999 -9999 -9999 -9999 -9999 -9999 -9999 -9999 -9999 -9999 -9999 -9999 -9999 -9999 -9999 -9999 -9999 -9999 -9999 -9999 -9999 -9999 -9999 -9999 -9999 -9999 -9999 -9999 -9999 -9999 -9999 -9999 -9999 -9999 -9999 -9999 -9999 -9999 -9999 -9999 -9999 -9999 -9999 -9999 -9999 -9999 -9999 -9999 -9999 -9999 -9999 -9999 -9999 -9999 -9999 -9999 -9999 -9999 -9999 -9999 -9999 -9999 -9999 -9999 -9999 -9999 -9999 -9999 -9999 -9999 -9999 -9999 -9999 -9999 -9999 -9999 -9999 -9999 -9999 -9999 -9999 -9999 -9999 -9999 -9999 -9999 -9999 -9999 -9999 -9999 -9999 -9999 -9999 -9999 -9999 -9999 -9999 -9999 -9999 -9999 -9999 -9999 -9999 -9999 -9999 -9999 -9999 -9999 -9999 -9999 -9999
-9999 -9999 -9999 -9999 -9999 -9999 -9999 -9999 -9999 -9999 -9999 -9999 -9999 -9999 -9999 -9999 -9999 -9999 -9999 -9999 -9999 -9999 -9999 -9999 -9999 -9999 951 945 945 940 941 945 950 952 957 963 968 970 975 983 990 994 1001 1008 1021 1049 1062 1117 1166 1235 1216 1207 1189 1147 1149 1163 1175 1203 1229 1246 1262 1267 1134 1130 1131 1146 1169 1175 1188 1227 1274 1304 1353 1362 1384 1397 1426 1252 1301 1321 1283 1262 1295 1347 1381 1458 1573 1467 1527 1622 1802 1874 1987 2043 2134 2214 2116 2085 1997 2126 1980 2008 2044 2152 2273 2431 2495 2639 2399 2391 2501 2404 2626 2369 2320 2400 2319 2570 2838 2749 2938 2983 3087 3180 3296 3336 3255 3298 3068 2747 2819 2988 3137 3241 3024 2823 2654 2412 2308 2178 2157 2340 2530 2729 2643 2531 2394 2363 2402 2552 2608 2213 2075 2049 2111 2355 2584 2638 2728 2727 2843 2837 2909 2912 3165 3014 2989 2777 2731 2990 3077 3238 3332 3215 3112 3096 3042 3051 3085 3123 3237 3301 3378 3419 3426 3521 3649 3667 -9999 -9999 -9999 -9999 -9999 -9999 -9999 -9999 -9999 -9999 -9999 -9999 -9999 -9999 -9999 -9999 -9999 -9999 -9999 -9999 -9999 -9999 -9999 -9999 -9999 -9999 -9999 -9999 -9999 -9999 -9999 -9999 -9999 -9999 -9999 -9999 -9999 -9999 -9999 -9999 -9999 -9999 -9999 -9999 -9999 -9999 -9999 -9999 -9999 -9999 -9999 -9999 -9999 -9999 -9999 -9999 -9999 -9999 -9999 -9999 -9999 -9999 -9999 -9999 -9999 -9999 -9999 -9999 -9999 -9999 -9999 -9999 -9999 -9999 -9999 -9999 -9999 -9999 -9999 -9999 -9999 -9999 -9999 -9999 -9999 -9999 -9999 -9999 -9999 -9999 -9999 -9999 -9999 -9999 -9999 -9999 -9999 -9999 -9999 -9999 -9999 -9999 -9999 -9999 -9999 -9999 -9999 -9999 -9999 -9999 -9999 -9999 -9999 -9999 -9999 -9999 -9999 -9999 -9999 -9999
-9999 -9999 -9999 -9999 -9999 -9999 -9999 -9999 -9999 -9999 -9999 -9999 -9999 -9999 -9999 -9999 -9999 -9999 -9999 -9999 -9999 -9999 -9999 -9999 -9999 -9999 -9999 964 964 969 974 965 957 956 959 965 969 971 974 979 984 988 996 1011 1020 1033 1040 1073 1111 1209 1194 1186 1148 1180 1202 1195 1193 1218 1236 1245 1266 1212 1123 1120 1129 1168 1179 1187 1270 1289 1327 1360 1465 1485 1508 1463 1480 1390 1313 1266 1276 1325 1387 1420 1437 1422 1504 1613 1732 1737 1680 1837 1923 1946 2069 2030 1905 1897 1825 1900 2106 2250 2373 2522 2611 2523 2449 2381 2361 2159 2273 2227 2542 2311 2188 2188 2469 2703 2565 2492 2605 2775 2969 3053 3329 3497 3400 3266 3000 2993 3219 3059 3173 3312 3010 2609 2530 2521 2451 2228 2307 2528 2760 2891 2968 2857 2599 2518 2511 2540 2660 2589 2399 2322 1978 2159 2472 2703 2740 2814 2851 2845 2851 2971 3046 3200 3086 3016 2878 2920 2946 3209 3185 3021 3020 3123 3185 3199 3197 3165 3129 3018 3197 3208 3169 3343 3413 3433 3558 3466 3493 3477 3523 3719 -9999 -9999 -9999 -9999 -9999 -9999 -9999 -9999 -9999 -9999 -9999 -9999 -9999 -9999 -9999 -9999 -9999 -9999 -9999 -9999 -9999 -9999 -9999 -9999 -9999 -9999 -9999 -9999 -9999 -9999 -9999 -9999 -9999 -9999 -9999 -9999 -9999 -9999 -9999 -9999 -9999 -9999 -9999 -9999 -9999 -9999 -9999 -9999 -9999 -9999 -9999 -9999 -9999 -9999 -9999 -9999 -9999 -9999 -9999 -9999 -9999 -9999 -9999 -9999 -9999 -9999 -9999 -9999 -9999 -9999 -9999 -9999 -9999 -9999 -9999 -9999 -9999 -9999 -9999 -9999 -9999 -9999 -9999 -9999 -9999 -9999 -9999 -9999 -9999 -9999 -9999 -9999 -9999 -9999 -9999 -9999 -9999 -9999 -9999 -9999 -9999 -9999 -9999 -9999 -9999 -9999 -9999 -9999 -9999 -9999 -9999 -9999 -9999 -9999
-9999 -9999 -9999 -9999 -9999 -9999 -9999 -9999 -9999 -9999 -9999 -9999 -9999 -9999 -9999 -9999 -9999 -9999 -9999 -9999 -9999 -9999 -9999 -9999 -9999 -9999 -9999 -9999 977 980 981 985 985 988 976 968 972 974 979 984 988 992 998 1010 1024 1033 1038 1052 1087 1169 1162 1158 1141 1188 1194 1204 1245 1232 1245 1276 1316 1135 1113 1116 1148 1169 1207 1229 1289 1321 1391 1378 1384 1440 1463 1559 1548 1552 1560 1427 1404 1317 1295 1314 1334 1387 1512 1570 1587 1614 1743 1858 1948 1959 1959 1791 1736 1822 1895 2164 2328 2378 2429 2406 2493 2389 2422 2276 2241 2096 2025 2244 2298 2100 2095 2418 2565 2452 2365 2550 2860 3048 3165 3234 3394 3509 3482 3328 3089 3061 3301 3250 3366 3317 2987 2881 2916 2683 2519 2285 2367 2584 2738 2866 2986 3060 2872 2686 2619 2658 2718 2613 2570 2473 2270 2013 2153 2443 2649 2734 2662 2720 2803 2995 3077 3009 3042 3180 3100 3150 3254 3217 2923 2840 2802 2839 2946 2978 2938 2970 3081 2871 2962 2924 3110 3099 3225 3443 3497 3260 3218 3344 3472 3567 3832 -9999 -9999 -9999 -9999 -9999 -9999 -9999 -9999 -9999 -9999 -9999 -9999 -9999 -9999 -9999 -9999 -9999 -9999 -9999 -9999 -9999 -9999 -9999 -9999 -9999 -9999 -9999 -9999 -9999 -9999 -9999 -9999 -9999 -9999 -9999 -9999 -9999 -9999 -9999 -9999 -9999 -9999 -9999 -9999 -9999 -9999 -9999 -9999 -9999 -9999 -9999 -9999 -9999 -9999 -9999 -9999 -9999 -9999 -9999 -9999 -9999 -9999 -9999 -9999 -9999 -9999 -9999 -9999 -9999 -9999 -9999 -9999 -9999 -9999 -9999 -9999 -9999 -9999 -9999 -9999 -9999 -9999 -9999 -9999 -9999 -9999 -9999 -9999 -9999 -9999 -9999 -9999 -9999 -9999 -9999 -9999 -9999 -9999 -9999 -9999 -9999 -9999 -9999 -9999 -9999 -9999 -9999 -9999 -9999 -9999 -9999 -9999 -9999
-9999 -9999 -9999 -9999 -9999 -9999 -9999 -9999 -9999 -9999 -9999 -9999 -9999 -9999 -9999 -9999 -9999 -9999 -9999 -9999 -9999 -9999 -9999 -9999 -9999 -9999 -9999 -9999 -9999 991 992 996 996 999 1002 1003 983 983 983 986 993 993 998 1004 1016 1036 1042 1051 1065 1086 1103 1092 1137 1142 1157 1188 1219 1244 1300 1292 1191 1108 1113 1129 1154 1185 1237 1257 1332 1397 1462 1516 1501 1610 1609 1638 1685 1706 1690 1661 1627 1515 1519 1472 1413 1387 1349 1408 1535 1532 1568 1705 1769 1707 1720 1746 1971 2058 2188 2147 2273 2196 2261 2140 2368 2150 2197 2212 2093 1927 2064 2159 2146 2022 2220 2305 2279 2183 2393 2451 2655 2974 3197 3106 3107 3223 3418 3518 3339 3211 3343 3423 3431 3312 3142 3096 3083 2756 2452 2546 2472 2572 2684 2814 2930 3005 3008 2852 2744 2867 2769 2614 2565 2564 2601 2337 2030 2349 2417 2526 2798 2813 2767 2851 2769 2763 2813 3052 2959 2971 3094 3074 2952 2855 2690 2732 2841 2877 2841 2966 2942 2848 2894 2915 3042 3293 3335 3279 3192 3134 3088 3208 3294 3477 3802 -9999 -9999 -9999 -9999 -9999 -9999 -9999 -9999 -9999 -9999 -9999 -9999 -9999 -9999 -9999 -9999 -9999 -9999 -9999 -9999 -9999 -9999 -9999 -9999 -9999 -9999 -9999 -9999 -9999 -9999 -9999 -9999 -9999 -9999 -9999 -9999 -9999 -9999 -9999 -9999 -9999 -9999 -9999 -9999 -9999 -9999 -9999 -9999 -9999 -9999 -9999 -9999 -9999 -9999 -9999 -9999 -9999 -9999 -9999 -9999 -9999 -9999 -9999 -9999 -9999 -9999 -9999 -9999 -9999 -9999 -9999 -9999 -9999 -9999 -9999 -9999 -9999 -9999 -9999 -9999 -9999 -9999 -9999 -9999 -9999 -9999 -9999 -9999 -9999 -9999 -9999 -9999 -9999 -9999 -9999 -9999 -9999 -9999 -9999 -9999 -9999 -9999 -9999 -9999 -9999 -9999 -9999 -9999 -9999 -9999 -9999 -9999 -9999
-9999 -9999 -9999 -9999 -9999 -9999 -9999 -9999 -9999 -9999 -9999 -9999 -9999 -9999 -9999 -9999 -9999 -9999 -9999 -9999 -9999 -9999 -9999 -9999 -9999 -9999 -9999 -9999 -9999 -9999 1001 1005 1009 1011 1015 1016 1013 1014 1016 998 993 995 1001 1006 1011 1021 1024 1036 1050 1056 1056 1096 1113 1141 1150 1169 1191 1223 1159 1112 1098 1101 1129 1149 1157 1209 1281 1238 1360 1529 1530 1557 1563 1645 1712 1703 1746 1640 1665 1724 1787 1651 1562 1517 1580 1541 1491 1366 1444 1494 1553 1610 1535 1570 1801 1874 2034 2099 2207 2064 1985 1938 1992 2121 2187 1977 1970 2019 1903 1849 1887 1872 1936 1990 2030 2114 2205 2489 2519 2519 2764 3014 3006 2866 3011 3242 3473 3467 3274 3333 3390 3329 3411 3425 3390 3213 3037 2727 2737 2885 2899 2717 2803 2839 2968 3050 3192 3004 2829 2773 2753 2698 2659 2613 2594 2488 2139 2184 2328 2648 2635 2743 2882 2872 2640 2698 2751 2840 2705 2887 2994 2854 2695 2738 2630 2678 2842 2726 2875 2994 2842 2696 2898 2973 3186 3257 3114 3077 2994 2938 3151 3212 3333 3569 3845 -9999 -9999 -9999 -9999 -9999 -9999 -9999 -9999 -9999 -9999 -9999 -9999 -9999 -9999 -9999 -9999 -9999 -9999 -9999 -9999 -9999 -9999 -9999 -9999 -9999 -9999 -9999 -9999 -9999 -9999 -9999 -9999 -9999 -9999 -9999 -9999 -9999 -9999 -9999 -9999 -9999 -9999 -9999 -9999 -9999 -9999 -9999 -9999 -9999 -9999 -9999 -9999 -9999 -9999 -9999 -9999 -9999 -9999 -9999 -9999 -9999 -9999 -9999 -9999 -9999 -9999 -9999 -9999 -9999 -9999 -9999 -9999 -9999 -9999 -9999 -9999 -9999 -9999 -9999 -9999 -9999 -9999 -9999 -9999 -9999 -9999 -9999 -9999 -9999 -9999 -9999 -9999 -9999 -9999 -9999 -9999 -9999 -9999 -9999 -9999 -9999 -9999 -9999 -9999 -9999 -9999 -9999 -9999 -9999 -9999 -9999 -9999 -9999
-9999 -9999 -9999 -9999 -9999 -9999 -9999 -9999 -9999 -9999 -9999 -9999 -9999 -9999 -9999 -9999 -9999 -9999 -9999 -9999 -9999 -9999 -9999 -9999 -9999 -9999 -9999 -9999 -9999 -9999 -9999 1012 1016 1019 1020 1023 1022 1016 1023 1025 1005 1001 1002 1006 1013 1019 1025 1031 1040 1050 1053 1064 1104 1126 1118 1116 1114 1118 1096 1093 1094 1110 1131 1138 1159 1200 1300 1296 1345 1521 1517 1519 1523 1629 1673 1662 1715 1625 1677 1751 1817 1692 1539 1569 1657 1557 1553 1446 1393 1432 1506 1501 1601 1672 1861 2032 2131 2152 2198 2041 1852 1838 1923 2036 2103 1992 1856 1846 1867 1903 1959 1993 2067 2156 2251 2232 2322 2466 2664 2734 2867 2842 2856 2822 3104 3257 3489 3389 3116 3198 3201 3207 3242 3399 3481 3156 3005 2785 2858 3052 3084 2821 2975 2892 3065 3151 3239 3047 2827 2855 2957 2790 2745 2692 2696 2581 2328 2092 2189 2369 2471 2796 2780 2738 2590 2824 2789 2645 2638 2744 2865 2839 2626 2656 2606 2661 2916 2700 2881 2923 2820 2702 2898 2967 3166 3166 3017 2914 2879 3001 3183 3367 3343 3492 3784 3896 -9999 -9999 -9999 -9999 -9999 -9999 -9999 -9999 -9999 -9999 -9999 -9999 -9999 -9999 -9999 -9999 -9999 -9999 -9999 -9999 -9999 -9999 -9999 -9999 -9999 -9999 -9999 -9999 -9999 -9999 -9999 -9999 -9999 -9999 -9999 -9999 -9999 -9999 -9999 -9999 -9999 -9999 -9999 -9999 -9999 -9999 -9999 -9999 -9999 -9999 -9999 -9999 -9999 -9999 -9999 -9999 -9999 -9999 -9999 -9999 -9999 -9999 -9999 -9999 -9999 -9999 -9999 -9999 -9999 -9999 -9999 -9999 -9999 -9999 -9999 -9999 -9999 -9999 -9999 -9999 -9999 -9999 -9999 -9999 -9999 -9999 -9999 -9999 -9999 -9999 -9999 -9999 -9999 -9999 -9999 -9999 -9999 -9999 -9999 -9999 -9999 -9999 -9999 -9999 -9999 -9999 -9999 -9999 -9999 -9999 -9999 -9999
-9999 -9999 -9999 -9999 -9999 -9999 -9999 -9999 -9999 -9999 -9999 -9999 -9999 -9999 -9999 -9999 -9999 -9999 -9999 -9999 -9999 -9999 -9999 -9999 -9999 -9999 -9999 -9999 -9999 -9999 -9999 -9999 -9999 -9999 1016 1003 1012 1021 1028 1039 1038 1041 1022 1015 1015 1021 1024 1027 1036 1042 1045 1051 1059 1064 1066 1072 1076 1078 1083 1084 1094 1104 1132 1145 1217 1268 1267 1256 1297 1475 1401 1433 1518 1527 1578 1625 1629 1636 1685 1777 1841 1694 1615 1620 1679 1654 1697 1588 1467 1416 1475 1539 1695 1771 1923 2010 2082 2034 1899 1860 1753 1702 1683 1718 1748 1743 1812 1882 2068 2312 2347 2437 2211 2137 2265 2440 2534 2707 2800 2859 2883 2699 2813 2905 3184 3419 3355 3194 3049 2967 3000 2950 3048 3194 3428 3385 3235 2934 3000 3221 3309 3093 3228 3019 3198 3301 3270 3114 3059 3082 3062 3045 2896 2856 2539 2289 2420 2383 2324 2192 2229 2393 2489 2460 2707 2834 2698 2473 2476 2561 2602 2654 2509 2591 2664 2540 2762 2615 2831 2669 2614 2879 2993 3089 3083 2944 2842 2891 3032 3179 3356 3487 3498 3410 3427 3557 3710 -9999 -9999 -9999 -9999 -9999 -9999 -9999 -9999 -9999 -9999 -9999 -9999 -9999 -9999 -9999 -9999 -9999 -9999 -9999 -9999 -9999 -9999 -9999 -9999 -9999 -9999 -9999 -9999 -9999 -9999 -9999 -9999 -9999 -9999 -9999 -9999 -9999 -9999 -9999 -9999 -9999 -9999 -9999 -9999 -9999 -9999 -9999 -9999 -9999 -9999 -9999 -9999 -9999 -9999 -9999 -9999 -9999 -9999 -9999 -9999 -9999 -9999 -9999 -9999 -9999 -9999 -9999 -9999 -9999 -9999 -9999 -9999 -9999 -9999 -9999 -9999 -9999 -9999 -9999 -9999 -9999 -9999 -9999 -9999 -9999 -9999 -9999 -9999 -9999 -9999 -9999 -9999 -9999 -9999 -9999 -9999 -9999 -9999 -9999 -9999 -9999 -9999 -9999 -9999 -9999 -9999 -9999 -9999 -9999 -9999 -9999
-9999 -9999 -9999 -9999 -9999 -9999 -9999 -9999 -9999 -9999 -9999 -9999 -9999 -9999 -9999 -9999 -9999 -9999 -9999 -9999 -9999 -9999 -9999 -9999 -9999 -9999 -9999 -9999 -9999 -9999 -9999 -9999 976 980 980 985 992 996 1003 1005 1017 1033 1058 1058 1028 1023 1026 1030 1034 1038 1041 1046 1050 1057 1059 1064 1070 1078 1083 1088 1094 1111 1151 1171 1257 1275 1330 1343 1330 1409 1534 1485 1486 1571 1664 1641 1633 1690 1756 1837 1897 1888 1763 1762 1842 1793 1868 1777 1658 1597 1466 1472 1574 1646 1714 1783 1967 1904 1715 1664 1656 1751 1812 1900 1893 2089 2195 2247 2314 2345 2510 2569 2411 2237 2274 2416 2605 2790 2709 2623 2634 2663 2952 3049 3141 3025 3158 3087 2843 2837 2737 2992 3039 3167 3402 3513 3318 3185 3352 3380 3486 3406 3423 3258 3452 3446 3182 3111 2873 2812 2959 2724 2599 2582 2427 2593 2677 2546 2547 2430 2369 2355 2267 2382 2597 2624 2620 2468 2365 2350 2358 2370 2369 2411 2428 2437 2457 2532 2642 2568 2614 2741 2917 3011 2981 2796 2863 2983 3105 3153 3343 3255 3210 3196 3214 3416 3545 3764 -9999 -9999 -9999 -9999 -9999 -9999 -9999 -9999 -9999 -9999 -9999 -9999 -9999 -9999 -9999 -9999 -9999 -9999 -9999 -9999 -9999 -9999 -9999 -9999 -9999 -9999 -9999 -9999 -9999 -9999 -9999 -9999 -9999 -9999 -9999 -9999 -9999 -9999 -9999 -9999 -9999 -9999 -9999 -9999 -9999 -9999 -9999 -9999 -9999 -9999 -9999 -9999 -9999 -9999 -9999 -9999 -9999 -9999 -9999 -9999 -9999 -9999 -9999 -9999 -9999 -9999 -9999 -9999 -9999 -9999 -9999 -9999 -9999 -9999 -9999 -9999 -9999 -9999 -9999 -9999 -9999 -9999 -9999 -9999 -9999 -9999 -9999 -9999 -9999 -9999 -9999 -9999 -9999 -9999 -9999 -9999 -9999 -9999 -9999 -9999 -9999 -9999 -9999 -9999 -9999 -9999 -9999 -9999 -9999 -9999
-9999 -9999 -9999 -9999 -9999 -9999 -9999 -9999 -9999 -9999 -9999 -9999 -9999 -9999 -9999 -9999 -9999 -9999 -9999 -9999 -9999 -9999 -9999 -9999 -9999 -9999 -9999 -9999 -9999 -9999 -9999 -9999 979 981 982 988 991 994 999 1004 1011 1013 1019 1039 1069 1054 1040 1037 1038 1040 1042 1048 1054 1059 1062 1067 1074 1082 1091 1095 1108 1214 1275 1237 1276 1239 1304 1352 1364 1471 1432 1495 1571 1595 1604 1641 1711 1798 1773 1808 1861 1970 1996 1940 1964 1952 1935 1906 1835 1762 1634 1533 1475 1472 1522 1561 1592 1581 1612 1733 1993 2018 2002 1883 2073 2323 2419 2576 2677 2644 2685 2778 2566 2523 2514 2466 2551 2545 2535 2451 2600 2826 2821 2951 2899 2836 2909 2708 2673 2669 2891 3139 3281 3298 3470 3692 3612 3380 3524 3689 3704 3592 3502 3351 3277 3262 3113 2887 2821 2720 2629 2614 2658 2650 2723 2915 2927 2791 2689 2507 2518 2462 2326 2308 2294 2302 2300 2397 2480 2421 2437 2611 2496 2523 2766 2809 2653 2695 2630 2570 2554 2570 2691 2770 2696 2850 3074 3145 3231 3364 3148 3100 3014 2994 3111 3374 3494 3730 3906 3866 3857 3908 -9999 -9999 -9999 -9999 -9999 -9999 -9999 -9999 -9999 -9999 -9999 -9999 -9999 -9999 -9999 -9999 -9999 -9999 -9999 -9999 -9999 -9999 -9999 -9999 -9999 -9999 -9999 -9999 -9999 -9999 -9999 -9999 -9999 -9999 -9999 -9999 -9999 -9999 -9999 -9999 -9999 -9999 -9999 -9999 -9999 -9999 -9999 -9999 -9999 -9999 -9999 -9999 -9999 -9999 -9999 -9999 -9999 -9999 -9999 -9999 -9999 -9999 -9999 -9999 -9999 -9999 -9999 -9999 -9999 -9999 -9999 -9999 -9999 -9999 -9999 -9999 -9999 -9999 -9999 -9999 -9999 -9999 -9999 -9999 -9999 -9999 -9999 -9999 -9999 -9999 -9999 -9999 -9999 -9999 -9999 -9999 -9999 -9999 -9999 -9999 -9999 -9999 -9999 -9999 -9999 -9999
-9999 -9999 -9999 -9999 -9999 -9999 -9999 -9999 -9999 -9999 -9999 -9999 -9999 -9999 -9999 -9999 -9999 -9999 -9999 -9999 -9999 -9999 -9999 -9999 -9999 -9999 -9999 -9999 -9999 -9999 -9999 -9999 -9999 -9999 986 989 994 995 1002 1005 1011 1015 1020 1025 1051 1065 1067 1051 1043 1042 1043 1049 1054 1059 1062 1070 1075 1080 1099 1136 1137 1187 1252 1283 1267 1274 1281 1335 1392 1374 1384 1449 1502 1544 1543 1649 1712 1740 1751 1828 1868 1978 1968 1952 1935 1886 1853 1867 1882 1845 1708 1599 1582 1556 1518 1527 1575 1632 1826 1797 2045 2229 2163 1988 2012 2287 2446 2592 2721 2794 2710 2773 2677 2661 2616 2539 2460 2491 2449 2356 2594 2644 2790 2949 2852 2693 2806 2632 2511 2725 2997 3136 3267 3404 3540 3666 3660 3516 3582 3699 3588 3400 3304 3217 3150 3075 2990 2784 2721 2686 2825 2698 2781 2800 2887 3073 2978 2775 2680 2543 2687 2533 2455 2338 2363 2326 2399 2466 2592 2475 2465 2595 2555 2521 2713 2864 2805 2899 2664 2670 2682 2648 2628 2616 2774 2950 3221 3291 3324 3252 3138 2982 2956 3102 3206 3307 3437 3765 3687 3670 3767 3856 4001 -9999 -9999 -9999 -9999 -9999 -9999 -9999 -9999 -9999 -9999 -9999 -9999 -9999 -9999 -9999 -9999 -9999 -9999 -9999 -9999 -9999 -9999 -9999 -9999 -9999 -9999 -9999 -9999 -9999 -9999 -9999 -9999 -9999 -9999 -9999 -9999 -9999 -9999 -9999 -9999 -9999 -9999 -9999 -9999 -9999 -9999 -9999 -9999 -9999 -9999 -9999 -9999 -9999 -9999 -9999 -9999 -9999 -9999 -9999 -9999 -9999 -9999 -9999 -9999 -9999 -9999 -9999 -9999 -9999 -9999 -9999 -9999 -9999 -9999 -9999 -9999 -9999 -9999 -9999 -9999 -9999 -9999 -9999 -9999 -9999 -9999 -9999 -9999 -9999 -9999 -9999 -9999 -9999 -9999 -9999 -9999 -9999 -9999 -9999 -9999 -9999 -9999 -9999 -9999 -9999
-9999 -9999 -9999 -9999 -9999 -9999 -9999 -9999 -9999 -9999 -9999 -9999 -9999 -9999 -9999 -9999 -9999 -9999 -9999 -9999 -9999 -9999 -9999 -9999 -9999 -9999 -9999 -9999 -9999 -9999 -9999 -9999 -9999 -9999 1048 997 997 1000 1005 1011 1014 1016 1023 1027 1031 1039 1058 1075 1063 1063 1062 1068 1073 1076 1088 1091 1133 1147 1163 1198 1247 1172 1195 1249 1288 1332 1336 1332 1386 1458 1442 1424 1430 1473 1521 1625 1604 1719 1777 1862 1878 1847 1837 1829 1787 1769 1733 1789 1802 1806 1883 1756 1711 1671 1585 1616 1790 1870 2102 2199 2268 2368 2408 2245 2153 2192 2329 2508 2501 2560 2511 2574 2725 2909 2868 2649 2475 2367 2297 2429 2470 2510 2628 2761 2674 2488 2452 2389 2588 2826 3127 3426 3476 3636 3762 3567 3427 3483 3604 3669 3520 3287 3168 3091 3017 3047 2985 2872 2844 2954 2975 2942 3046 3102 3086 3167 3035 2754 2802 2795 2854 2629 2533 2497 2747 2575 2529 2840 2796 2606 2642 2649 2760 2657 2647 2810 3008 3099 2875 2867 2946 2866 2804 2787 2771 3003 3036 3156 3039 3084 2990 2987 3146 3384 3510 3653 3670 3654 3415 3446 3647 3700 3960 4319 4336 4353 -9999 -9999 -9999 -9999 -9999 -9999 -9999 -9999 -9999 -9999 -9999 -9999 -9999 -9999 -9999 -9999 -9999 -9999 -9999 -9999 -9999 -9999 -9999 -9999 -9999 -9999 -9999 -9999 -9999 -9999 -9999 -9999 -9999 -9999 -9999 -9999 -9999 -9999 -9999 -9999 -9999 -9999 -9999 -9999 -9999 -9999 -9999 -9999 -9999 -9999 -9999 -9999 -9999 -9999 -9999 -9999 -9999 -9999 -9999 -9999 -9999 -9999 -9999 -9999 -9999 -9999 -9999 -9999 -9999 -9999 -9999 -9999 -9999 -9999 -9999 -9999 -9999 -9999 -9999 -9999 -9999 -9999 -9999 -9999 -9999 -9999 -9999 -9999 -9999 -9999 -9999 -9999 -9999 -9999 -9999 -9999 -9999 -9999 -9999 -9999 -9999 -9999
-9999 -9999 -9999 -9999 -9999 -9999 -9999 -9999 -9999 -9999 -9999 -9999 -9999 -9999 -9999 -9999 -9999 -9999 -9999 -9999 -9999 -9999 -9999 -9999 -9999 -9999 -9999 -9999 -9999 -9999 -9999 -9999 -9999 -9999 1162 1119 1096 1072 1007 1015 1019 1021 1024 1030 1037 1037 1039 1065 1074 1072 1081 1085 1091 1086 1090 1103 1138 1192 1173 1169 1206 1235 1170 1179 1265 1306 1355 1396 1391 1436 1503 1468 1426 1433 1576 1639 1675 1700 1747 1810 1766 1784 1764 1694 1669 1663 1674 1728 1755 1782 1852 1936 1840 1750 1722 1631 1733 1828 2010 2070 2297 2369 2440 2473 2495 2365 2261 2276 2294 2414 2363 2429 2595 2760 2897 2702 2577 2391 2248 2296 2286 2369 2568 2584 2426 2292 2387 2560 2867 3153 3345 3312 3361 3688 3527 3381 3198 3343 3451 3595 3580 3476 3530 3439 3339 3345 3090 2979 2971 3016 3211 3168 3156 3254 3351 3135 2950 2958 3068 3190 2988 2699 2577 2666 2980 2961 2952 3084 2932 2849 2915 2974 2842 2712 2760 2813 2912 3132 3221 3218 3245 3101 3113 3028 2917 2838 2868 2963 2846 2836 2880 3155 3272 3404 3397 3624 3678 3397 3252 3495 3627 3670 3802 4066 4189 4341 -9999 -9999 -9999 -9999 -9999 -9999 -9999 -9999 -9999 -9999 -9999 -9999 -9999 -9999 -9999 -9999 -9999 -9999 -9999 -9999 -9999 -9999 -9999 -9999 -9999 -9999 -9999 -9999 -9999 -9999 -9999 -9999 -9999 -9999 -9999 -9999 -9999 -9999 -9999 -9999 -9999 -9999 -9999 -9999 -9999 -9999 -9999 -9999 -9999 -9999 -9999 -9999 -9999 -9999 -9999 -9999 -9999 -9999 -9999 -9999 -9999 -9999 -9999 -9999 -9999 -9999 -9999 -9999 -9999 -9999 -9999 -9999 -9999 -9999 -9999 -9999 -9999 -9999 -9999 -9999 -9999 -9999 -9999 -9999 -9999 -9999 -9999 -9999 -9999 -9999 -9999 -9999 -9999 -9999 -9999 -9999 -9999 -9999 -9999 -9999 -9999 -9999
-9999 -9999 -9999 -9999 -9999 -9999 -9999 -9999 -9999 -9999 -9999 -9999 -9999 -9999 -9999 -9999 -9999 -9999 -9999 -9999 -9999 -9999 -9999 -9999 -9999 -9999 -9999 -9999 -9999 -9999 -9999 -9999 -9999 -9999 1200 1144 1115 1115 1079 1018 1021 1023 1029 1033 1036 1044 1044 1047 1083 1085 1090 1097 1105 1107 1102 1119 1126 1178 1207 1222 1199 1246 1280 1192 1261 1333 1393 1407 1442 1476 1499 1438 1343 1481 1594 1653 1654 1686 1656 1720 1763 1635 1612 1579 1612 1652 1666 1713 1778 1813 1920 1895 1934 1925 1788 1784 1698 1723 1818 1983 2214 2175 2257 2436 2511 2283 2226 2124 2174 2385 2484 2611 2728 2941 3002 2968 2762 2497 2368 2306 2176 2296 2318 2317 2179 2332 2672 2790 3005 3023 3022 3190 3339 3445 3224 3019 2942 3145 3392 3298 3234 3214 3380 3583 3521 3382 3351 3232 3226 3220 3500 3457 3407 3448 3337 3244 3190 3164 3104 2972 2879 2668 2634 2747 2851 3157 3194 3421 3264 3073 3098 3233 2976 2939 3005 2980 3046 3222 3122 3079 3054 2925 2823 2791 2767 2726 2709 2773 2787 2744 2979 3138 3201 3164 3362 3558 3433 3215 3286 3475 3776 3957 4022 4176 4353 4435 -9999 -9999 -9999 -9999 -9999 -9999 -9999 -9999 -9999 -9999 -9999 -9999 -9999 -9999 -9999 -9999 -9999 -9999 -9999 -9999 -9999 -9999 -9999 -9999 -9999 -9999 -9999 -9999 -9999 -9999 -9999 -9999 -9999 -9999 -9999 -9999 -9999 -9999 -9999 -9999 -9999 -9999 -9999 -9999 -9999 -9999 -9999 -9999 -9999 -9999 -9999 -9999 -9999 -9999 -9999 -9999 -9999 -9999 -9999 -9999 -9999 -9999 -9999 -9999 -9999 -9999 -9999 -9999 -9999 -9999 -9999 -9999 -9999 -9999 -9999 -9999 -9999 -9999 -9999 -9999 -9999 -9999 -9999 -9999 -9999 -9999 -9999 -9999 -9999 -9999 -9999 -9999 -9999 -9999 -9999 -9999 -9999 -9999 -9999 -9999 -9999 -9999
-9999 -9999 -9999 -9999 -9999 -9999 -9999 -9999 -9999 -9999 -9999 -9999 -9999 -9999 -9999 -9999 -9999 -9999 -9999 -9999 -9999 -9999 -9999 -9999 -9999 -9999 -9999 -9999 -9999 -9999 -9999 -9999 -9999 -9999 -9999 1156 1148 1135 1131 1025 1024 1026 1029 1035 1039 1047 1048 1049 1069 1089 1092 1104 1109 1116 1110 1126 1151 1163 1198 1225 1211 1250 1286 1265 1209 1326 1388 1409 1436 1476 1481 1381 1337 1504 1615 1625 1611 1625 1665 1728 1666 1606 1544 1581 1599 1616 1663 1717 1805 1879 1970 1891 1918 1955 1880 1868 1745 1774 1798 1932 2072 2113 2268 2308 2361 2272 2162 2069 2216 2368 2360 2439 2600 2910 3008 2938 2844 2572 2503 2390 2201 2170 2260 2175 2258 2507 2803 2858 2860 2798 2886 3219 3339 3277 3228 2888 2827 3105 3291 3132 3068 3105 3310 3551 3599 3444 3492 3367 3453 3386 3603 3609 3580 3533 3377 3315 3339 3167 3051 2934 2786 2765 2797 2761 2998 3195 3239 3357 3407 3189 3216 3334 3106 3094 3103 3164 3036 3229 3203 3160 3017 2897 2882 2871 2869 2774 2745 2688 2698 2800 2909 2968 3001 3110 3397 3505 3372 3167 3381 3533 3730 3873 4128 4213 4150 4167 -9999 -9999 -9999 -9999 -9999 -9999 -9999 -9999 -9999 -9999 -9999 -9999 -9999 -9999 -9999 -9999 -9999 -9999 -9999 -9999 -9999 -9999 -9999 -9999 -9999 -9999 -9999 -9999 -9999 -9999 -9999 -9999 -9999 -9999 -9999 -9999 -9999 -9999 -9999 -9999 -9999 -9999 -9999 -9999 -9999 -9999 -9999 -9999 -9999 -9999 -9999 -9999 -9999 -9999 -9999 -9999 -9999 -9999 -9999 -9999 -9999 -9999 -9999 -9999 -9999 -9999 -9999 -9999 -9999 -9999 -9999 -9999 -9999 -9999 -9999 -9999 -9999 -9999 -9999 -9999 -9999 -9999 -9999 -9999 -9999 -9999 -9999 -9999 -9999 -9999 -9999 -9999 -9999 -9999 -9999 -9999 -9999 -9999 -9999 -9999 -9999 -9999
-9999 -9999 -9999 -9999 -9999 -9999 -9999 -9999 -9999 -9999 -9999 -9999 -9999 -9999 -9999 -9999 -9999 -9999 -9999 -9999 -9999 -9999 -9999 -9999 -9999 -9999 -9999 -9999 -9999 -9999 -9999 -9999 -9999 -9999 -9999 1226 1225 1218 1193 1113 1039 1034 1034 1038 1042 1047 1051 1055 1057 1106 1106 1114 1125 1127 1130 1126 1149 1179 1184 1213 1252 1241 1272 1292 1230 1214 1245 1268 1376 1403 1310 1290 1340 1513 1529 1561 1527 1576 1682 1623 1567 1494 1538 1527 1573 1636 1704 1766 1852 1900 1947 1831 1865 1881 1943 1979 1862 1848 1952 1971 2059 2327 2330 2087 2090 2017 2054 2215 2211 2269 2371 2540 2812 2933 2875 2838 2960 2870 2691 2569 2313 2106 2077 2129 2368 2581 2723 2592 2492 2716 2986 3193 3028 2974 3127 2787 2608 2857 2881 2802 2894 3085 3343 3659 3784 3636 3745 3630 3673 3588 3625 3762 3811 3612 3587 3747 3572 3223 3126 3089 2936 3095 3121 3006 3067 3271 3368 3626 3488 3377 3408 3347 3235 3267 3351 3358 3206 3320 3313 3175 3001 3102 3150 3076 3040 2953 2874 2762 2687 2702 2755 2850 2925 3075 3130 3349 3286 3122 3286 3505 3820 3907 3911 3808 3872 4046 4330 -9999 -9999 -9999 -9999 -9999 -9999 -9999 -9999 -9999 -9999 -9999 -9999 -9999 -9999 -9999 -9999 -9999 -9999 -9999 -9999 -9999 -9999 -9999 -9999 -9999 -9999 -9999 -9999 -9999 -9999 -9999 -9999 -9999 -9999 -9999 -9999 -9999 -9999 -9999 -9999 -9999 -9999 -9999 -9999 -9999 -9999 -9999 -9999 -9999 -9999 -9999 -9999 -9999 -9999 -9999 -9999 -9999 -9999 -9999 -9999 -9999 -9999 -9999 -9999 -9999 -9999 -9999 -9999 -9999 -9999 -9999 -9999 -9999 -9999 -9999 -9999 -9999 -9999 -9999 -9999 -9999 -9999 -9999 -9999 -9999 -9999 -9999 -9999 -9999 -9999 -9999 -9999 -9999 -9999 -9999 -9999 -9999 -9999 -9999 -9999 -9999
-9999 -9999 -9999 -9999 -9999 -9999 -9999 -9999 -9999 -9999 -9999 -9999 -9999 -9999 -9999 -9999 -9999 -9999 -9999 -9999 -9999 -9999 -9999 -9999 -9999 -9999 -9999 -9999 -9999 -9999 -9999 -9999 -9999 -9999 1322 1299 1305 1301 1279 1227 1119 1060 1045 1046 1045 1052 1055 1060 1063 1084 1117 1120 1127 1138 1139 1141 1152 1183 1210 1206 1229 1262 1283 1301 1337 1356 1391 1334 1293 1265 1286 1280 1319 1477 1437 1476 1539 1639 1587 1505 1475 1537 1591 1603 1563 1625 1704 1744 1815 1834 1802 1814 1889 1907 1983 2090 2079 2021 1916 1930 2011 2095 2094 1921 2010 2237 2310 2475 2410 2390 2335 2466 2715 2634 2679 2616 2795 2877 2820 2697 2423 2273 2149 2043 2294 2396 2465 2322 2549 2874 3097 2956 2853 2656 2765 2573 2453 2515 2667 2986 3117 3355 3435 3658 3513 3570 3656 3841 3978 3937 3883 3832 3857 3871 3763 3924 3634 3508 3583 3377 3200 3423 3441 3297 3327 3585 3759 3878 3639 3605 3670 3399 3350 3431 3446 3455 3438 3523 3343 3199 3088 3247 3472 3361 3089 3103 2891 2871 2838 2624 2733 2891 2867 2867 3000 3163 3070 3124 3357 3644 3725 3678 3490 3540 3794 3868 4021 4245 -9999 -9999 -9999 -9999 -9999 -9999 -9999 -9999 -9999 -9999 -9999 -9999 -9999 -9999 -9999 -9999 -9999 -9999 -9999 -9999 -9999 -9999 -9999 -9999 -9999 -9999 -9999 -9999 -9999 -9999 -9999 -9999 -9999 -9999 -9999 -9999 -9999 -9999 -9999 -9999 -9999 -9999 -9999 -9999 -9999 -9999 -9999 -9999 -9999 -9999 -9999 -9999 -9999 -9999 -9999 -9999 -9999 -9999 -9999 -9999 -9999 -9999 -9999 -9999 -9999 -9999 -9999 -9999 -9999 -9999 -9999 -9999 -9999 -9999 -9999 -9999 -9999 -9999 -9999 -9999 -9999 -9999 -9999 -9999 -9999 -9999 -9999 -9999 -9999 -9999 -9999 -9999 -9999 -9999 -9999 -9999 -9999 -9999 -9999 -9999
-9999 -9999 -9999 -9999 -9999 -9999 -9999 -9999 -9999 -9999 -9999 -9999 -9999 -9999 -9999 -9999 -9999 -9999 -9999 -9999 -9999 -9999 -9999 -9999 -9999 -9999 -9999 -9999 -9999 -9999 -9999 -9999 -9999 -9999 -9999 1402 1398 1417 1439 1349 1283 1251 1138 1061 1054 1054 1058 1063 1070 1081 1122 1131 1142 1148 1150 1158 1158 1181 1217 1224 1234 1260 1293 1309 1342 1371 1424 1448 1472 1471 1431 1358 1298 1351 1369 1488 1528 1579 1466 1461 1517 1566 1599 1629 1630 1650 1647 1656 1691 1713 1805 1924 1997 2023 1987 1956 2077 1984 1912 1841 1840 1871 1962 2211 2327 2269 2396 2546 2707 2623 2572 2533 2476 2404 2427 2556 2539 2587 2746 2795 2714 2553 2246 2127 2074 2244 2175 2298 2646 2887 2783 2628 2515 2484 2324 2371 2492 2798 3083 3173 3254 3491 3620 3383 3347 3488 3491 3632 3767 3754 3587 3480 3603 3700 3856 3953 3843 3802 3842 3637 3609 3729 3720 3598 3745 3699 3876 4146 4101 3921 3791 3633 3674 3666 3625 3677 3724 3554 3356 3365 3325 3483 3429 3380 3387 3146 3142 2980 2912 2703 2645 2766 2847 2986 3093 3099 2976 3141 3299 3317 3328 3268 3327 3583 3870 3872 4077 4021 4170 -9999 -9999 -9999 -9999 -9999 -9999 -9999 -9999 -9999 -9999 -9999 -9999 -9999 -9999 -9999 -9999 -9999 -9999 -9999 -9999 -9999 -9999 -9999 -9999 -9999 -9999 -9999 -9999 -9999 -9999 -9999 -9999 -9999 -9999 -9999 -9999 -9999 -9999 -9999 -9999 -9999 -9999 -9999 -9999 -9999 -9999 -9999 -9999 -9999 -9999 -9999 -9999 -9999 -9999 -9999 -9999 -9999 -9999 -9999 -9999 -9999 -9999 -9999 -9999 -9999 -9999 -9999 -9999 -9999 -9999 -9999 -9999 -9999 -9999 -9999 -9999 -9999 -9999 -9999 -9999 -9999 -9999 -9999 -9999 -9999 -9999 -9999 -9999 -9999 -9999 -9999 -9999 -9999 -9999 -9999 -9999 -9999 -9999 -9999
-9999 -9999 -9999 -9999 -9999 -9999 -9999 -9999 -9999 -9999 -9999 -9999 -9999 -9999 -9999 -9999 -9999 -9999 -9999 -9999 -9999 -9999 -9999 -9999 -9999 -9999 -9999 -9999 -9999 -9999 -9999 -9999 -9999 -9999 -9999 1501 1523 1560 1597 1559 1449 1356 1272 1146 1102 1061 1063 1068 1078 1108 1126 1144 1147 1150 1159 1169 1167 1188 1214 1230 1252 1270 1303 1313 1352 1390 1408 1439 1489 1528 1573 1546 1424 1398 1339 1425 1438 1414 1439 1432 1445 1519 1566 1611 1638 1688 1725 1786 1863 1891 1930 1957 1974 1977 1962 1871 1984 1885 1790 1873 1958 1942 1982 2070 2208 2305 2363 2547 2719 2692 2748 2755 2489 2360 2305 2228 2415 2350 2490 2542 2746 2511 2307 2269 2057 2019 2267 2268 2503 2782 2427 2280 2193 2225 2488 2719 2873 3049 3266 3371 3360 3449 3280 3071 3143 3209 3398 3625 3520 3425 3374 3270 3506 3619 3848 3757 3595 3782 3868 3944 3839 3871 3957 4065 4042 3916 3945 3918 4051 4257 4091 3893 4109 4042 3939 3938 3964 3738 3586 3617 3524 3688 3563 3552 3506 3405 3227 2972 2874 2733 2578 2826 2971 3075 3348 3123 3046 2907 3001 3023 3172 3279 3578 3617 3607 3663 3838 4016 4235 4259 -9999 -9999 -9999 -9999 -9999 -9999 -9999 -9999 -9999 -9999 -9999 -9999 -9999 -9999 -9999 -9999 -9999 -9999 -9999 -9999 -9999 -9999 -9999 -9999 -9999 -9999 -9999 -9999 -9999 -9999 -9999 -9999 -9999 -9999 -9999 -9999 -9999 -9999 -9999 -9999 -9999 -9999 -9999 -9999 -9999 -9999 -9999 -9999 -9999 -9999 -9999 -9999 -9999 -9999 -9999 -9999 -9999 -9999 -9999 -9999 -9999 -9999 -9999 -9999 -9999 -9999 -9999 -9999 -9999 -9999 -9999 -9999 -9999 -9999 -9999 -9999 -9999 -9999 -9999 -9999 -9999 -9999 -9999 -9999 -9999 -9999 -9999 -9999 -9999 -9999 -9999 -9999 -9999 -9999 -9999 -9999 -9999 -9999
-9999 -9999 -9999 -9999 -9999 -9999 -9999 -9999 -9999 -9999 -9999 -9999 -9999 -9999 -9999 -9999 -9999 -9999 -9999 -9999 -9999 -9999 -9999 -9999 -9999 -9999 -9999 -9999 -9999 -9999 -9999 -9999 -9999 -9999 -9999 -9999 1589 1623 1665 1650 1495 1441 1291 1197 1123 1065 1065 1070 1084 1120 1137 1149 1157 1155 1158 1172 1174 1192 1223 1241 1257 1285 1310 1326 1359 1396 1429 1445 1497 1523 1555 1567 1488 1482 1390 1371 1382 1427 1523 1459 1461 1509 1549 1579 1612 1682 1743 1830 1900 1900 1958 1950 1947 1956 1982 1815 1915 1829 1754 1860 1980 2001 2034 2135 2354 2452 2504 2621 2567 2549 2644 2765 2526 2368 2356 2161 2257 2335 2359 2514 2716 2612 2514 2411 2118 2001 2112 2187 2483 2634 2497 2125 2064 2373 2688 2959 3016 3281 3394 3216 3143 3343 3225 2941 3109 3096 3367 3531 3441 3308 3214 3146 3453 3561 3790 3619 3514 3674 3738 3953 3991 3850 3875 4145 3902 3833 3765 3810 4044 4270 4118 4059 4322 4073 3914 3828 3829 3849 3790 3780 3652 3829 3664 3693 3594 3483 3346 3123 3012 2800 2549 2833 3011 3201 3415 3213 3094 2886 2903 3049 3240 3343 3464 3391 3481 3601 3955 4129 4107 4111 4060 4326 4246 4524 -9999 -9999 -9999 -9999 -9999 -9999 -9999 -9999 -9999 -9999 -9999 -9999 -9999 -9999 -9999 -9999 -9999 -9999 -9999 -9999 -9999 -9999 -9999 -9999 -9999 -9999 -9999 -9999 -9999 -9999 -9999 -9999 -9999 -9999 -9999 -9999 -9999 -9999 -9999 -9999 -9999 -9999 -9999 -9999 -9999 -9999 -9999 -9999 -9999 -9999 -9999 -9999 -9999 -9999 -9999 -9999 -9999 -9999 -9999 -9999 -9999 -9999 -9999 -9999 -9999 -9999 -9999 -9999 -9999 -9999 -9999 -9999 -9999 -9999 -9999 -9999 -9999 -9999 -9999 -9999 -9999 -9999 -9999 -9999 -9999 -9999 -9999 -9999 -9999 -9999 -9999 -9999 -9999 -9999
-9999 -9999 -9999 -9999 -9999 -9999 -9999 -9999 -9999 -9999 -9999 -9999 -9999 -9999 -9999 -9999 -9999 -9999 -9999 -9999 -9999 -9999 -9999 -9999 -9999 -9999 -9999 -9999 -9999 -9999 -9999 -9999 -9999 -9999 -9999 -9999 -9999 1713 1789 1733 1567 1497 1359 1280 1179 1086 1072 1076 1097 1131 1128 1142 1155 1165 1165 1174 1184 1191 1223 1237 1266 1295 1325 1339 1379 1403 1452 1470 1495 1536 1550 1559 1578 1615 1605 1542 1558 1613 1574 1569 1526 1563 1533 1608 1661 1724 1794 1856 1876 1892 1889 1846 1863 1936 1886 1762 1723 1765 1917 1897 1978 1955 1983 2071 2205 2386 2450 2338 2282 2499 2577 2722 2699 2552 2392 2298 2053 2099 2235 2350 2668 2723 2651 2517 2230 1995 2019 2104 2136 2393 2327 2016 2056 2390 2758 3088 3136 3223 3063 2884 2915 3056 2885 2768 3024 3176 3297 3166 3268 3125 2844 3049 3256 3339 3521 3283 3417 3591 3675 3618 3714 3683 3744 3940 3752 3524 3479 3715 4021 3958 3863 3855 3987 4228 4058 3912 3572 3569 3719 3744 3829 3728 3699 3613 3545 3467 3346 3293 3136 2788 2517 2748 2875 3144 3436 3453 3300 3090 2853 2888 3100 3186 3126 3260 3591 3733 3859 3688 3624 3680 3862 4030 4230 4282 4362 -9999 -9999 -9999 -9999 -9999 -9999 -9999 -9999 -9999 -9999 -9999 -9999 -9999 -9999 -9999 -9999 -9999 -9999 -9999 -9999 -9999 -9999 -9999 -9999 -9999 -9999 -9999 -9999 -9999 -9999 -9999 -9999 -9999 -9999 -9999 -9999 -9999 -9999 -9999 -9999 -9999 -9999 -9999 -9999 -9999 -9999 -9999 -9999 -9999 -9999 -9999 -9999 -9999 -9999 -9999 -9999 -9999 -9999 -9999 -9999 -9999 -9999 -9999 -9999 -9999 -9999 -9999 -9999 -9999 -9999 -9999 -9999 -9999 -9999 -9999 -9999 -9999 -9999 -9999 -9999 -9999 -9999 -9999 -9999 -9999 -9999 -9999 -9999 -9999 -9999 -9999 -9999 -9999
-9999 -9999 -9999 -9999 -9999 -9999 -9999 -9999 -9999 -9999 -9999 -9999 -9999 -9999 -9999 -9999 -9999 -9999 -9999 -9999 -9999 -9999 -9999 -9999 -9999 -9999 -9999 -9999 -9999 -9999 -9999 -9999 -9999 -9999 -9999 -9999 -9999 -9999 1871 1793 1661 1594 1497 1390 1285 1145 1093 1081 1100 1126 1142 1149 1163 1172 1172 1186 1189 1204 1214 1210 1228 1243 1263 1274 1321 1375 1419 1434 1482 1509 1534 1551 1586 1639 1584 1674 1616 1557 1577 1615 1616 1621 1604 1598 1633 1733 1817 1786 1839 1826 1771 1702 1774 1747 1686 1689 1801 1914 1975 2006 1932 1907 1919 1972 2072 2245 2193 2130 2328 2542 2603 2458 2638 2657 2479 2207 2076 1951 2297 2406 2428 2598 2694 2695 2422 2138 1942 1881 2004 2019 2052 2018 2221 2612 2860 2737 2686 2892 2866 2622 2703 2812 2575 2813 3148 3139 2945 2876 3121 3004 2670 2828 3043 3201 3222 3003 3232 3439 3358 3304 3540 3578 3728 3736 3438 3261 3349 3629 3952 3846 3699 3620 3857 4007 3838 3816 3492 3316 3443 3395 3558 3599 3368 3293 3183 3085 3008 3086 3016 2700 2480 2653 2727 2913 3203 3564 3501 3199 2987 2752 3088 3088 3030 3188 3360 3497 3452 3310 3348 3475 3860 4030 3919 4017 4175 4258 -9999 -9999 -9999 -9999 -9999 -9999 -9999 -9999 -9999 -9999 -9999 -9999 -9999 -9999 -9999 -9999 -9999 -9999 -9999 -9999 -9999 -9999 -9999 -9999 -9999 -9999 -9999 -9999 -9999 -9999 -9999 -9999 -9999 -9999 -9999 -9999 -9999 -9999 -9999 -9999 -9999 -9999 -9999 -9999 -9999 -9999 -9999 -9999 -9999 -9999 -9999 -9999 -9999 -9999 -9999 -9999 -9999 -9999 -9999 -9999 -9999 -9999 -9999 -9999 -9999 -9999 -9999 -9999 -9999 -9999 -9999 -9999 -9999 -9999 -9999 -9999 -9999 -9999 -9999 -9999 -9999 -9999 -9999 -9999 -9999 -9999 -9999 -9999 -9999 -9999 -9999 -9999
-9999 -9999 -9999 -9999 -9999 -9999 -9999 -9999 -9999 -9999 -9999 -9999 -9999 -9999 -9999 -9999 -9999 -9999 -9999 -9999 -9999 -9999 -9999 -9999 -9999 -9999 -9999 -9999 -9999 -9999 -9999 -9999 -9999 -9999 -9999 -9999 -9999 -9999 -9999 1927 1769 1734 1649 1497 1369 1247 1162 1086 1091 1112 1127 1159 1166 1175 1177 1179 1195 1204 1214 1220 1228 1239 1266 1275 1292 1306 1329 1343 1369 1412 1473 1513 1550 1534 1581 1591 1585 1529 1562 1602 1629 1655 1703 1740 1732 1755 1771 1779 1736 1694 1647 1594 1626 1672 1797 1813 1908 1946 2127 2103 1963 1875 1839 1902 1990 1969 2055 2290 2402 2302 2283 2416 2487 2506 2356 2169 2090 1889 2090 2094 2281 2550 2481 2532 2621 2436 2157 2040 1990 1817 1878 2138 2269 2427 2399 2286 2340 2604 2654 2630 2540 2470 2414 2678 2926 2874 2601 2659 2983 2873 2555 2781 2977 3146 2948 2823 3113 3047 3019 3108 3295 3408 3534 3473 3206 3136 3289 3601 3870 3660 3472 3518 3775 3847 3632 3602 3450 3136 3135 3177 3428 3619 3515 3441 3300 3077 2863 2766 2848 2623 2480 2789 2887 3068 3338 3590 3522 3297 3034 2745 2961 2957 2887 3115 3419 3448 3266 3132 3225 3347 3484 3608 3649 3857 3828 3913 4156 -9999 -9999 -9999 -9999 -9999 -9999 -9999 -9999 -9999 -9999 -9999 -9999 -9999 -9999 -9999 -9999 -9999 -9999 -9999 -9999 -9999 -9999 -9999 -9999 -9999 -9999 -9999 -9999 -9999 -9999 -9999 -9999 -9999 -9999 -9999 -9999 -9999 -9999 -9999 -9999 -9999 -9999 -9999 -9999 -9999 -9999 -9999 -9999 -9999 -9999 -9999 -9999 -9999 -9999 -9999 -9999 -9999 -9999 -9999 -9999 -9999 -9999 -9999 -9999 -9999 -9999 -9999 -9999 -9999 -9999 -9999 -9999 -9999 -9999 -9999 -9999 -9999 -9999 -9999 -9999 -9999 -9999 -9999 -9999 -9999 -9999 -9999 -9999 -9999 -9999 -9999
-9999 -9999 -9999 -9999 -9999 -9999 -9999 -9999 -9999 -9999 -9999 -9999 -9999 -9999 -9999 -9999 -9999 -9999 -9999 -9999 -9999 -9999 -9999 -9999 -9999 -9999 -9999 -9999 -9999 -9999 -9999 -9999 -9999 -9999 -9999 -9999 -9999 -9999 -9999 1975 1857 1798 1622 1535 1401 1268 1203 1089 1092 1112 1122 1145 1170 1171 1174 1182 1194 1205 1217 1223 1229 1239 1245 1249 1260 1278 1304 1315 1336 1374 1420 1435 1484 1485 1558 1557 1581 1530 1569 1614 1633 1694 1733 1770 1791 1774 1732 1685 1630 1645 1575 1670 1723 1730 1852 1931 1936 1994 2112 2147 1970 1886 1829 1858 1919 2021 2157 2238 2292 2187 2195 2343 2338 2416 2378 2147 1981 1880 1952 2034 2346 2397 2351 2488 2627 2537 2267 2181 2128 1854 1860 2137 2294 2222 2188 2132 2290 2358 2527 2457 2537 2324 2322 2639 2718 2718 2448 2607 2963 2848 2483 2673 2967 3109 2836 2801 3055 2902 2837 2997 3144 3269 3383 3375 3055 3089 3241 3596 3740 3510 3395 3407 3655 3623 3474 3451 3445 3080 3006 3142 3299 3458 3352 3422 3373 3229 2947 2660 2652 2576 2531 2740 2881 3176 3414 3535 3489 3221 2972 2716 2744 2828 2884 3227 3276 3321 3232 3069 3120 3207 3293 3405 3520 3642 3702 3995 4232 4325 -9999 -9999 -9999 -9999 -9999 -9999 -9999 -9999 -9999 -9999 -9999 -9999 -9999 -9999 -9999 -9999 -9999 -9999 -9999 -9999 -9999 -9999 -9999 -9999 -9999 -9999 -9999 -9999 -9999 -9999 -9999 -9999 -9999 -9999 -9999 -9999 -9999 -9999 -9999 -9999 -9999 -9999 -9999 -9999 -9999 -9999 -9999 -9999 -9999 -9999 -9999 -9999 -9999 -9999 -9999 -9999 -9999 -9999 -9999 -9999 -9999 -9999 -9999 -9999 -9999 -9999 -9999 -9999 -9999 -9999 -9999 -9999 -9999 -9999 -9999 -9999 -9999 -9999 -9999 -9999 -9999 -9999 -9999 -9999 -9999 -9999 -9999 -9999 -9999 -9999
-9999 -9999 -9999 -9999 -9999 -9999 -9999 -9999 -9999 -9999 -9999 -9999 -9999 -9999 -9999 -9999 -9999 -9999 -9999 -9999 -9999 -9999 -9999 -9999 -9999 -9999 -9999 -9999 -9999 -9999 -9999 -9999 -9999 -9999 -9999 -9999 -9999 -9999 -9999 -9999 1970 1894 1690 1565 1431 1325 1246 1157 1098 1107 1113 1157 1163 1173 1179 1183 1177 1177 1181 1186 1191 1198 1204 1208 1216 1225 1240 1247 1272 1303 1342 1356 1385 1434 1450 1509 1531 1525 1529 1633 1663 1677 1692 1696 1735 1609 1557 1524 1529 1566 1692 1831 1891 1893 1904 1992 2080 2017 1953 2116 1949 1846 1802 1819 1899 1999 1978 1989 2035 2152 2069 2120 2177 2075 2053 2120 2078 1821 1877 2025 2234 2033 2234 2266 2354 2312 2274 2239 2262 1956 1791 1995 1977 1948 1942 1938 2027 2015 2210 2140 2200 2112 2245 2401 2405 2441 2256 2644 2824 2662 2346 2671 3003 2982 2658 2683 2933 2675 2579 2899 2919 3028 3192 3119 2851 2998 3168 3460 3359 3405 3253 3180 3433 3264 3150 3178 3361 3158 2853 2830 3078 3193 2965 3069 3117 3085 2925 2725 2654 2378 2699 2969 3104 3106 3013 3280 3170 3161 3187 2969 2679 2567 2896 3025 2988 2944 2883 2961 3077 3102 3194 3338 3428 3535 3619 3881 4121 4383 4568 4376 4230 4141 4242 -9999 -9999 -9999 -9999 -9999 -9999 -9999 -9999 -9999 -9999 -9999 -9999 -9999 -9999 -9999 -9999 -9999 -9999 -9999 -9999 -9999 -9999 -9999 -9999 -9999 -9999 -9999 -9999 -9999 -9999 -9999 -9999 -9999 -9999 -9999 -9999 -9999 -9999 -9999 -9999 -9999 -9999 -9999 -9999 -9999 -9999 -9999 -9999 -9999 -9999 -9999 -9999 -9999 -9999 -9999 -9999 -9999 -9999 -9999 -9999 -9999 -9999 -9999 -9999 -9999 -9999 -9999 -9999 -9999 -9999 -9999 -9999 -9999 -9999 -9999 -9999 -9999 -9999 -9999 -9999 -9999 -9999 -9999 -9999 -9999
-9999 -9999 -9999 -9999 -9999 -9999 -9999 -9999 -9999 -9999 -9999 -9999 -9999 -9999 -9999 -9999 -9999 -9999 -9999 -9999 -9999 -9999 -9999 -9999 -9999 -9999 -9999 -9999 -9999 -9999 -9999 -9999 -9999 -9999 -9999 -9999 -9999 -9999 -9999 -9999 -9999 1961 1794 1639 1499 1360 1313 1241 1121 1106 1108 1114 1131 1135 1144 1154 1161 1168 1169 1172 1180 1186 1194 1198 1208 1217 1224 1228 1238 1258 1272 1278 1311 1336 1373 1398 1412 1436 1533 1594 1582 1563 1583 1707 1639 1512 1469 1571 1677 1709 1814 1917 1955 1977 1973 2035 2042 1931 1825 2050 1951 1781 1723 1807 1836 1860 1821 2004 2219 2059 1945 1884 2036 1979 1821 1947 1790 1766 1728 1802 1870 1820 1864 1864 1966 1903 1824 1834 1964 1810 1744 1788 1796 1788 1797 1836 1825 1803 1849 1903 1892 2014 2079 2111 2089 2156 2062 2422 2643 2529 2195 2555 2875 2792 2475 2639 2590 2366 2486 2790 2706 2900 3049 2791 2654 3042 3135 3197 3020 3178 2992 2968 3138 3202 2947 3085 3238 3191 2817 2658 2888 2947 2698 2839 2829 2877 2650 2547 2437 2423 2777 2998 3009 2829 2813 3008 2875 2758 2861 2794 2531 2571 2873 2705 2893 2954 3094 3262 3481 3479 3484 3569 3569 3747 3739 3886 3911 4056 4127 4397 4244 3956 3931 3992 4109 -9999 -9999 -9999 -9999 -9999 -9999 -9999 -9999 -9999 -9999 -9999 -9999 -9999 -9999 -9999 -9999 -9999 -9999 -9999 -9999 -9999 -9999 -9999 -9999 -9999 -9999 -9999 -9999 -9999 -9999 -9999 -9999 -9999 -9999 -9999 -9999 -9999 -9999 -9999 -9999 -9999 -9999 -9999 -9999 -9999 -9999 -9999 -9999 -9999 -9999 -9999 -9999 -9999 -9999 -9999 -9999 -9999 -9999 -9999 -9999 -9999 -9999 -9999 -9999 -9999 -9999 -9999 -9999 -9999 -9999 -9999 -9999 -9999 -9999 -9999 -9999 -9999 -9999 -9999 -9999 -9999 -9999 -9999
-9999 -9999 -9999 -9999 -9999 -9999 -9999 -9999 -9999 -9999 -9999 -9999 -9999 -9999 -9999 -9999 -9999 -9999 -9999 -9999 -9999 -9999 -9999 -9999 -9999 -9999 -9999 -9999 -9999 -9999 -9999 -9999 -9999 -9999 -9999 -9999 -9999 -9999 -9999 -9999 -9999 -9999 1921 1693 1578 1494 1461 1313 1160 1111 1112 1115 1120 1128 1133 1143 1149 1156 1164 1167 1186 1250 1306 1296 1294 1364 1357 1371 1318 1263 1256 1259 1268 1284 1303 1328 1350 1386 1427 1434 1446 1587 1641 1580 1504 1430 1547 1665 1818 1865 1906 1918 1955 1961 1952 1987 1929 1866 1703 1900 1892 1746 1697 1729 1703 1789 1765 1846 2034 1939 1916 1681 1739 1677 1664 1655 1646 1662 1669 1686 1689 1680 1700 1709 1697 1730 1771 1755 1754 1835 1987 2062 1999 2168 2178 2092 2180 2156 1980 1990 1963 1954 1883 1866 1888 1879 1928 2114 2311 2312 2116 2442 2551 2493 2227 2382 2188 2189 2325 2667 2523 2877 2877 2501 2635 2910 2799 2936 2765 3004 2871 2624 2883 2913 2773 2712 2890 2928 2599 2534 2685 2832 2504 2566 2683 2582 2482 2382 2292 2530 2593 2591 2624 2560 2616 2552 2496 2405 2414 2432 2531 2718 2629 2986 3199 3278 3261 3204 3418 3465 3373 3567 3817 3661 3555 3578 3750 3909 4029 4280 3985 3733 3623 3800 4110 4309 4421 -9999 -9999 -9999 -9999 -9999 -9999 -9999 -9999 -9999 -9999 -9999 -9999 -9999 -9999 -9999 -9999 -9999 -9999 -9999 -9999 -9999 -9999 -9999 -9999 -9999 -9999 -9999 -9999 -9999 -9999 -9999 -9999 -9999 -9999 -9999 -9999 -9999 -9999 -9999 -9999 -9999 -9999 -9999 -9999 -9999 -9999 -9999 -9999 -9999 -9999 -9999 -9999 -9999 -9999 -9999 -9999 -9999 -9999 -9999 -9999 -9999 -9999 -9999 -9999 -9999 -9999 -9999 -9999 -9999 -9999 -9999 -9999 -9999 -9999 -9999 -9999 -9999 -9999 -9999 -9999 -9999
-9999 -9999 -9999 -9999 -9999 -9999 -9999 -9999 -9999 -9999 -9999 -9999 -9999 -9999 -9999 -9999 -9999 -9999 -9999 -9999 -9999 -9999 -9999 -9999 -9999 -9999 -9999 -9999 -9999 -9999 -9999 -9999 -9999 -9999 -9999 -9999 -9999 -9999 -9999 -9999 -9999 -9999 1962 1792 1623 1588 1581 1421 1220 1140 1122 1118 1121 1127 1131 1138 1145 1154 1162 1173 1246 1296 1326 1343 1375 1358 1454 1475 1457 1394 1314 1281 1270 1277 1287 1303 1310 1342 1391 1406 1464 1521 1564 1489 1458 1447 1605 1682 1740 1791 1875 1910 1938 1934 1933 1905 1838 1838 1651 1834 1840 1694 1640 1693 1673 1757 1721 1848 1906 1788 1790 1613 1614 1681 1704 1702 1782 1811 1754 1731 1738 1841 1794 1792 1809 1918 1854 1856 1905 1981 2093 2292 2204 2334 2375 2231 2310 2303 2130 2130 2063 2116 2056 2075 2056 1944 1873 1992 2099 2185 2125 2338 2312 2321 2114 2158 2041 2114 2272 2553 2431 2776 2745 2426 2658 2802 2660 2820 2648 2901 2865 2514 2756 2715 2696 2564 2779 2768 2548 2405 2556 2658 2468 2425 2532 2395 2357 2267 2301 2381 2380 2411 2444 2420 2394 2351 2347 2422 2534 2468 2556 2565 2710 3089 3159 3213 3106 3106 3243 3213 3266 3553 3709 3485 3392 3490 3784 3997 4115 4191 4001 3667 3489 3651 3897 4209 4368 4275 4490 -9999 -9999 -9999 -9999 4265 4518 -9999 -9999 -9999 -9999 -9999 -9999 -9999 -9999 -9999 -9999 -9999 -9999 -9999 -9999 -9999 -9999 -9999 -9999 -9999 -9999 -9999 -9999 -9999 -9999 -9999 -9999 -9999 -9999 -9999 -9999 -9999 -9999 -9999 -9999 -9999 -9999 -9999 -9999 -9999 -9999 -9999 -9999 -9999 -9999 -9999 -9999 -9999 -9999 -9999 -9999 -9999 -9999 -9999 -9999 -9999 -9999 -9999 -9999 -9999 -9999 -9999 -9999 -9999 -9999 -9999 -9999 -9999 -9999 -9999 -9999 -9999 -9999 -9999
-9999 -9999 -9999 -9999 -9999 -9999 -9999 -9999 -9999 -9999 -9999 -9999 -9999 -9999 -9999 -9999 -9999 -9999 -9999 -9999 -9999 -9999 -9999 -9999 -9999 -9999 -9999 -9999 -9999 -9999 -9999 -9999 -9999 -9999 -9999 -9999 -9999 -9999 -9999 -9999 -9999 -9999 -9999 1948 1748 1723 1677 1502 1338 1240 1196 1147 1140 1135 1133 1136 1141 1148 1152 1155 1165 1197 1298 1343 1401 1440 1479 1481 1518 1567 1585 1526 1438 1340 1299 1299 1301 1309 1320 1336 1350 1377 1405 1383 1405 1468 1499 1506 1523 1589 1647 1706 1735 1735 1749 1708 1693 1658 1584 1691 1760 1607 1581 1607 1580 1646 1638 1643 1592 1571 1577 1611 1694 1836 1795 1944 2124 2205 2073 2089 1840 2071 2040 2049 2261 2221 2064 1978 2194 2426 2432 2494 2633 2702 2751 2670 2733 2648 2603 2446 2464 2392 2430 2205 2148 2296 2170 2003 1904 1918 1969 1944 1966 1972 1987 2115 2229 2121 2033 2171 2294 2275 2332 2206 2510 2483 2450 2570 2536 2545 2455 2329 2469 2408 2389 2367 2486 2419 2430 2421 2325 2270 2244 2237 2287 2301 2450 2365 2493 2466 2424 2455 2457 2398 2403 2543 2589 2691 2690 2474 2444 2464 2537 2675 2783 2815 2744 2923 2864 3073 3272 3264 3461 3233 3149 3355 3669 3786 3767 3860 3603 3370 3259 3481 3870 4030 4087 4040 4165 4390 -9999 4232 4117 4079 4234 4274 -9999 -9999 -9999 -9999 -9999 -9999 -9999 -9999 -9999 -9999 -9999 -9999 -9999 -9999 -9999 -9999 -9999 -9999 -9999 -9999 -9999 -9999 -9999 -9999 -9999 -9999 -9999 -9999 -9999 -9999 -9999 -9999 -9999 -9999 -9999 -9999 -9999 -9999 -9999 -9999 -9999 -9999 -9999 -9999 -9999 -9999 -9999 -9999 -9999 -9999 -9999 -9999 -9999 -9999 -9999 -9999 -9999 -9999 -9999 -9999 -9999 -9999 -9999 -9999 -9999 -9999 -9999 -9999 -9999 -9999 -9999 -9999
-9999 -9999 -9999 -9999 -9999 -9999 -9999 -9999 -9999 -9999 -9999 -9999 -9999 -9999 -9999 -9999 -9999 -9999 -9999 -9999 -9999 -9999 -9999 -9999 -9999 -9999 -9999 -9999 -9999 -9999 -9999 -9999 -9999 -9999 -9999 -9999 -9999 -9999 -9999 -9999 -9999 -9999 -9999 2033 1928 1824 1799 1626 1526 1431 1360 1296 1219 1164 1161 1167 1171 1168 1156 1155 1161 1168 1177 1186 1247 1319 1379 1421 1493 1557 1615 1627 1642 1546 1444 1366 1351 1339 1337 1345 1349 1358 1366 1372 1374 1370 1380 1403 1443 1455 1495 1520 1553 1534 1558 1540 1527 1514 1511 1509 1495 1499 1503 1513 1522 1534 1539 1564 1590 1696 1778 1845 2040 1916 2097 1987 2094 2283 2338 2296 1963 2205 2441 2488 2408 2275 2208 2066 2218 2427 2607 2777 2824 2841 3052 3144 3138 3016 2897 2892 2798 2584 2376 2172 2315 2440 2442 2240 2159 2063 2288 2184 2163 2184 2243 2380 2398 2338 2226 2082 2071 2156 2080 2094 2073 2139 2145 2204 2295 2249 2143 2141 2153 2166 2169 2162 2183 2225 2223 2192 2249 2442 2387 2377 2557 2729 2808 2550 2452 2706 2773 2650 2722 2715 2478 2636 2769 2845 2866 2710 2505 2561 2668 2589 2526 2522 2508 2564 2689 2761 2917 2979 3132 2882 2972 3319 3509 3416 3385 3619 3358 3101 3145 3542 3560 3618 3691 3832 3980 3971 4180 4090 3888 3860 4046 4166 4322 4197 4290 -9999 -9999 -9999 -9999 -9999 -9999 -9999 -9999 -9999 -9999 -9999 -9999 -9999 -9999 -9999 -9999 -9999 -9999 -9999 -9999 -9999 -9999 -9999 -9999 -9999 -9999 -9999 -9999 -9999 -9999 -9999 -9999 -9999 -9999 -9999 -9999 -9999 -9999 -9999 -9999 -9999 -9999 -9999 -9999 -9999 -9999 -9999 -9999 -9999 -9999 -9999 -9999 -9999 -9999 -9999 -9999 -9999 -9999 -9999 -9999 -9999 -9999 -9999 -9999 -9999 -9999 -9999 -9999 -9999
-9999 -9999 -9999 -9999 -9999 -9999 -9999 -9999 -9999 -9999 -9999 -9999 -9999 -9999 -9999 -9999 -9999 -9999 -9999 -9999 -9999 -9999 -9999 -9999 -9999 -9999 -9999 -9999 -9999 -9999 -9999 -9999 -9999 -9999 -9999 -9999 -9999 -9999 -9999 -9999 -9999 -9999 -9999 -9999 2089 1912 1842 1790 1706 1565 1504 1412 1368 1269 1237 1222 1200 1218 1192 1189 1193 1181 1173 1175 1180 1187 1199 1218 1267 1352 1418 1427 1495 1549 1629 1609 1587 1504 1445 1389 1370 1363 1371 1380 1384 1393 1402 1407 1406 1404 1408 1418 1426 1431 1439 1450 1461 1465 1472 1487 1516 1535 1546 1562 1576 1662 1685 1714 1768 1902 1966 2175 2249 2116 2251 2371 2148 2156 2418 2457 2137 2158 2309 2420 2475 2209 2240 2317 2308 2425 2396 2530 2556 2719 2891 3097 3195 3099 2933 2725 2610 2440 2385 2395 2570 2712 2626 2582 2341 2277 2549 2644 2372 2479 2670 2779 2629 2525 2385 2352 2493 2277 2199 2250 2301 2236 2197 2136 2119 2171 2212 2312 2346 2414 2343 2378 2505 2590 2451 2404 2557 2821 2703 2546 2676 2977 3133 2858 2694 2647 3020 3019 3003 2821 2638 2649 2809 3132 3109 2867 2577 2651 2926 2897 2738 2841 2684 2687 2558 2547 2539 2627 2780 2823 3003 3111 3154 3060 3246 3362 3071 3006 3154 3197 3347 3591 3599 3606 3514 3714 3765 3670 3545 3643 3991 4039 3968 3888 4139 4087 4145 4111 4295 -9999 -9999 -9999 -9999 -9999 -9999 -9999 -9999 -9999 -9999 -9999 -9999 -9999 -9999 -9999 -9999 -9999 -9999 -9999 -9999 -9999 -9999 -9999 -9999 -9999 -9999 -9999 -9999 -9999 -9999 -9999 -9999 -9999 -9999 -9999 -9999 -9999 -9999 -9999 -9999 -9999 -9999 -9999 -9999 -9999 -9999 -9999 -9999 -9999 -9999 -9999 -9999 -9999 -9999 -9999 -9999 -9999 -9999 -9999 -9999 -9999 -9999 -9999 -9999 -9999
-9999 -9999 -9999 -9999 -9999 -9999 -9999 -9999 -9999 -9999 -9999 -9999 -9999 -9999 -9999 -9999 -9999 -9999 -9999 -9999 -9999 -9999 -9999 -9999 -9999 -9999 -9999 -9999 -9999 -9999 -9999 -9999 -9999 -9999 -9999 -9999 -9999 -9999 -9999 -9999 -9999 -9999 -9999 -9999 -9999 1974 1886 1833 1786 1585 1527 1474 1440 1327 1294 1249 1232 1224 1231 1233 1230 1202 1200 1195 1199 1197 1195 1193 1207 1260 1319 1341 1399 1471 1518 1516 1535 1553 1565 1534 1502 1391 1372 1380 1383 1392 1400 1408 1418 1422 1424 1429 1441 1446 1458 1468 1478 1484 1492 1517 1604 1620 1625 1625 1649 1803 1808 1675 1877 1864 1918 2112 2344 2293 2359 2497 2349 2242 2412 2475 2163 2314 2400 2523 2480 2273 2397 2439 2420 2531 2508 2638 2659 2798 2976 3195 3284 3220 3089 2815 2730 2603 2540 2621 2640 2807 2831 2610 2370 2411 2697 2733 2495 2611 2852 2894 2761 2655 2572 2546 2655 2313 2325 2390 2459 2344 2336 2271 2240 2276 2280 2427 2504 2598 2442 2482 2672 2716 2625 2535 2613 2841 2795 2668 2698 2968 3244 2927 2749 2734 3107 3160 3075 2881 2638 2742 2906 3256 3161 2838 2610 2648 2961 3022 2858 2954 2834 2715 2723 2731 2620 2572 2596 2744 2835 2933 2959 3006 3123 3180 3049 2938 2997 3193 3405 3396 3355 3396 3344 3634 3657 3556 3381 3630 3870 3796 3745 3771 3980 3954 4043 4000 4193 4210 -9999 -9999 -9999 -9999 -9999 -9999 -9999 -9999 -9999 -9999 -9999 -9999 -9999 -9999 -9999 -9999 -9999 -9999 -9999 -9999 -9999 -9999 -9999 -9999 -9999 -9999 -9999 -9999 -9999 -9999 -9999 -9999 -9999 -9999 -9999 -9999 -9999 -9999 -9999 -9999 -9999 -9999 -9999 -9999 -9999 -9999 -9999 -9999 -9999 -9999 -9999 -9999 -9999 -9999 -9999 -9999 -9999 -9999 -9999 -9999 -9999 -9999 -9999 -9999
-9999 -9999 -9999 -9999 -9999 -9999 -9999 -9999 -9999 -9999 -9999 -9999 -9999 -9999 -9999 -9999 -9999 -9999 -9999 -9999 -9999 -9999 -9999 -9999 -9999 -9999 -9999 -9999 -9999 -9999 -9999 -9999 -9999 -9999 -9999 -9999 -9999 -9999 -9999 -9999 -9999 -9999 -9999 -9999 -9999 2128 2087 1923 1827 1744 1694 1642 1567 1444 1377 1344 1256 1260 1258 1257 1265 1228 1290 1282 1259 1252 1225 1221 1219 1205 1211 1221 1266 1296 1329 1375 1372 1385 1404 1428 1441 1497 1503 1452 1448 1460 1470 1470 1483 1501 1506 1515 1531 1535 1550 1561 1571 1587 1645 1718 1701 1870 1877 1882 1782 1869 1949 1837 1791 1889 1933 2049 2268 2329 2435 2764 2745 2547 2611 2552 2336 2581 2816 2762 2471 2441 2674 2775 2760 2818 2805 2993 3039 3096 3196 3139 3165 3384 3286 3028 2919 2791 2775 3085 3002 3082 3074 2751 2769 2851 2991 2875 2874 2983 3209 2941 3113 3110 3029 2882 2539 2608 2714 2824 2820 2561 2679 2471 2650 2603 2623 2551 2874 2868 2705 2846 3089 3067 2857 2726 2773 2896 2905 2809 2898 3022 3305 2963 2777 3011 3204 3394 3248 3000 2684 2958 3092 3353 3276 2908 2768 2877 3092 3323 3211 3211 3156 2817 2861 2958 2838 2998 2893 2659 2687 2624 2657 2671 2693 2781 2778 2944 3010 2941 2922 2970 2963 2996 3217 3282 3373 3299 3113 3382 3419 3373 3331 3589 3675 3733 3770 3753 3903 4032 3993 3994 4027 4141 -9999 -9999 -9999 -9999 -9999 -9999 -9999 -9999 -9999 -9999 -9999 -9999 -9999 -9999 -9999 -9999 -9999 -9999 -9999 -9999 -9999 -9999 -9999 -9999 -9999 -9999 -9999 -9999 -9999 -9999 -9999 -9999 -9999 -9999 -9999 -9999 -9999 -9999 -9999 -9999 -9999 -9999 -9999 -9999 -9999 -9999 -9999 -9999 -9999 -9999 -9999 -9999 -9999 -9999 -9999 -9999 -9999 -9999 -9999 -9999
-9999 -9999 -9999 -9999 -9999 -9999 -9999 -9999 -9999 -9999 -9999 -9999 -9999 -9999 -9999 -9999 -9999 -9999 -9999 -9999 -9999 -9999 -9999 -9999 -9999 -9999 -9999 -9999 -9999 -9999 -9999 -9999 -9999 -9999 -9999 -9999 -9999 -9999 -9999 -9999 -9999 -9999 -9999 -9999 -9999 -9999 2093 1941 1776 1678 1638 1515 1500 1354 1313 1297 1385 1347 1295 1295 1284 1291 1294 1312 1306 1311 1328 1323 1320 1253 1220 1215 1220 1252 1272 1288 1305 1358 1375 1380 1382 1395 1415 1425 1427 1462 1528 1508 1508 1553 1718 1745 1710 1721 1721 1767 1764 1773 1806 1859 1889 1845 1914 2140 2095 1981 1939 1995 2016 2054 2056 2154 2235 2475 2580 2649 2632 2803 2841 2725 2608 2779 2954 2824 2565 2520 2614 2684 2862 3110 3201 3231 3141 2989 2881 2773 2905 3198 3430 3203 3135 3214 3061 3202 3449 3388 3150 3017 3005 3139 3372 3148 3240 3370 3301 3235 3460 3309 3170 2874 2765 3034 3059 3269 3033 3034 3000 2676 2967 3048 3022 2776 2964 3214 3069 3053 3305 3347 3086 3154 3164 3250 3104 3132 3266 3320 3280 2985 2925 3192 3488 3631 3436 3106 2789 3108 3305 3610 3348 3043 2973 3152 3391 3559 3553 3440 3201 2949 3116 3221 3170 3128 2984 2949 3046 2831 2834 2966 2946 2943 2899 2844 2910 2995 3107 3043 3045 2952 2850 2863 2885 2898 2924 2927 2947 2974 3031 3142 3215 3274 3303 3445 3692 3655 3599 3694 3698 4018 4150 -9999 -9999 -9999 -9999 -9999 -9999 -9999 -9999 -9999 -9999 -9999 -9999 -9999 -9999 -9999 -9999 -9999 -9999 -9999 -9999 -9999 -9999 -9999 -9999 -9999 -9999 -9999 -9999 -9999 -9999 -9999 -9999 -9999 -9999 -9999 -9999 -9999 -9999 -9999 -9999 -9999 -9999 -9999 -9999 -9999 -9999 -9999 -9999 -9999 -9999 -9999 -9999 -9999 -9999 -9999 -9999 -9999 -9999 -9999
-9999 -9999 -9999 -9999 -9999 -9999 -9999 -9999 -9999 -9999 -9999 -9999 -9999 -9999 -9999 -9999 -9999 -9999 -9999 -9999 -9999 -9999 -9999 -9999 -9999 -9999 -9999 -9999 -9999 -9999 -9999 -9999 -9999 -9999 -9999 -9999 -9999 -9999 -9999 -9999 -9999 -9999 -9999 -9999 -9999 2094 2026 1884 1739 1653 1614 1476 1434 1451 1428 1473 1528 1411 1374 1337 1343 1365 1293 1307 1332 1312 1322 1326 1331 1345 1270 1253 1228 1227 1234 1265 1273 1283 1332 1369 1370 1373 1394 1408 1411 1465 1539 1424 1489 1478 1644 1629 1664 1655 1691 1708 1759 1831 1849 1885 1824 1741 1809 2022 2128 1966 1903 1887 1860 2055 2030 2196 2285 2482 2569 2334 2440 2547 2848 2955 2934 3006 3015 2908 2906 2692 2722 2844 2970 3160 3003 3124 2982 2622 2545 2650 2766 3079 3455 3559 3501 3444 3461 3472 3575 3573 3512 3294 3354 3341 3595 3574 3589 3655 3611 3510 3517 3208 3083 3023 2962 3235 3388 3524 3251 3367 3250 2982 3227 3465 3362 3206 3313 3493 3468 3445 3496 3485 3430 3463 3550 3456 3364 3373 3640 3594 3351 3180 3139 3167 3327 3644 3615 3258 2933 3025 3196 3557 3535 3286 2992 3074 3294 3548 3586 3438 3155 3200 3375 3471 3412 3134 3038 3168 3155 2838 2749 3134 3253 3204 3195 3177 3143 3189 3317 3399 3420 3434 3110 3208 3264 3269 3341 3240 3236 3274 3269 3203 3161 3109 3047 3169 3213 3177 3200 3322 3610 3820 3845 3899 4078 -9999 -9999 -9999 -9999 -9999 -9999 -9999 -9999 -9999 -9999 -9999 -9999 -9999 -9999 -9999 -9999 -9999 -9999 -9999 -9999 -9999 -9999 -9999 -9999 -9999 -9999 -9999 -9999 -9999 -9999 -9999 -9999 -9999 -9999 -9999 -9999 -9999 -9999 -9999 -9999 -9999 -9999 -9999 -9999 -9999 -9999 -9999 -9999 -9999 -9999 -9999 -9999 -9999 -9999 -9999 -9999 -9999
-9999 -9999 -9999 -9999 -9999 -9999 -9999 -9999 -9999 -9999 -9999 -9999 -9999 -9999 -9999 -9999 -9999 -9999 -9999 -9999 -9999 -9999 -9999 -9999 -9999 -9999 -9999 -9999 -9999 -9999 -9999 -9999 -9999 -9999 -9999 -9999 -9999 -9999 -9999 -9999 -9999 -9999 -9999 -9999 2070 2017 1945 1808 1674 1531 1525 1517 1551 1564 1552 1589 1543 1515 1475 1442 1430 1386 1442 1401 1316 1428 1434 1408 1397 1399 1377 1373 1347 1276 1264 1252 1244 1246 1257 1280 1286 1302 1301 1284 1277 1281 1335 1337 1336 1353 1455 1482 1494 1542 1561 1586 1603 1629 1690 1710 1681 1658 1706 1981 2085 1914 1856 1746 1747 1957 1935 2035 2167 2285 2358 2169 2390 2666 2752 2721 2635 2847 2970 3041 3005 2964 3046 2970 2943 2847 2628 2860 2754 2411 2448 2824 2992 3263 3177 3361 3261 3092 3320 3164 3189 3259 3522 3568 3574 3599 3596 3539 3517 3540 3788 3812 3579 3457 3452 3268 3269 3412 3472 3731 3541 3604 3501 3297 3422 3572 3586 3513 3363 3275 3384 3415 3201 3239 3340 3250 3396 3413 3589 3608 3751 3736 3539 3437 3339 3363 3448 3571 3559 3385 3084 3015 3138 3415 3655 3354 3115 3109 3362 3555 3771 3649 3287 3348 3630 3645 3320 3141 3341 3179 3048 3165 2887 3016 3211 3474 3479 3460 3470 3489 3432 3655 3704 3608 3429 3249 3398 3537 3642 3319 3501 3638 3597 3516 3517 3386 3314 3196 3429 3539 3578 3367 3333 3546 3650 3811 3904 -9999 -9999 -9999 -9999 -9999 -9999 -9999 -9999 -9999 -9999 -9999 -9999 -9999 -9999 -9999 -9999 -9999 -9999 -9999 -9999 -9999 -9999 -9999 -9999 -9999 -9999 -9999 -9999 -9999 -9999 -9999 -9999 -9999 -9999 -9999 -9999 -9999 -9999 -9999 -9999 -9999 -9999 -9999 -9999 -9999 -9999 -9999 -9999 -9999 -9999 -9999 -9999 -9999 -9999 -9999 -9999 -9999
-9999 -9999 -9999 -9999 -9999 -9999 -9999 -9999 -9999 -9999 -9999 -9999 -9999 -9999 -9999 -9999 -9999 -9999 -9999 -9999 -9999 -9999 -9999 -9999 -9999 -9999 -9999 -9999 -9999 -9999 -9999 -9999 -9999 -9999 -9999 -9999 -9999 -9999 -9999 -9999 -9999 -9999 -9999 -9999 2016 1923 1861 1771 1648 1568 1614 1572 1595 1599 1599 1627 1557 1561 1548 1494 1474 1451 1491 1466 1436 1350 1437 1475 1493 1478 1523 1459 1419 1331 1327 1314 1286 1268 1283 1298 1305 1312 1317 1321 1314 1289 1298 1289 1293 1302 1364 1386 1421 1435 1462 1509 1534 1560 1595 1583 1682 1583 1653 1923 2066 1934 1881 1691 1720 1839 1880 1951 2198 2162 2184 2137 2407 2658 2507 2514 2533 2673 2780 2911 3071 3155 2973 2835 2715 2728 2468 2696 2590 2308 2456 2828 3009 3118 3067 3141 3102 2953 3232 2971 2974 3082 3405 3366 3380 3430 3413 3362 3336 3451 3680 3913 3737 3663 3605 3477 3468 3591 3660 3735 3638 3713 3564 3438 3631 3499 3419 3369 3154 3076 3275 3294 3011 3076 3126 3028 3220 3225 3445 3461 3581 3621 3672 3566 3528 3454 3635 3703 3563 3294 3107 3053 3209 3449 3716 3476 3209 3144 3279 3507 3773 3632 3370 3437 3739 3628 3282 3260 3409 3194 3214 3098 2913 2953 3143 3391 3626 3615 3580 3638 3530 3747 3813 3718 3480 3452 3379 3525 3747 3415 3555 3731 3751 3722 3553 3392 3538 3287 3546 3761 3749 3520 3383 3469 3588 3707 3864 4095 -9999 -9999 -9999 -9999 -9999 -9999 -9999 -9999 -9999 -9999 -9999 -9999 -9999 -9999 -9999 -9999 -9999 -9999 -9999 -9999 -9999 -9999 -9999 -9999 -9999 -9999 -9999 -9999 -9999 -9999 -9999 -9999 -9999 -9999 -9999 -9999 -9999 -9999 -9999 -9999 -9999 -9999 -9999 -9999 -9999 -9999 -9999 -9999 -9999 -9999 -9999 -9999 -9999 -9999 -9999 -9999
-9999 -9999 -9999 -9999 -9999 -9999 -9999 -9999 -9999 -9999 -9999 -9999 -9999 -9999 -9999 -9999 -9999 -9999 -9999 -9999 -9999 -9999 -9999 -9999 -9999 -9999 -9999 -9999 -9999 -9999 -9999 -9999 -9999 -9999 -9999 -9999 -9999 -9999 -9999 -9999 -9999 -9999 -9999 2023 1901 1779 1743 1649 1582 1702 1727 1693 1694 1669 1665 1706 1696 1678 1640 1599 1634 1501 1635 1605 1611 1540 1409 1372 1433 1478 1578 1650 1613 1576 1602 1541 1513 1399 1341 1322 1327 1337 1342 1338 1336 1340 1345 1352 1356 1355 1345 1318 1310 1312 1325 1368 1412 1431 1458 1513 1526 1560 1662 1848 1995 1899 1842 1635 1712 1873 1852 1801 2008 1976 1975 2218 2273 2266 2168 2305 2528 2505 2548 2728 3049 3212 3079 2983 2663 2408 2290 2300 2296 2139 2448 2775 2910 2728 2966 2767 2670 2865 2961 2665 2833 3019 3269 2964 3055 3178 3053 2971 3291 3436 3757 3586 3441 3492 3640 3571 3382 3465 3533 3366 3560 3844 3829 3769 3524 3233 3090 3009 2975 2754 2906 2862 2680 2870 2701 2657 2733 2871 3069 3184 3249 3337 3483 3711 3809 3693 3851 3895 3726 3406 3139 3190 3245 3395 3699 3653 3304 3281 3555 3560 3933 3891 3536 3683 3877 3705 3492 3640 3401 3437 3364 3191 3039 2881 2941 3240 3310 3496 3550 3564 3753 3956 4033 3764 3646 3681 3501 3608 3895 3670 3594 3737 4089 3903 3564 3575 3609 3462 3770 4037 3898 3734 3607 3528 3662 3897 3972 4109 -9999 -9999 -9999 -9999 -9999 -9999 -9999 -9999 -9999 -9999 -9999 -9999 -9999 -9999 -9999 -9999 -9999 -9999 -9999 -9999 -9999 -9999 -9999 -9999 -9999 -9999 -9999 -9999 -9999 -9999 -9999 -9999 -9999 -9999 -9999 -9999 -9999 -9999 -9999 -9999 -9999 -9999 -9999 -9999 -9999 -9999 -9999 -9999 -9999 -9999 -9999 -9999 -9999 -9999 -9999 -9999
-9999 -9999 -9999 -9999 -9999 -9999 -9999 -9999 -9999 -9999 -9999 -9999 -9999 -9999 -9999 -9999 -9999 -9999 -9999 -9999 -9999 -9999 -9999 -9999 -9999 -9999 -9999 -9999 -9999 -9999 -9999 -9999 -9999 -9999 -9999 -9999 -9999 -9999 -9999 -9999 -9999 -9999 2094 2018 1860 1759 1687 1658 1704 1743 1750 1743 1759 1772 1786 1808 1817 1845 1853 1831 1639 1640 1686 1776 1747 1570 1522 1438 1425 1509 1644 1710 1826 1772 1853 1693 1630 1538 1458 1400 1377 1366 1371 1410 1444 1406 1430 1454 1431 1389 1390 1374 1379 1379 1355 1332 1329 1336 1413 1431 1510 1593 1661 1820 1803 1795 1775 1597 1549 1726 1669 1655 1792 1933 2055 1975 2023 1961 2168 2172 2125 2288 2553 2685 2991 2863 3070 3059 2907 2696 2336 2248 2161 2027 2263 2544 2659 2626 2692 2460 2551 2837 2687 2393 2702 2852 2992 2643 2862 2796 2765 3041 3332 3496 3391 3041 3139 3347 3201 3309 2952 3079 3075 3055 3372 3392 3452 3495 3301 3030 2818 2745 2597 2435 2409 2379 2379 2451 2691 2747 2981 3096 3143 3174 3274 3393 3718 3862 3947 4136 4173 3842 3684 3346 3333 3412 3595 3607 3718 3688 3413 3431 3722 3812 3985 4054 3780 3878 3754 3680 3847 3664 3607 3609 3530 3348 3164 3117 3042 2981 3059 3145 3184 3333 3522 3815 3921 3888 3887 3904 3737 3784 4043 3922 3749 3823 4171 3924 3666 3757 3640 3690 4058 4176 3963 3940 3728 3640 3724 4098 4285 -9999 -9999 -9999 -9999 -9999 -9999 -9999 -9999 -9999 -9999 -9999 -9999 -9999 -9999 -9999 -9999 -9999 -9999 -9999 -9999 -9999 -9999 -9999 -9999 -9999 -9999 -9999 -9999 -9999 -9999 -9999 -9999 -9999 -9999 -9999 -9999 -9999 -9999 -9999 -9999 -9999 -9999 -9999 -9999 -9999 -9999 -9999 -9999 -9999 -9999 -9999 -9999 -9999 -9999 -9999 -9999 -9999
-9999 -9999 -9999 -9999 -9999 -9999 -9999 -9999 -9999 -9999 -9999 -9999 -9999 -9999 -9999 -9999 -9999 1526 -9999 -9999 -9999 -9999 -9999 -9999 -9999 -9999 -9999 -9999 -9999 -9999 -9999 -9999 -9999 -9999 -9999 -9999 -9999 -9999 -9999 -9999 -9999 2123 2184 2041 1884 1766 1736 1780 1862 1895 1901 1907 1906 1849 1861 1949 1969 1976 1903 1868 1867 1765 1766 1793 1701 1610 1507 1450 1454 1542 1648 1712 1814 1927 1949 1753 1709 1675 1606 1483 1487 1463 1459 1465 1462 1532 1593 1670 1615 1506 1406 1466 1464 1449 1479 1452 1442 1420 1368 1379 1370 1365 1413 1500 1580 1682 1674 1582 1540 1572 1683 1781 1688 1890 1937 1799 1808 1838 1967 2082 2345 2584 2766 2751 2639 2672 2823 2731 2869 2750 2460 2188 2075 1941 2071 2183 2334 2489 2386 2304 2450 2659 2385 2244 2583 2737 2685 2442 2689 2613 2771 3137 3401 3209 2869 2636 2790 2752 2697 2905 2746 2520 2622 2953 2864 2910 3087 3161 2841 2666 2565 2371 2226 2365 2508 2596 2688 2824 2974 3086 3073 3280 3345 3430 3436 3472 3534 3640 3732 3983 3953 3715 3563 3593 3649 3568 3665 3923 4061 3780 3571 3611 3701 3916 3956 4090 3971 3962 3889 3869 3813 3804 3750 3727 3690 3553 3364 3367 3239 3234 3283 3436 3538 3597 3643 3640 3526 3562 3579 3773 3885 4016 4071 4091 3960 4061 4239 3893 3838 3965 3757 3796 4002 4285 4136 4165 3792 3720 3864 4306 -9999 -9999 -9999 -9999 -9999 -9999 -9999 -9999 -9999 -9999 -9999 -9999 -9999 -9999 -9999 -9999 -9999 -9999 -9999 -9999 -9999 -9999 -9999 -9999 -9999 -9999 -9999 -9999 -9999 -9999 -9999 -9999 -9999 -9999 -9999 -9999 -9999 -9999 -9999 -9999 -9999 -9999 -9999 -9999 -9999 -9999 -9999 -9999 -9999 -9999 -9999 -9999 -9999 -9999 -9999 -9999 -9999 -9999
-9999 -9999 -9999 -9999 -9999 -9999 -9999 -9999 -9999 -9999 -9999 -9999 -9999 -9999 -9999 -9999 -9999 1510 1585 -9999 -9999 -9999 -9999 -9999 -9999 -9999 -9999 -9999 -9999 -9999 -9999 -9999 -9999 -9999 -9999 -9999 -9999 -9999 -9999 -9999 -9999 -9999 2099 2012 1868 1779 1773 1826 1919 1974 1995 2016 1978 1893 1902 1992 2068 2045 1946 1929 1917 1806 1691 1703 1642 1560 1498 1456 1475 1556 1695 1735 1875 1968 2003 1816 1806 1757 1736 1567 1600 1498 1550 1573 1542 1642 1696 1766 1619 1524 1412 1488 1492 1490 1499 1515 1520 1518 1509 1426 1392 1385 1368 1409 1514 1554 1569 1528 1525 1593 1641 1723 1624 1805 1841 1714 1721 1780 1967 2039 2251 2496 2621 2525 2468 2653 2580 2558 2800 2662 2530 2342 2223 1950 1933 2150 2230 2297 2411 2190 2284 2522 2287 2261 2635 2767 2535 2325 2621 2486 2824 3124 3303 3159 2747 2461 2581 2525 2496 2786 2468 2520 2733 2714 2590 2810 3009 2956 2702 2480 2394 2209 2338 2563 2669 2797 2827 2955 3156 3245 3213 3378 3432 3573 3496 3565 3599 3670 3727 3925 3971 3689 3602 3743 3827 3711 3697 3866 4048 3783 3678 3788 3861 3885 3873 4000 3821 3828 3917 3811 3611 3577 3629 3549 3549 3673 3527 3501 3388 3342 3390 3566 3668 3633 3454 3472 3447 3411 3483 3558 3740 3831 3942 4136 4045 4095 4160 3894 3898 4050 3840 3839 3941 4190 4317 4228 3810 3769 3898 4302 -9999 -9999 -9999 -9999 -9999 -9999 -9999 -9999 -9999 -9999 -9999 -9999 -9999 -9999 -9999 -9999 -9999 -9999 -9999 -9999 -9999 -9999 -9999 -9999 -9999 -9999 -9999 -9999 -9999 -9999 -9999 -9999 -9999 -9999 -9999 -9999 -9999 -9999 -9999 -9999 -9999 -9999 -9999 -9999 -9999 -9999 -9999 -9999 -9999 -9999 -9999 -9999 -9999 -9999 -9999 -9999 -9999 -9999
-9999 -9999 -9999 -9999 -9999 -9999 -9999 -9999 -9999 -9999 -9999 -9999 -9999 -9999 1431 1426 1432 1529 1608 1754 -9999 -9999 -9999 -9999 -9999 -9999 -9999 2064 -9999 -9999 2135 -9999 -9999 -9999 -9999 -9999 -9999 -9999 -9999 -9999 -9999 -9999 1991 1938 1906 1849 1856 1906 1982 2058 2091 2153 2166 2136 2136 2187 2210 2175 2125 2112 2005 1898 1687 1649 1606 1576 1577 1518 1516 1696 1815 1881 1930 2042 2082 1943 1925 1965 1801 1808 1721 1657 1690 1783 1771 1681 1868 1698 1648 1551 1469 1605 1597 1613 1612 1670 1662 1660 1685 1762 1718 1520 1469 1438 1393 1415 1447 1401 1437 1451 1484 1545 1567 1588 1619 1781 1855 1933 2023 2050 2245 2347 2289 2345 2571 2332 2601 2685 2637 2332 2142 2078 2056 1962 1854 1923 1886 2033 2056 2020 2206 2272 2013 2347 2601 2563 2263 2339 2526 2325 2434 2801 2949 2928 2806 2419 2145 2237 2360 2368 2133 2401 2513 2269 2431 2714 2646 2518 2327 2113 2140 2280 2462 2814 2882 3029 3214 3283 3450 3588 3489 3621 3684 3857 3676 3756 3874 3817 3871 4258 4021 3806 3867 4145 3917 3911 3863 3909 4122 3973 3986 4070 3776 3541 3767 3748 3580 3535 3746 3841 3610 3333 3437 3293 3265 3561 3742 3815 3812 3748 3662 3425 3319 3236 3083 3088 3094 3115 3166 3255 3389 3446 3726 3738 3877 3973 4117 4061 4180 4260 4010 4082 4026 4092 4239 4317 3916 3902 4024 -9999 -9999 -9999 -9999 -9999 -9999 -9999 -9999 -9999 -9999 -9999 -9999 -9999 -9999 -9999 -9999 -9999 -9999 -9999 -9999 -9999 -9999 -9999 -9999 -9999 -9999 -9999 -9999 -9999 -9999 -9999 -9999 -9999 -9999 -9999 -9999 -9999 -9999 -9999 -9999 -9999 -9999 -9999 -9999 -9999 -9999 -9999 -9999 -9999 -9999 -9999 -9999 -9999 -9999 -9999 -9999 -9999 -9999 -9999
-9999 -9999 -9999 -9999 -9999 -9999 -9999 -9999 -9999 -9999 -9999 -9999 1322 1313 1388 1430 1501 1569 1714 1946 -9999 -9999 -9999 -9999 -9999 2009 2025 2066 2059 2070 2097 2101 2156 -9999 -9999 -9999 -9999 -9999 -9999 -9999 -9999 -9999 1955 1988 1919 1916 1933 1954 1988 2052 2084 2143 2199 2256 2248 2270 2276 2262 2243 2219 2129 1988 1774 1767 1750 1617 1777 1703 1556 1533 1603 1655 1773 1846 1927 1946 1949 1864 1900 1944 1911 1817 1946 1957 1962 1869 1930 1821 1686 1656 1492 1664 1750 1756 1717 1789 1858 1843 1883 1913 1887 1765 1662 1581 1560 1519 1487 1485 1481 1484 1479 1440 1564 1671 1687 1718 1983 2185 2200 2291 2274 2159 2257 2346 2285 2350 2470 2358 2597 2451 2405 2257 2169 1881 1788 1766 1752 2043 2076 1889 1932 2083 1945 2160 2243 2236 2003 2219 2017 2052 2338 2619 2527 2469 2541 2303 2013 2052 2080 2087 1980 2082 2088 2048 2240 2208 2171 2133 2036 2277 2419 2666 2712 2912 3230 3315 3522 3469 3659 3789 3684 3816 3820 3886 3719 3748 3962 4023 3929 3880 3794 3792 3926 4241 4000 3661 3550 3847 3971 3708 3797 3924 3647 3371 3643 3507 3238 3308 3428 3453 3333 3151 3361 3049 3186 3296 3483 3477 3619 3845 3577 3313 3185 3049 3278 3442 3443 3447 3294 3361 3219 3208 3372 3374 3580 3568 3796 4011 4169 4235 4404 4321 4230 4265 4299 4332 4046 4026 4056 -9999 -9999 -9999 -9999 -9999 -9999 -9999 -9999 -9999 -9999 -9999 -9999 -9999 -9999 -9999 -9999 -9999 -9999 -9999 -9999 -9999 -9999 -9999 -9999 -9999 -9999 -9999 -9999 -9999 -9999 -9999 -9999 -9999 -9999 -9999 -9999 -9999 -9999 -9999 -9999 -9999 -9999 -9999 -9999 -9999 -9999 -9999 -9999 -9999 -9999 -9999 -9999 -9999 -9999 -9999 -9999 -9999 -9999 -9999
-9999 -9999 -9999 -9999 -9999 -9999 1091 -9999 -9999 1168 1215 1223 1288 1360 1420 1472 1672 1785 1921 2024 2058 2023 1984 2038 2023 1962 2012 1996 1991 2026 2016 2036 2089 2127 -9999 -9999 -9999 -9999 -9999 -9999 -9999 2043 1999 1985 1964 1961 1960 2001 2034 2075 2096 2153 2186 2242 2273 2270 2322 2321 2314 2256 2058 2018 2001 1993 1898 1791 1886 1846 1822 1674 1639 1577 1625 1684 1730 1719 1691 1719 1810 1895 2005 2029 2051 2058 2083 2035 1998 1881 1682 1657 1558 1584 1787 1830 1810 1831 1933 2005 2047 2114 2115 1855 1797 1751 1720 1682 1652 1563 1537 1518 1496 1448 1493 1582 1650 1794 1941 2140 2269 2376 2348 2152 2137 2185 2083 2254 2157 2169 2202 2111 2284 2198 2030 1714 1688 1643 1654 1658 1678 1863 1898 1836 1862 1879 1968 1967 1881 1963 1919 1980 2083 2163 2135 2105 2193 2123 1876 1891 1869 1858 1900 1928 1964 1957 1970 1999 2061 2129 2212 2365 2439 2661 2829 3017 3043 3030 3217 3425 3591 3738 3566 3449 3457 3615 3408 3577 3848 3574 3476 3456 3373 3604 3767 3709 3620 3424 3318 3588 3840 3464 3408 3458 3603 3165 3375 3522 3186 3075 3106 3069 3250 2966 3168 2914 2999 3004 3080 3363 3391 3379 3300 3051 3033 3312 3415 3552 3690 3644 3589 3679 3503 3388 3375 3421 3298 3292 3476 3685 3774 3835 3991 4036 4208 4328 4315 4363 4143 4196 4331 -9999 -9999 -9999 -9999 -9999 -9999 -9999 -9999 -9999 -9999 -9999 -9999 -9999 -9999 -9999 -9999 -9999 -9999 -9999 -9999 -9999 -9999 -9999 -9999 -9999 -9999 -9999 -9999 -9999 -9999 -9999 -9999 -9999 -9999 -9999 -9999 -9999 -9999 -9999 -9999 -9999 -9999 -9999 -9999 -9999 -9999 -9999 -9999 -9999 -9999 -9999 -9999 -9999 -9999 -9999 -9999 -9999 -9999 -9999
-9999 -9999 -9999 -9999 1232 1182 1087 1078 1127 1205 1229 1257 1315 1388 1515 1512 1699 1896 1976 2042 2060 2003 1975 2025 2013 1955 2022 1974 1985 1987 2023 2052 2083 2086 -9999 -9999 -9999 -9999 -9999 -9999 2077 2045 2023 2012 1986 1991 1999 2008 2059 2098 2124 2170 2216 2251 2294 2302 2356 2370 2346 2286 2135 2086 2141 2102 2018 1902 1944 1893 1929 1792 1739 1674 1578 1614 1645 1667 1686 1776 1844 1915 2006 2089 2083 2134 2133 2048 1952 1895 1761 1686 1578 1621 1793 1824 1820 1840 1969 2056 2175 2221 2176 1898 1832 1856 1817 1828 1816 1714 1618 1533 1529 1482 1471 1559 1615 1823 2094 2050 2094 2218 2377 2181 2049 2082 2142 2294 2068 2149 2008 1974 2059 2012 1911 1642 1626 1719 1705 1747 1768 1688 1723 1755 1740 1726 1742 1758 1806 1822 1783 1778 1844 1919 1916 1952 1989 1929 1828 1871 1884 1983 2123 2099 2171 2212 2185 2075 2069 2139 2248 2274 2317 2521 2655 2826 2786 2842 3048 3188 3471 3517 3367 3268 3304 3459 3215 3472 3747 3408 3296 3332 3342 3672 3652 3486 3401 3270 3229 3535 3743 3483 3203 3194 3499 3060 3215 3319 3089 3068 2950 2934 3032 2900 2924 2882 2880 2903 2964 3126 3138 3154 3041 2995 3149 3439 3584 3612 3769 3759 3720 3810 3598 3442 3505 3589 3438 3410 3343 3480 3612 3687 3778 3861 4083 4183 4266 4414 4269 4473 -9999 -9999 -9999 -9999 4537 -9999 -9999 -9999 -9999 -9999 -9999 -9999 -9999 -9999 -9999 -9999 -9999 -9999 -9999 -9999 -9999 -9999 -9999 -9999 -9999 -9999 -9999 -9999 -9999 -9999 -9999 -9999 -9999 -9999 -9999 -9999 -9999 -9999 -9999 -9999 -9999 -9999 -9999 -9999 -9999 -9999 -9999 -9999 -9999 -9999 -9999 -9999 -9999 -9999 -9999 -9999 -9999 -9999 -9999 -9999
-9999 -9999 -9999 1299 1241 1180 1092 1107 1158 1256 1288 1337 1542 1578 1682 1807 1862 1936 2042 2070 2053 1985 1995 2014 1982 1944 2018 1961 1982 1990 2017 2048 2012 2015 2082 2222 -9999 -9999 -9999 -9999 2171 2139 2143 2112 2078 2068 2062 2081 2097 2133 2147 2192 2252 2297 2309 2384 2412 2457 2410 2386 2317 2359 2309 2286 2189 2087 2076 2060 2083 1884 1841 1753 1600 1633 1688 1736 1767 1818 1919 2044 2099 2245 2259 2191 2135 2115 2004 1974 1819 1733 1586 1773 1792 1827 1878 1901 2105 2203 2202 2295 2331 2229 2129 2061 2144 2098 2066 1890 1644 1668 1630 1514 1453 1515 1539 1782 1906 1814 1809 1923 2031 2096 2055 1869 1994 1999 1996 2158 1973 1845 1809 1718 1636 1608 1843 1911 1843 2092 2134 1835 1822 1821 1833 1815 1795 1803 1697 1742 1770 1797 1774 1726 1721 1726 1732 1783 2044 2319 2431 2533 2571 2591 2511 2671 2690 2485 2561 2581 2659 2653 2546 2568 2500 2642 2805 2925 3100 3286 3235 3105 2957 2882 2858 3006 2866 3141 3263 3175 3046 3031 3375 3530 3378 3136 3246 3066 3247 3468 3292 3504 3077 2993 3068 2874 2871 2893 2858 2849 2848 2851 2860 2935 3060 3234 3246 2983 3102 3015 3006 3055 3084 3055 3195 3418 3695 3790 3879 3972 4024 3926 3703 3544 3700 3833 3706 3770 3669 3632 3643 3675 3769 3833 3888 4021 4133 4363 4443 4542 4607 4558 4344 4368 4323 -9999 -9999 -9999 -9999 -9999 4613 -9999 -9999 -9999 -9999 -9999 -9999 -9999 -9999 -9999 -9999 -9999 -9999 -9999 -9999 -9999 -9999 -9999 -9999 -9999 -9999 -9999 -9999 -9999 -9999 -9999 -9999 -9999 -9999 -9999 -9999 -9999 -9999 -9999 -9999 -9999 -9999 -9999 -9999 -9999 -9999 -9999 -9999 -9999 -9999 -9999 -9999 -9999 -9999 -9999
-9999 -9999 1399 1359 1198 1118 1076 1108 1157 1246 1443 1497 1601 1579 1785 1909 2004 2001 2039 1996 1982 1958 1987 2014 1972 1915 1924 1990 2013 2026 2037 2020 2013 2047 2122 2250 -9999 -9999 -9999 2347 2287 2283 2275 2229 2177 2170 2152 2151 2143 2175 2180 2244 2268 2297 2307 2348 2414 2470 2469 2485 2477 2351 2254 2254 2205 2241 2204 2186 2098 1914 1799 1760 1668 1682 1819 1875 1875 1967 2023 2165 2194 2262 2299 2243 2268 2184 2086 1950 1857 1776 1615 1760 1764 1788 1857 2010 2141 2169 2216 2309 2392 2340 2295 2252 2178 2094 2017 1817 1663 1791 1699 1603 1570 1527 1523 1503 1533 1618 1631 1665 1715 1752 1800 1727 1752 1798 1729 1775 1744 1719 1599 1777 1744 1908 2181 2251 2048 2199 2300 2081 2091 2312 2222 2075 2084 1980 2146 2070 2257 2125 2244 2144 2132 2220 2016 1757 2029 2271 2408 2805 3010 2991 2928 3038 3091 2893 2964 2848 3040 2941 3017 2869 2898 3116 3221 3282 3377 3426 3204 3088 2877 2683 2621 2585 2625 2775 2884 2814 2860 3140 3375 3400 3302 3040 2904 3117 3142 3106 3068 3058 2825 2900 2902 2850 2866 2912 2987 2978 3058 2970 3241 3186 3282 3297 3084 3152 3414 3360 3255 3496 3314 3355 3251 3239 3415 3504 3539 3763 4024 3991 3728 3639 3966 3966 3812 3853 3852 3858 3831 3875 3923 4163 4090 4068 4105 4194 4351 4498 4456 4310 4142 4223 4162 4190 4297 4642 4309 4284 4552 4541 -9999 -9999 -9999 -9999 -9999 -9999 -9999 -9999 -9999 -9999 -9999 -9999 -9999 -9999 -9999 -9999 -9999 -9999 -9999 -9999 -9999 -9999 -9999 -9999 -9999 -9999 -9999 -9999 -9999 -9999 -9999 -9999 -9999 -9999 -9999 -9999 -9999 -9999 -9999 -9999 -9999 -9999 -9999 -9999 -9999 -9999 -9999 -9999
1624 1479 1297 1225 1157 1125 1089 1110 1151 1269 1482 1622 1739 1868 1951 1953 1953 1936 1944 1943 1917 1912 1964 1947 1903 1880 1958 1961 1963 1979 1974 1935 1974 2014 2100 2234 2309 2340 -9999 2442 2399 2379 2344 2314 2278 2246 2233 2243 2219 2241 2237 2270 2337 2387 2408 2433 2508 2524 2420 2359 2218 2116 2078 2029 1995 1954 1922 1887 1814 1740 1731 1699 1651 1713 1806 1819 1818 1888 1975 2032 2079 2206 2246 2250 2304 2229 2131 1944 1803 1721 1633 1701 1754 1776 1848 2067 2119 2157 2260 2291 2301 2292 2248 2204 2179 1984 1923 1832 1733 1826 1887 1856 1848 1872 1883 1821 1750 1520 1511 1502 1550 1610 1565 1578 1560 1570 1595 1656 1739 1700 1813 2096 1998 2213 2537 2442 2298 2156 2509 2514 2465 2684 2534 2498 2332 2286 2558 2497 2624 2536 2682 2611 2427 2234 1933 1823 1851 2175 2233 2410 2711 3085 3146 3203 3302 3382 3425 3267 3265 3355 3395 3239 3412 3451 3196 3045 2942 3053 3300 3331 3190 2895 2611 2453 2565 2665 2759 2909 2991 3267 3459 3229 3080 2799 3121 2966 2814 2722 2693 2587 2796 2911 2953 3110 3250 3167 3283 3489 3423 3293 3351 3490 3512 3203 3105 3311 3597 3658 3563 3755 3595 3627 3521 3489 3543 3796 3740 3728 4036 3995 3836 3775 3959 4178 3953 3995 4021 3970 3908 3967 3992 4126 4371 4303 4267 4145 4309 4402 4488 4172 3966 3927 3891 4030 4310 4293 4132 4188 4494 4271 4373 4435 4280 4332 4458 -9999 -9999 -9999 -9999 -9999 -9999 -9999 -9999 -9999 -9999 -9999 -9999 -9999 -9999 -9999 -9999 -9999 -9999 -9999 -9999 -9999 -9999 -9999 4077 4123 4196 -9999 -9999 -9999 -9999 -9999 -9999 -9999 -9999 -9999 -9999 -9999 -9999 -9999 -9999 -9999 -9999 -9999
1662 1496 1294 1238 1165 1140 1094 1097 1154 1264 1466 1520 1661 1860 1889 1905 1870 1892 1859 1827 1845 1888 1888 1762 1825 1921 1884 1904 1907 1935 1910 1921 2008 2050 2048 2119 2252 2288 2430 2439 2419 2401 2361 2345 2310 2299 2318 2332 2281 2323 2350 2408 2429 2373 2364 2343 2340 2323 2266 2178 2050 1969 1903 1888 1850 1822 1799 1786 1750 1726 1725 1730 1783 1789 1743 1812 1840 1901 1964 2047 2092 2240 2119 2014 2043 2029 2064 1994 1813 1696 1699 1785 1845 1867 1952 2038 2207 2238 2297 2304 2295 2261 2219 2238 2234 2186 2092 1863 1784 1837 1971 2060 2101 2181 2145 1966 1743 1588 1777 1731 1667 1699 1714 1698 1797 1854 1989 2005 2171 2242 2296 2476 2319 2225 2695 2937 2806 2461 2642 2723 2919 3097 2905 2903 2709 2677 2986 3022 2926 2766 2636 2496 2282 2286 2336 2028 1772 2014 2207 2555 2574 2637 2688 2764 2968 3227 3404 3605 3557 3721 3659 3668 3413 3100 3108 3074 2683 2713 3075 3198 3000 2712 2443 2340 2712 2920 3147 3202 3252 3244 2983 2941 2849 2761 3154 2716 2540 2525 2674 2959 3209 3331 3239 3436 3708 3606 3479 3551 3812 3675 3588 3813 3716 3301 3263 3498 3738 3904 3838 3878 3753 3728 3636 3669 3756 3951 3966 3858 4032 4200 4099 4013 3986 4163 4103 4111 4398 4069 4049 4125 4081 4410 4161 3876 3871 3960 4016 4167 4334 4156 3805 3541 3663 4077 4339 4099 4008 4125 4334 4117 4144 4163 4052 4058 4146 4200 4295 -9999 -9999 -9999 -9999 -9999 -9999 -9999 -9999 -9999 -9999 -9999 -9999 -9999 -9999 -9999 -9999 -9999 -9999 -9999 -9999 3980 3870 3841 3952 3995 4045 4209 -9999 -9999 -9999 -9999 -9999 -9999 -9999 -9999 -9999 -9999 -9999 -9999 -9999 -9999
1673 1512 1303 1238 1179 1147 1135 1105 1164 1241 1381 1471 1660 1794 1802 1824 1791 1801 1744 1773 1847 1863 1796 1785 1867 1896 1865 1879 1886 1909 1889 1927 1986 1993 2010 2137 2265 2306 2427 2431 2418 2400 2378 2368 2323 2338 2351 2347 2342 2408 2438 2399 2336 2285 2281 2286 2281 2293 2292 2179 2080 2033 1959 1957 1872 1852 1826 1798 1789 1806 1804 1780 1852 1876 1827 1815 1876 1953 2037 2087 2134 2207 2022 1938 1941 1904 1948 1952 1794 1683 1754 1844 1914 1928 2021 2072 2205 2255 2274 2303 2325 2247 2235 2297 2317 2173 2058 1834 1882 1903 1989 2123 2240 2112 2057 1928 1754 1594 1814 1856 1821 1825 1869 1790 1914 1965 2175 2287 2381 2528 2614 2644 2470 2310 2731 3047 2897 2546 2866 2806 2899 3275 3159 3106 2881 2902 3142 3184 2905 2878 2836 2633 2521 2526 2424 2070 1821 2027 2210 2359 2341 2457 2548 2777 3047 3245 3396 3714 3769 3718 3681 3591 3448 3093 2848 2903 2683 2609 2886 2975 3081 2729 2437 2310 2564 2843 3126 2959 3011 3143 2918 2705 2645 2710 2954 2641 2471 2629 2952 3193 3470 3589 3463 3628 3851 3823 3631 3631 3834 3850 3673 3838 3729 3412 3349 3508 3791 4086 3997 3870 3862 3788 3705 3796 3834 3925 3982 3891 4121 4192 4056 4096 4141 4288 4291 4356 4488 4123 4124 4197 4193 4365 4035 3733 3671 3786 3798 4071 4167 4011 3684 3462 3621 4045 4187 3953 3876 3997 4317 4109 4006 4036 3873 3861 3974 4055 4215 4525 -9999 -9999 -9999 -9999 -9999 -9999 -9999 4408 4458 -9999 -9999 -9999 -9999 -9999 -9999 -9999 -9999 -9999 4052 3953 3817 3782 3874 3883 3970 4104 4260 -9999 -9999 -9999 -9999 -9999 -9999 -9999 -9999 -9999 -9999 -9999 -9999 -9999
1652 1494 1307 1257 1190 1152 1149 1131 1136 1220 1374 1487 1571 1573 1518 1562 1641 1574 1649 1797 1803 1803 1637 1823 1858 1847 1824 1826 1851 1860 1854 1881 1878 1906 2005 2127 2237 2265 2365 2422 2434 2437 2439 2384 2391 2392 2429 2430 2475 2352 2305 2276 2238 2193 2178 2187 2261 2296 2281 2255 2269 2123 2131 2062 1981 1992 1935 1957 1887 1990 1967 1799 1893 1875 1922 1907 1914 2027 2138 2160 2145 1977 1888 1844 1854 1793 1803 1829 1733 1684 1766 1927 2017 2040 2162 2244 2290 2279 2270 2311 2337 2307 2286 2388 2303 2117 2046 1892 2112 2057 2179 2434 2256 2103 2059 1950 1727 1619 1751 1869 2115 2173 2050 2063 2250 2251 2453 2686 2839 2832 3109 3095 2894 2748 2907 3163 2987 2852 3172 3357 3307 3233 3517 3406 3505 3560 3579 3336 3427 3330 3275 3106 2983 2924 2647 2297 1883 1961 2148 2362 2526 2657 2833 3097 3236 3428 3579 3830 3543 3428 3378 3482 3289 3017 2797 2771 2695 2433 2470 2564 2941 2834 2458 2282 2649 2866 2856 2575 2648 3008 2960 2694 2499 2507 2468 2368 2485 2873 3248 3566 3681 3735 3592 3597 3641 3680 3954 3936 3950 3992 4013 4121 3840 3551 3564 3714 3831 4123 4098 4170 4072 3883 3861 3942 4120 4214 4250 4139 4127 3864 3676 3634 3775 4017 3961 3983 4132 4303 4301 4352 4361 4259 4072 3811 3622 3371 3521 3628 3629 3562 3434 3371 3556 3676 3768 3828 3641 3802 4166 4012 3803 3709 3830 3990 4078 4077 4189 4369 4282 4282 4215 4200 4223 4278 4171 4026 4097 4196 -9999 -9999 -9999 -9999 -9999 -9999 -9999 -9999 3940 3901 3870 3709 3766 3799 3899 4037 -9999 -9999 -9999 -9999 -9999 -9999 -9999 -9999 -9999 -9999 -9999 -9999 -9999 -9999
-9999 1623 1428 1386 1274 1202 1170 1163 1160 1145 1259 1321 1274 1301 1361 1354 1375 1475 1513 1667 1601 1509 1693 1782 1796 1803 1738 1736 1776 1826 1816 1804 1851 1885 1927 2027 2179 2173 2235 2316 2407 2416 2386 2334 2356 2420 2463 2451 2429 2376 2398 2352 2256 2208 2196 2162 2158 2219 2204 2212 2255 2300 2257 2164 2141 2122 2108 2106 2159 2155 2064 1923 1766 1795 1870 1926 1918 1938 2056 2020 1952 1895 1843 1790 1777 1756 1735 1715 1694 1715 1869 1964 2075 2112 2173 2377 2389 2372 2345 2342 2378 2401 2373 2416 2498 2265 2166 1982 2004 2386 2442 2417 2341 2264 2191 2020 1799 1667 1946 1945 1951 2209 2498 2540 2655 2807 2928 3066 3260 3276 3444 3351 3343 3197 3108 3405 3231 3075 3394 3744 3597 3450 3861 3798 3992 3971 3679 3514 3753 3674 3464 3258 3027 2847 2450 2146 1884 1875 2020 2268 2541 2939 3062 3163 3327 3395 3474 3794 3735 3500 3382 3364 3493 3281 3170 2991 2703 2565 2242 2325 2552 2361 2370 2213 2387 2374 2464 2335 2447 2512 2507 2548 2508 2284 2451 2654 2786 3020 3285 3185 3315 3421 3199 3412 3313 3451 3697 3688 3610 3634 3809 4060 3964 3738 3772 4053 4019 3864 3865 3908 4154 4165 4061 4135 4140 4107 4250 4116 3940 3794 3625 3511 3418 3666 3757 3622 3674 3825 3826 3970 4285 4022 3660 3690 3612 3388 3162 3148 3148 3246 3222 3287 3324 3348 3339 3406 3429 3525 3641 3587 3612 3759 4070 4122 4201 4306 4318 4397 4137 4004 3932 3850 3920 3941 4004 3948 3744 3912 4053 4043 3989 3998 3977 -9999 -9999 4168 4030 3930 3700 3710 3854 3954 3956 -9999 -9999 -9999 -9999 -9999 -9999 -9999 -9999 -9999 -9999 -9999 -9999 -9999 -9999 -9999
-9999 1735 1572 1579 1469 1344 1320 1272 1269 1250 1180 1217 1248 1185 1181 1256 1286 1302 1371 1506 1438 1484 1687 1692 1694 1707 1651 1726 1761 1740 1781 1772 1805 1850 1930 1950 2045 2058 2156 2239 2332 2329 2303 2307 2276 2316 2352 2432 2486 2475 2427 2386 2327 2304 2284 2239 2128 2160 2195 2218 2304 2380 2290 2274 2274 2290 2334 2339 2165 2013 1863 1831 1858 1873 1905 1924 1947 2029 2098 2084 2017 1870 1884 1876 1820 1822 1802 1831 1744 1708 1763 1896 2004 2085 2266 2450 2509 2472 2431 2412 2414 2490 2509 2435 2536 2412 2294 2097 2067 2306 2386 2334 2243 2183 2113 1983 1874 1677 1817 1935 2312 2443 2678 2841 3064 3268 3446 3540 3581 3515 3707 3632 3697 3382 3336 3636 3458 3221 3485 3848 3742 3592 3902 4121 3895 3822 3621 3680 3594 3384 3055 2895 2789 2745 2502 2236 2153 1817 1825 2252 2638 2655 2811 2762 2881 3003 3125 3538 3507 3328 3312 3237 3421 3258 3309 3258 2974 2595 2297 2153 2131 2229 2310 2292 2324 2359 2302 2252 2335 2346 2375 2400 2376 2471 2380 2363 2454 2661 2914 2807 3017 3096 2897 3183 3075 3270 3299 3388 3673 3761 3935 4111 3932 4011 3995 4065 3818 3743 3617 3588 3781 4004 4178 4041 3855 3762 3864 4127 4106 3895 3754 3639 3385 3243 3475 3609 3354 3408 3688 3816 3833 3600 3402 3174 3116 3098 3314 3509 3564 3609 3718 3789 3767 3695 3712 3697 3571 3620 3510 3558 3651 3766 3995 4295 4429 4435 4294 4187 4354 4197 4198 3983 3791 3686 3662 3628 3608 3754 3863 3903 3728 3737 3844 3983 3922 3878 3904 3768 3643 3932 3886 4009 -9999 -9999 -9999 -9999 -9999 -9999 -9999 -9999 -9999 -9999 -9999 -9999 -9999 -9999 -9999 -9999
-9999 -9999 1708 1717 1528 1450 1448 1383 1413 1285 1259 1385 1372 1335 1241 1203 1189 1252 1338 1402 1338 1491 1654 1653 1653 1647 1635 1709 1723 1698 1664 1738 1768 1818 1868 1919 1985 2049 2123 2180 2250 2240 2224 2222 2208 2324 2378 2499 2569 2528 2506 2426 2341 2296 2298 2230 2157 2153 2181 2213 2343 2398 2404 2391 2376 2323 2209 2229 2125 1948 1861 1902 1899 1873 1954 1999 2021 2106 2076 1993 1933 1918 1951 1890 1825 1908 1888 1899 1822 1760 1766 1819 1949 2062 2204 2268 2504 2505 2461 2454 2459 2523 2536 2504 2539 2597 2458 2211 2201 2352 2334 2254 2183 2131 2051 1932 1830 1693 1959 2022 2353 2613 2793 2820 2894 3151 3271 3466 3718 3593 3841 3862 3830 3487 3433 3671 3508 3314 3506 3901 3805 3676 4006 4033 3960 3804 3667 3775 3629 3455 3079 2779 2557 2507 2304 2123 1981 1890 1799 2152 2482 2528 2555 2630 2686 2998 3177 3484 3442 3153 3065 3049 3214 3061 3045 3115 2996 2651 2357 2164 2220 2452 2554 2550 2590 2618 2571 2400 2462 2513 2594 2650 2565 2695 2608 2431 2382 2491 2696 2670 2837 2949 2755 3026 3016 3125 3125 3458 3600 3639 3762 4002 3771 3825 3815 3881 3638 3589 3462 3458 3688 3999 4145 3957 3744 3608 3694 3917 4097 3987 3828 3682 3484 3228 3277 3434 3363 3244 3508 3659 3621 3396 3201 3051 3113 3319 3479 3598 3762 3750 3821 3977 3867 3922 3968 3929 3745 3861 3624 3804 3729 3740 4012 4340 4529 4403 4180 4088 4293 4246 4283 4129 3921 3793 3738 3640 3545 3653 3718 3812 3698 3736 3841 3873 3806 3865 3772 3693 3694 3880 4036 4064 -9999 -9999 -9999 -9999 -9999 -9999 -9999 -9999 -9999 -9999 -9999 -9999 -9999 -9999 -9999 -9999
-9999 -9999 -9999 -9999 1712 1622 1554 1537 1384 1294 1355 1420 1534 1643 1536 1488 1330 1307 1286 1224 1316 1446 1572 1567 1528 1578 1604 1565 1534 1587 1645 1690 1784 1781 1836 1991 2022 2019 2050 2154 2130 2119 2107 2117 2204 2363 2550 2647 2739 2737 2603 2403 2309 2232 2207 2186 2161 2258 2273 2237 2296 2336 2344 2330 2236 2167 2108 2075 2007 2029 2022 2015 1871 1881 1899 1956 1990 2070 2109 2013 2048 2090 2043 1957 1924 2005 2057 2071 1867 1795 1762 1827 1907 1941 2089 2276 2434 2535 2536 2486 2460 2573 2601 2633 2680 2579 2503 2439 2468 2423 2335 2154 2026 1964 1859 1744 1831 1734 1776 1940 2106 2293 2373 2321 2430 2530 2984 3159 3346 3544 3493 3694 3729 3819 3761 3990 3882 3622 3572 3751 3914 3984 3988 3998 3961 3899 4066 4136 3867 3598 3153 2892 2850 2704 2698 2636 2433 2028 1839 1880 2113 2111 2313 2556 2934 3129 3206 3439 3126 3062 3005 2797 3010 2798 2641 2733 2909 2545 2187 2131 2593 2994 3018 3046 3089 2934 2728 2711 2825 2827 2810 2994 2884 2961 2773 2854 2701 2681 2518 2537 2532 2544 2596 2650 2759 2799 3019 3170 3283 3376 3617 3888 3705 3418 3409 3606 3514 3183 3195 3517 3823 4032 3933 3813 3736 3464 3376 3581 3885 3847 3729 3649 3571 3322 3044 3095 3290 3106 3184 3182 3117 3018 3113 3379 3491 3717 3887 3803 3960 3948 3941 4055 3952 4023 4259 3962 4003 4050 3838 4114 3846 3919 4209 4308 4411 4278 4127 3980 3882 3976 4079 4339 4105 4126 4088 3962 3709 3491 3520 3613 3677 3559 3608 3583 3605 3623 3581 3548 3662 3735 3867 3975 -9999 -9999 -9999 -9999 -9999 -9999 -9999 -9999 -9999 -9999 -9999 -9999 -9999 -9999 -9999 -9999
-9999 -9999 -9999 -9999 1768 1703 1528 1479 1476 1427 1332 1382 1535 1609 1677 1653 1559 1573 1529 1428 1355 1256 1342 1465 1512 1529 1513 1452 1490 1558 1592 1645 1726 1697 1812 1950 1936 1958 2003 2031 2034 2051 2045 2204 2342 2371 2424 2554 2758 2700 2652 2541 2327 2236 2212 2129 2099 2235 2290 2305 2352 2450 2459 2403 2404 2298 2228 2183 2170 2067 2051 1952 1975 2002 2016 2033 2027 2045 2156 2081 2123 2171 2100 2020 2077 2141 2084 2033 1941 1871 1764 1828 2041 2081 2221 2138 2233 2354 2474 2423 2309 2407 2485 2689 2897 2887 2802 2603 2492 2348 2273 2093 1988 1894 1833 1910 2114 1867 1946 1878 1907 1878 2008 2118 2144 2483 2707 2827 3018 3171 3106 3349 3410 3518 3558 3709 3875 4012 4040 4107 4073 3832 3602 3567 3583 3755 3972 3818 3786 3740 3471 3371 3207 3144 2894 2523 2282 2032 1967 1848 1825 1968 2119 2513 2858 3135 3257 3169 3085 2771 2682 2608 2927 2818 2541 2424 2422 2340 2068 2238 2667 2853 2829 2904 3021 3144 3110 3127 3074 3187 3246 3208 3313 3275 3102 3126 3033 3056 2794 2816 2958 2837 2973 2965 2926 2966 3164 3289 3437 3519 3691 3849 3620 3435 3226 3290 3316 3064 3258 3481 3683 3620 3706 3592 3379 3235 3190 3447 3549 3432 3381 3283 3216 3127 2949 2913 2937 2962 2969 2970 3114 3348 3540 3596 3734 4097 3981 3973 4166 4009 4154 4073 4067 4169 4232 4043 4070 4116 4014 4136 4035 4019 4083 4318 4193 4156 4024 3791 3617 3838 3972 3998 3965 3819 3822 3860 3865 3700 3564 3497 3457 3442 3459 3477 3515 3533 3569 3554 3648 3732 3848 3952 -9999 -9999 -9999 -9999 -9999 -9999 -9999 -9999 -9999 -9999 -9999 -9999 -9999 -9999 -9999 -9999
-9999 -9999 -9999 -9999 -9999 1781 1679 1684 1603 1511 1412 1511 1478 1520 1680 1675 1639 1571 1539 1510 1420 1312 1250 1355 1395 1386 1414 1456 1463 1451 1492 1634 1711 1643 1830 1811 1838 1865 1900 1923 1946 1976 2110 2295 2436 2491 2511 2619 2438 2400 2345 2515 2285 2255 2177 2102 2160 2168 2235 2288 2345 2416 2499 2499 2476 2429 2331 2317 2252 2188 2010 2083 2096 2175 2153 2179 2160 2176 2229 2219 2232 2266 2271 2178 2232 2138 2077 2050 1935 1878 1779 1888 1861 1879 1906 1952 2012 2116 2273 2255 2235 2341 2395 2529 2779 2825 2800 2579 2446 2302 2214 2031 1883 1908 1941 2016 2118 2150 2195 2009 2212 2260 1963 2138 2606 2479 2453 2502 2649 2663 2756 2950 2955 3030 3141 3394 3452 3617 3876 3886 3891 3570 3359 3146 3381 3477 3637 3466 3351 3446 3578 3759 3289 3068 2780 2622 2466 2445 2327 2176 1834 1986 2137 2471 2581 2855 3058 2996 2841 2862 2680 2458 2723 2641 2450 2538 2369 2123 2155 2347 2635 2536 2758 2759 2860 3077 3057 2990 3073 3331 3272 3227 3112 3264 3436 3441 3372 3277 3175 3168 3255 3238 3298 3176 3093 3254 3351 3594 3729 3718 3536 3509 3545 3322 3245 2988 3084 2959 3136 3450 3392 3209 3349 3507 3301 3031 3106 3382 3320 3148 3108 3042 2932 2892 3086 3092 3318 3306 3345 3272 3129 3228 3537 3773 3919 4189 4225 4395 4460 4231 4299 4258 4462 4658 4350 4153 4195 4214 4171 4379 4346 4247 4221 4361 4176 4071 3877 3820 3589 3552 3674 3827 3606 3791 3642 3673 3675 3524 3467 3405 3596 3722 3667 3749 3686 3648 3787 3761 3684 3717 3783 3860 -9999 -9999 -9999 -9999 -9999 -9999 -9999 -9999 -9999 -9999 -9999 -9999 -9999 -9999 -9999 -9999
-9999 -9999 -9999 -9999 -9999 -9999 -9999 1777 1590 1509 1441 1515 1576 1540 1668 1716 1628 1609 1567 1481 1452 1409 1315 1241 1295 1362 1365 1408 1397 1419 1551 1714 1658 1635 1733 1764 1803 1819 1837 1887 2054 2079 2129 2193 2299 2431 2527 2552 2324 2390 2250 2416 2266 2116 2052 2167 2227 2199 2258 2314 2464 2418 2546 2530 2488 2414 2389 2358 2257 2200 2063 2083 2134 2235 2262 2270 2252 2266 2309 2343 2359 2380 2283 2214 2232 2134 2083 2020 1897 1864 1787 1893 1980 1999 2006 2061 2038 2029 2094 2150 2245 2410 2500 2678 2748 2779 2748 2503 2391 2289 2208 2007 1892 2114 2111 2079 2292 2217 2176 2041 2330 2408 2027 2094 2551 2662 2675 2762 2790 2879 2927 2873 2918 3024 3124 3251 3317 3467 3727 3827 3786 3503 3200 3021 3270 3253 3473 3357 3193 3302 3337 3705 3454 3248 2965 2887 2693 2639 2571 2316 1916 2002 2138 2351 2556 2891 2951 2878 2782 2749 2714 2389 2590 2539 2306 2382 2341 2100 2159 2330 2510 2495 2572 2565 2865 3124 2968 3020 3149 3270 3145 3065 2983 3229 3309 3461 3339 3393 3397 3371 3420 3416 3479 3341 3262 3308 3532 3750 3584 3584 3361 3361 3591 3350 3202 2911 2953 3066 3231 3497 3335 3062 3192 3343 3192 2959 3061 3296 3179 3047 2920 2859 2882 3049 3192 3238 3407 3497 3458 3358 3304 3103 3357 3619 3729 4052 4211 4464 4451 4324 4358 4404 4395 4608 4380 4208 4326 4246 4235 4517 4477 4401 4308 4331 4226 4175 3999 3989 3645 3437 3560 3700 3504 3637 3587 3530 3465 3379 3384 3505 3633 3895 3819 3924 3790 3740 3837 3927 3764 3725 3858 -9999 -9999 -9999 -9999 -9999 -9999 -9999 -9999 -9999 -9999 -9999 -9999 -9999 -9999 -9999 -9999 -9999
-9999 -9999 -9999 -9999 -9999 -9999 -9999 -9999 1770 1579 1552 1535 1621 1691 1709 1763 1684 1618 1623 1568 1494 1418 1327 1265 1230 1286 1323 1378 1421 1575 1610 1615 1592 1623 1647 1694 1812 1860 1951 2057 2270 2341 2283 2588 2562 2633 2620 2454 2250 2251 2226 2219 2160 2008 2081 2296 2334 2268 2372 2469 2502 2510 2503 2571 2559 2541 2419 2393 2390 2317 2151 2234 2292 2389 2356 2449 2458 2510 2452 2595 2589 2379 2355 2294 2235 2167 2111 1997 1873 1836 1874 1942 2044 2163 2213 2284 2199 2158 2230 2305 2315 2489 2489 2721 2687 2702 2727 2595 2471 2344 2209 1995 2006 2274 2351 2372 2444 2438 2177 2218 2448 2575 2276 2193 2164 2233 2300 2383 2524 2911 3206 3333 3378 3521 3593 3630 3650 3733 3803 3684 3582 3294 3086 2823 2864 3033 3250 3252 3096 2982 3156 3414 3454 3524 3496 3397 3088 2811 2734 2370 2043 1877 1900 2248 2487 2445 2441 2422 2572 2562 2408 2221 2349 2173 2110 2093 2021 2009 2097 2130 2265 2315 2436 2480 2532 2651 2733 2758 2874 2823 2818 2883 2941 3064 3313 3130 3121 3383 3296 3225 3364 3325 3411 3632 3661 3682 3631 3585 3489 3333 3066 3248 3570 3245 3161 2869 2780 3092 3264 3146 3141 2915 2895 2959 3082 2873 3012 2963 2859 2816 2986 3047 3167 3352 3367 3473 3647 3793 3751 3673 3562 3320 3159 3428 3577 3746 4012 4004 4022 4150 4177 4193 4235 4330 4490 4476 4478 4426 4447 4411 4136 4023 3900 4046 4163 4170 3941 3874 3751 3441 3340 3561 3373 3299 3340 3379 3582 3723 3750 3890 3930 4056 4079 3979 4035 3895 3937 3974 3799 3832 3865 3907 -9999 -9999 -9999 -9999 -9999 -9999 -9999 -9999 -9999 -9999 -9999 -9999 -9999 -9999 -9999 -9999
-9999 -9999 -9999 -9999 -9999 -9999 -9999 -9999 1778 1630 1623 1677 1684 1777 1909 1858 1763 1685 1660 1599 1554 1409 1313 1268 1251 1232 1307 1492 1513 1448 1488 1462 1521 1577 1689 1796 1913 2017 2151 2353 2329 2462 2671 2509 2266 2314 2350 2272 2118 1989 2026 1978 1925 2077 2147 2270 2451 2418 2384 2512 2684 2739 2680 2647 2731 2628 2538 2456 2355 2270 2295 2404 2303 2507 2601 2516 2650 2677 2695 2595 2513 2480 2373 2247 2201 2133 2089 1990 1849 1861 2052 2179 2210 2219 2394 2339 2306 2250 2250 2385 2420 2604 2749 2708 2619 2598 2595 2551 2363 2338 2246 2070 1950 2151 2223 2336 2592 2491 2274 2292 2436 2699 2642 2750 2588 2723 2636 2713 2581 2570 2821 2903 2953 3101 3280 3447 3509 3557 3744 3454 3295 3089 2938 2889 2794 2698 2801 3007 3020 2825 3030 3107 2944 2997 3049 3023 2914 2514 2365 2238 2046 1963 1901 1897 1906 1968 1957 1958 2082 2152 2139 2053 1993 1986 1979 1976 2030 2181 2336 2278 2266 2323 2288 2307 2321 2392 2441 2564 2601 2582 2788 2908 3011 3244 3052 2956 3135 3186 2997 3001 3037 3095 3223 3420 3590 3604 3359 3262 3486 3303 2926 3136 3439 3342 3184 2865 2740 2975 2944 2797 2681 2679 2696 2713 2727 2737 2771 2847 2943 3061 3014 3013 3221 3581 3692 3737 3824 4026 3985 3852 3548 3583 3413 3242 3277 3454 3554 3638 3714 3746 3849 4056 4048 4116 4249 4201 4267 4437 4267 4084 4045 3970 3639 3744 3817 3837 3802 3505 3510 3345 3264 3269 3459 3631 3546 3429 3477 3614 3662 3823 3887 4068 4051 4229 4358 4134 4000 4006 3960 3918 4074 -9999 -9999 -9999 -9999 -9999 -9999 -9999 -9999 -9999 -9999 -9999 -9999 -9999 -9999 -9999 -9999 -9999
-9999 -9999 -9999 -9999 -9999 -9999 -9999 -9999 1870 1747 1756 1781 1833 1904 1784 1727 1713 1657 1571 1504 1480 1405 1382 1317 1284 1247 1298 1385 1355 1417 1458 1490 1660 1727 1822 2010 2152 2232 2429 2678 2717 2620 2609 2411 2358 2040 2066 2263 2093 2119 1998 1895 2161 2319 2325 2309 2390 2547 2427 2500 2554 2717 2893 2839 2775 2705 2609 2692 2630 2425 2490 2515 2457 2653 2752 2779 2850 2684 2483 2378 2356 2258 2353 2252 2265 2272 2111 1933 1903 1991 2031 2189 2394 2419 2545 2568 2390 2334 2461 2403 2566 2768 2727 2659 2577 2440 2472 2397 2217 2181 2178 2095 2006 2068 2127 2205 2446 2586 2519 2435 2607 2786 3117 3175 3092 3091 3153 3106 3083 3072 2734 2915 3089 3241 3105 3154 3275 3561 3631 3428 3374 3301 3267 3228 2987 2880 2751 2608 2719 2649 2869 2733 2804 2639 2632 2524 2522 2519 2361 2031 2193 2201 1984 1863 2196 2391 2380 2252 2112 2109 2099 2101 2151 2081 2214 2317 2369 2402 2497 2453 2500 2555 2554 2620 2584 2653 2537 2623 2625 2677 2935 3046 3180 2959 2956 2984 3025 2832 2919 3058 3323 3396 3351 3492 3276 3222 3227 2980 3286 3228 2838 3031 3166 3015 3059 2952 2672 2636 2668 2760 2892 2946 2991 3004 3009 3134 3084 3059 3231 3357 3303 3201 3201 3364 3620 3759 3968 4161 3979 3858 3799 3772 3664 3483 3451 3506 3539 3561 3590 3774 3723 3737 3778 3893 4002 4127 4392 4454 4109 3851 3760 3769 3650 3437 3496 3573 3681 3488 3239 3392 3321 3407 3586 3785 3773 3783 3721 3636 3599 3598 3722 3813 3967 4053 4136 4192 4260 4291 4209 4195 4203 -9999 -9999 -9999 -9999 -9999 -9999 -9999 -9999 -9999 -9999 -9999 -9999 -9999 -9999 -9999 -9999 -9999
-9999 -9999 -9999 -9999 -9999 -9999 -9999 -9999 1946 1936 1820 1896 1926 1811 1696 1657 1689 1583 1590 1515 1479 1427 1391 1326 1304 1280 1254 1300 1343 1379 1394 1506 1603 1639 1821 1890 2055 2103 2197 2434 2587 2618 2371 2454 2199 1989 1911 2036 2153 1901 1816 2071 2302 2375 2434 2464 2553 2596 2590 2645 2772 2782 2971 2989 2974 2900 2859 2872 2689 2701 2680 2632 2735 2799 2674 2632 2600 2639 2455 2338 2273 2188 2145 2127 2090 2255 2120 1941 2007 2089 2217 2319 2446 2480 2603 2606 2514 2465 2534 2470 2679 2722 2686 2608 2516 2433 2343 2294 2407 2342 2293 2161 2073 2131 2256 2452 2413 2553 2665 2726 2860 3127 3392 3508 3527 3519 3496 3383 3438 3110 2819 2979 3135 3416 3433 3221 3315 3593 3897 3694 3614 3660 3578 3533 3298 3317 3095 2791 2550 2549 2509 2469 2469 2470 2464 2623 2355 2252 2208 2282 2551 2317 2177 1899 1969 2285 2443 2364 2287 2207 2199 2298 2348 2218 2284 2342 2500 2375 2327 2314 2318 2381 2571 2554 2511 2527 2634 2604 2609 2763 2838 2804 2814 2652 2824 2878 2728 2994 3176 3396 3436 3494 3600 3288 3108 2982 3088 2878 2879 3007 2912 2759 2810 2674 2646 2590 2707 2869 2915 2897 2882 3172 3275 3203 3167 3401 3402 3201 3402 3610 3395 3489 3494 3484 3501 3568 3758 4058 4018 3965 3981 3912 3985 3713 3759 3842 4012 3862 3850 4141 4035 4035 4029 4112 4135 4295 4234 4125 3991 3877 3747 3669 3569 3577 3330 3280 3362 3273 3411 3533 3413 3676 3782 3852 3826 3961 3999 3907 3799 3779 3859 3914 3836 4023 4141 4052 4157 -9999 -9999 -9999 -9999 -9999 -9999 -9999 -9999 -9999 -9999 -9999 -9999 -9999 -9999 -9999 -9999 -9999 -9999 -9999 -9999 -9999
-9999 -9999 -9999 -9999 -9999 -9999 -9999 -9999 1995 2007 1909 1936 1845 1752 1715 1706 1748 1598 1596 1513 1494 1468 1437 1352 1340 1291 1254 1271 1298 1340 1390 1507 1563 1616 1691 1800 1914 1981 2273 2541 2403 2459 2252 2268 2295 2046 1898 1989 1988 1804 1846 2007 2242 2344 2423 2558 2639 2636 2739 2802 2873 2835 2837 2818 2961 2827 2868 2907 2814 2816 2801 2807 2761 2643 2512 2478 2477 2591 2474 2361 2288 2260 2206 2101 2075 2208 2182 1958 2031 2082 2168 2270 2535 2596 2553 2589 2610 2582 2593 2621 2719 2675 2645 2580 2487 2418 2347 2291 2534 2356 2295 2197 2102 2128 2243 2461 2537 2562 2628 2693 2953 3235 3365 3466 3707 3726 3698 3626 3506 3175 2915 2920 3064 3215 3302 3354 3323 3616 3784 3487 3363 3433 3579 3577 3535 3498 3181 2927 2753 2695 2700 2675 2694 2671 2683 2859 2548 2508 2463 2556 2677 2541 2367 2155 1880 2267 2288 2106 2046 2046 2080 2145 2326 2330 2328 2371 2445 2366 2230 2184 2280 2466 2576 2588 2425 2461 2583 2514 2506 2616 2872 2715 2604 2675 2956 2751 2735 3090 3198 3369 3421 3512 3526 3355 3103 2971 2907 2968 2706 2835 2864 2615 2592 2576 2600 2662 2921 2989 3123 3077 2937 3019 3135 3335 3237 3376 3499 3336 3511 3704 3511 3602 3604 3590 3639 3701 3719 4055 4087 4054 4007 4044 4064 3846 3836 3970 4049 4074 4062 4185 4064 4166 4121 4200 4208 4421 4280 4169 4014 3910 3947 3882 3765 3742 3469 3360 3219 3182 3413 3649 3568 3547 3736 3906 3947 4028 4127 4012 3900 3906 4046 3985 3904 3991 4016 3938 4056 4061 -9999 -9999 -9999 -9999 -9999 -9999 -9999 -9999 -9999 -9999 -9999 -9999 -9999 -9999 -9999 -9999 -9999 -9999 -9999 -9999
-9999 -9999 -9999 -9999 -9999 -9999 -9999 -9999 -9999 2048 1913 1856 1868 1903 1838 1836 1703 1685 1614 1605 1644 1537 1425 1458 1381 1339 1316 1286 1268 1322 1377 1437 1567 1666 1868 2038 2278 2357 2461 2435 2166 2104 2058 1907 2095 2007 1867 1842 1764 1923 1958 2189 2209 2382 2451 2662 2693 2595 2588 2719 2882 2598 2675 2568 2801 2702 2866 2902 2710 2678 2693 2732 2570 2423 2346 2437 2478 2487 2496 2515 2503 2446 2278 2164 2114 2033 2132 1966 2073 2174 2310 2406 2477 2552 2488 2589 2478 2552 2603 2466 2468 2529 2537 2483 2415 2350 2293 2360 2490 2459 2352 2288 2136 2091 2163 2338 2477 2510 2485 2494 2692 2792 3208 3332 3461 3375 3514 3571 3492 3454 3249 3052 2972 3133 3457 3640 3720 3759 3637 3246 3109 2999 3261 3132 3174 3267 3442 3302 2987 2838 2714 2873 2975 3059 3005 3077 3091 3058 2874 2659 2356 2273 2244 2042 1896 1927 1935 1865 1889 1878 1929 2020 2091 2117 2134 2154 2255 2250 2125 2163 2363 2451 2387 2430 2396 2271 2377 2362 2444 2565 2586 2503 2669 2929 2806 2562 2622 2718 2900 3016 3310 3442 3349 3055 3113 3040 2687 2806 2659 2556 2530 2573 2745 2904 2874 2830 3120 3417 3471 3456 3228 3325 3232 3317 3437 3538 3653 3555 3616 3881 3666 3742 3838 3865 3882 3973 3876 3999 4276 4287 4230 4032 4031 4143 4123 4072 4113 4060 3925 3762 3886 3947 4030 4042 4096 4180 4457 4487 4121 4130 4168 4007 3791 3479 3280 3188 3208 3336 3527 3762 3806 3776 3814 3761 3784 3999 4243 4211 4103 4139 4202 4162 4120 3979 3817 3771 3842 3913 -9999 -9999 -9999 -9999 -9999 -9999 -9999 -9999 -9999 -9999 -9999 -9999 -9999 -9999 -9999 -9999 -9999 -9999 -9999 -9999
-9999 -9999 -9999 -9999 -9999 -9999 -9999 -9999 -9999 2024 2006 2036 1944 1866 1830 1826 1776 1770 1709 1656 1566 1539 1574 1500 1542 1422 1382 1321 1304 1278 1292 1353 1555 1663 1837 2045 2231 2301 2264 2200 1985 1988 1792 1745 1708 1717 1702 1780 2023 2241 2271 2329 2388 2464 2583 2530 2449 2344 2566 2567 2779 2551 2479 2445 2511 2565 2584 2638 2448 2360 2431 2459 2428 2425 2300 2435 2452 2480 2743 2639 2617 2496 2265 2098 2182 2097 2017 1968 2108 2181 2223 2165 2320 2346 2387 2444 2506 2463 2349 2296 2289 2299 2348 2370 2354 2344 2337 2362 2441 2600 2519 2460 2337 2138 2124 2271 2379 2298 2343 2347 2467 2640 3012 2958 3023 3019 3104 3105 3244 3317 3432 3191 3180 3264 3446 3723 3769 3524 3370 3240 3062 2734 2812 2798 2951 3098 3095 3181 2961 2813 2644 2453 2768 2868 2642 2678 2882 2576 2496 2256 2234 1921 1954 2007 2093 1985 1949 2047 2024 1921 1942 1886 1921 2015 2087 2105 2116 2123 2157 2212 2268 2344 2276 2324 2239 2281 2274 2321 2391 2473 2428 2479 2630 2711 2522 2698 2866 3024 3057 3071 3240 3330 3088 3149 2824 2687 2688 2475 2645 2740 2803 2793 3137 3236 3258 3137 3044 3330 3505 3675 3577 3539 3494 3371 3640 3829 3827 3707 3740 3994 3818 3860 3996 4071 4071 4130 4146 4255 4083 3991 4038 3797 3717 3953 4027 3746 3685 3877 3803 3524 3438 3515 3564 3688 3934 4101 4395 4412 4281 4255 3996 3952 3613 3295 3222 3397 3607 3785 3802 4043 3975 4048 4121 3986 4089 3940 4089 4361 4284 4076 4020 4053 3924 3870 3722 3774 3901 3908 3842 -9999 -9999 -9999 -9999 -9999 -9999 -9999 -9999 -9999 -9999 -9999 -9999 -9999 -9999 -9999 -9999 -9999 -9999 -9999
-9999 -9999 -9999 -9999 -9999 -9999 -9999 -9999 -9999 2084 2147 2072 2012 1962 2038 2008 1918 1817 1879 1660 1695 1723 1605 1587 1559 1484 1501 1355 1334 1462 1407 1327 1411 1544 1789 1786 2008 1865 1877 1968 1744 1628 1520 1561 1724 1640 1675 1773 1800 2066 2214 2173 2190 2362 2364 2219 2100 2330 2292 2401 2491 2342 2526 2675 2675 2544 2458 2367 2291 2200 2281 2354 2301 2349 2243 2415 2339 2401 2442 2337 2284 2196 2129 2112 2114 2092 2028 2074 1991 1999 2027 2101 2123 2221 2210 2257 2245 2223 2190 2206 2226 2247 2257 2275 2337 2317 2299 2286 2335 2509 2518 2391 2249 2117 2107 2139 2218 2393 2340 2406 2639 2751 2841 2942 3101 3248 3382 3348 3344 3362 3566 3525 3553 3560 3316 3293 3409 3204 2941 3233 3234 2909 2621 2579 2768 2754 2663 2862 2696 2619 2492 2322 2356 2463 2331 2436 2406 2201 2117 2017 1977 1975 2057 2098 2226 2182 2192 2121 2152 2058 2011 1927 1898 1900 2000 2015 2066 2071 2157 2253 2220 2275 2209 2213 2223 2281 2369 2301 2236 2241 2296 2335 2366 2436 2605 2761 2831 2964 3064 3264 3202 3062 2986 2949 2669 2533 2467 2741 2935 2937 3112 2925 2941 3156 3264 3516 3471 3482 3562 3774 3880 3798 3693 3563 3695 3997 4073 3869 3845 4019 3973 4015 4195 4272 4048 3932 3835 3930 3862 3797 3860 3644 3425 3605 3688 3614 3424 3685 3583 3286 3439 3750 3841 3985 4137 4158 4317 4275 4059 3896 3699 3546 3329 3139 3310 3472 3777 3953 4245 4210 4097 4190 4194 4138 4248 4110 4180 4157 4118 4173 3904 3855 3812 3580 3747 3879 3809 3813 3705 3821 -9999 -9999 -9999 -9999 -9999 -9999 -9999 -9999 -9999 -9999 -9999 -9999 -9999 -9999 -9999 -9999 -9999 -9999
-9999 -9999 -9999 -9999 -9999 -9999 -9999 -9999 2226 2177 2155 2097 2126 2070 2080 2000 1945 1881 1962 1738 1813 1857 1719 1729 1651 1540 1485 1363 1393 1582 1505 1489 1317 1432 1552 1726 1944 1784 1717 1837 1751 1587 1624 1600 1515 1468 1466 1649 1760 2101 2055 1979 2172 2174 2172 1984 2041 2168 2168 2285 2302 2383 2663 2709 2794 2673 2541 2448 2363 2221 2248 2304 2306 2215 2181 2255 2281 2436 2391 2292 2264 2245 2136 2234 2226 2127 2060 2096 2006 2028 2079 2145 2106 2124 2170 2179 2173 2170 2193 2211 2233 2259 2268 2285 2342 2353 2323 2313 2266 2349 2334 2250 2172 2213 2169 2132 2298 2486 2437 2465 2643 2772 2955 3076 3250 3365 3391 3378 3465 3523 3485 3627 3679 3457 3150 3124 3161 3226 2856 3030 3105 2985 2642 2443 2560 2644 2506 2716 2773 2712 2429 2431 2180 2266 2158 2218 2154 2049 2036 2207 2103 2055 2077 2157 2319 2289 2215 2159 2209 2115 2115 1983 1913 1902 1966 2075 2154 2145 2266 2330 2175 2145 2131 2177 2278 2380 2284 2196 2237 2390 2478 2472 2507 2591 2674 2814 2888 2853 3087 3185 3117 3015 2950 2830 2503 2435 2580 2651 2864 2994 3248 3147 2939 3141 3192 3501 3668 3705 3726 3742 3890 3908 3826 3677 3713 4010 4131 3963 3985 4077 4048 4129 4276 4186 3953 3842 3694 3752 3689 3638 3851 3669 3403 3488 3531 3565 3323 3553 3510 3223 3407 3673 3812 4026 3996 3969 4078 4160 4091 3957 3683 3600 3386 3100 3285 3448 3805 4174 4421 4210 4180 4244 4183 4304 4333 4200 4289 3977 3908 4049 3826 3671 3648 3602 3904 3805 3676 3687 3639 3693 3702 3762 -9999 -9999 -9999 -9999 -9999 -9999 -9999 -9999 -9999 -9999 -9999 -9999 -9999 -9999 -9999 -9999
-9999 -9999 -9999 -9999 -9999 -9999 -9999 -9999 -9999 -9999 -9999 -9999 2290 2242 2111 2123 2045 1976 2087 2044 2082 1999 1947 1897 1820 1625 1489 1406 1482 1681 1694 1613 1647 1722 1428 1535 1440 1396 1396 1424 1416 1399 1418 1495 1529 1601 1568 1434 1807 1967 1817 1968 2022 1817 1853 2080 2238 2371 2481 2490 2529 2569 2862 2809 2859 2696 2498 2512 2406 2167 2217 2186 2191 2121 2257 2265 2320 2500 2467 2409 2400 2232 2297 2350 2271 2120 2133 2116 2044 2038 2143 2159 2137 2189 2145 2146 2191 2185 2250 2304 2308 2350 2319 2340 2356 2442 2417 2397 2375 2271 2238 2388 2481 2404 2315 2267 2166 2363 2478 2548 2547 2565 2652 2681 2807 2874 3168 3324 3452 3211 3157 3299 3388 3424 3260 2911 2753 2803 2726 2804 2939 2942 2811 2575 2439 2352 2270 2308 2514 2510 2395 2142 2093 2144 2265 2217 2240 2257 2302 2279 2373 2297 2246 2292 2502 2360 2381 2482 2383 2232 2220 2183 2077 1948 1913 1968 2201 2388 2320 2251 2170 2102 2215 2221 2170 2178 2362 2508 2410 2458 2524 2642 2696 2781 2766 2712 2671 2774 2874 2936 2981 2947 2687 2586 2412 2552 2913 3010 2916 2903 3069 3340 3365 3396 3539 3646 3575 3477 3581 3743 3945 4110 4085 3953 3958 4114 4166 4184 4348 4194 4105 4112 4197 4076 3950 3899 3789 3587 3536 3444 3547 3533 3480 3261 3287 3463 3247 3416 3483 3203 3331 3478 3570 3728 3541 3549 3735 3842 3849 3597 3486 3350 3096 3226 3524 3673 3880 4175 4174 3975 3875 3743 3875 3856 3918 3838 4104 3856 3676 3714 3969 3705 3567 3593 3878 3679 3523 3531 3459 3602 3685 3715 3854 -9999 -9999 -9999 -9999 -9999 -9999 -9999 -9999 -9999 -9999 -9999 -9999 -9999 -9999 -9999
-9999 -9999 -9999 -9999 -9999 -9999 -9999 -9999 -9999 -9999 -9999 -9999 -9999 -9999 2260 2171 2183 2130 2169 2079 2028 1965 1855 1799 1823 1602 1519 1445 1513 1800 1866 1745 1756 1924 1875 1692 1849 1909 1886 1816 1599 1656 1613 1838 1722 1779 1749 1491 1478 1774 1662 1706 1661 1879 1971 2200 2232 2167 2320 2354 2248 2374 2494 2407 2633 2416 2391 2286 2328 2125 2027 2050 2148 2183 2275 2438 2408 2473 2584 2432 2364 2363 2389 2255 2247 2258 2136 2171 2126 2074 2159 2210 2171 2206 2182 2200 2231 2256 2291 2339 2441 2486 2512 2603 2469 2599 2601 2611 2551 2364 2356 2403 2626 2598 2535 2332 2244 2200 2270 2308 2348 2341 2387 2449 2676 2956 3071 3182 3024 3028 3289 3513 3524 3474 3145 2965 2988 2787 2623 2467 2464 2636 2764 2911 2800 2749 2621 2340 2158 2189 2122 2271 2373 2399 2434 2517 2392 2454 2615 2493 2536 2442 2479 2451 2638 2824 2755 2809 2791 2551 2588 2556 2440 2277 1947 1932 2104 2339 2180 2113 2023 2197 2259 2291 2157 2306 2443 2517 2583 2594 2611 2536 2591 2637 2671 2575 2636 2716 2650 2655 2728 2713 2588 2438 2455 2596 2741 2839 3101 3222 3336 3410 3427 3384 3328 3402 3261 3450 3597 3860 3791 3759 3848 3999 3934 3819 3887 4108 4145 3977 3731 3777 3871 3771 3873 4022 3894 3814 3639 3533 3384 3253 3269 3457 3350 3172 3162 3360 3435 3175 3158 3382 3320 3566 3369 3288 3448 3590 3700 3531 3295 3156 3091 3325 3598 3753 3906 3897 3886 3647 3530 3444 3504 3472 3564 3555 3691 3546 3492 3443 3649 3686 3650 3415 3627 3491 3386 3432 3460 3455 3645 3743 3844 3992 4101 -9999 -9999 -9999 -9999 -9999 -9999 -9999 -9999 -9999 -9999 -9999 -9999 -9999
-9999 -9999 -9999 -9999 -9999 -9999 -9999 -9999 -9999 -9999 -9999 -9999 -9999 -9999 -9999 2213 2235 2185 2071 2012 1993 1925 1805 1823 1769 1654 1554 1502 1568 1718 1920 1969 1841 1862 2093 2273 2423 2461 2436 2117 1927 2051 1915 2046 1963 1937 1895 1745 1581 1510 1533 1699 1834 2010 2010 1970 1913 1893 2009 2026 2017 2133 2187 2176 2336 2298 2113 2091 2045 1994 2022 2075 2216 2291 2279 2435 2524 2570 2677 2520 2493 2517 2465 2343 2328 2239 2277 2254 2182 2152 2136 2281 2246 2257 2273 2253 2277 2320 2373 2460 2616 2772 2807 2782 2750 2669 2598 2491 2491 2619 2611 2394 2597 2782 2636 2553 2399 2349 2304 2284 2366 2446 2537 2541 2577 2666 2797 2905 2928 3230 3474 3187 3059 3213 3218 3252 3259 3173 2903 2739 2569 2358 2472 2717 2623 2685 2590 2272 2169 2265 2401 2368 2455 2533 2645 2563 2505 2687 2824 2846 2870 2884 2738 2772 2888 3096 3236 3103 3068 2836 2909 2881 2591 2208 1989 2165 2041 1942 2008 2157 2206 2347 2569 2607 2435 2376 2328 2438 2487 2481 2447 2414 2462 2544 2484 2602 2628 2526 2591 2545 2578 2640 2546 2375 2466 2520 2650 2830 3036 3082 3215 3115 3277 3187 3152 3058 3265 3532 3658 3697 3564 3621 3580 3676 3719 3728 3893 3900 3917 3774 3565 3466 3578 3515 3788 3890 3655 3701 3765 3651 3482 3263 3198 3442 3563 3437 3182 3193 3332 3359 3052 3132 3153 3357 3330 3127 3358 3487 3357 3348 3167 3020 3119 3330 3549 3492 3557 3548 3512 3404 3336 3205 3207 3233 3239 3314 3362 3221 3271 3251 3263 3285 3310 3334 3353 3493 3632 3664 3520 3479 3605 3711 3897 3804 3971 4051 -9999 -9999 -9999 -9999 -9999 -9999 -9999 -9999 -9999 -9999 -9999 -9999
-9999 -9999 -9999 -9999 -9999 -9999 -9999 -9999 -9999 -9999 -9999 -9999 -9999 -9999 -9999 -9999 -9999 2198 2095 1973 1944 1880 1893 1952 1891 1644 1582 1505 1537 1696 1951 2080 1914 1964 2023 2227 2410 2515 2613 2332 2066 2155 2069 2121 2096 2055 1965 1936 1751 1484 1480 1640 1841 1948 1887 1827 1805 1837 1887 1922 1947 2018 2059 2103 2160 2132 2093 2000 2084 1949 2011 2125 2159 2278 2370 2372 2414 2544 2682 2599 2582 2628 2545 2423 2369 2294 2313 2348 2259 2223 2223 2275 2316 2313 2347 2297 2317 2351 2460 2618 2654 2669 2678 2663 2640 2568 2519 2488 2527 2711 2676 2460 2562 2857 2763 2557 2359 2425 2403 2353 2408 2581 2779 2840 2870 2909 2772 2863 2918 3226 3430 3120 2940 3047 2998 3068 3017 3071 2955 2842 2777 2483 2299 2595 2496 2493 2411 2168 2331 2405 2439 2456 2525 2603 2740 2683 2679 2798 2959 3033 3034 2965 2887 2968 3050 3300 3438 3268 3169 2991 2858 2706 2428 2090 2144 2323 2308 2092 1949 1975 1993 2172 2403 2523 2498 2491 2424 2389 2471 2458 2384 2423 2498 2511 2507 2614 2601 2508 2546 2538 2541 2567 2538 2355 2439 2502 2676 2829 2933 3010 3103 3018 3248 3092 3008 3051 3239 3506 3506 3535 3443 3500 3510 3552 3574 3720 3815 3732 3768 3760 3606 3459 3391 3503 3774 3882 3634 3524 3653 3584 3366 3204 3109 3348 3490 3579 3282 3077 3220 3417 3154 2996 3068 3223 3298 3061 3263 3356 3260 3254 3125 2994 3183 3394 3390 3339 3422 3413 3336 3231 3166 3131 3145 3159 3177 3213 3195 3297 3413 3315 3397 3368 3394 3362 3521 3597 3771 3645 3647 3493 3666 3789 3776 3825 3928 4025 -9999 -9999 -9999 -9999 -9999 -9999 -9999 -9999 -9999 -9999 -9999 -9999
-9999 -9999 -9999 -9999 -9999 -9999 -9999 -9999 -9999 -9999 -9999 -9999 -9999 -9999 -9999 -9999 -9999 2203 2100 2099 2112 2016 2100 2017 1978 1730 1604 1553 1556 1693 1876 2105 2133 2113 2138 2211 2427 2521 2665 2534 2386 2424 2424 2401 2338 2305 2339 2253 2014 1671 1523 1520 1680 1688 1692 1668 1691 1734 1798 1777 1848 1903 1966 1894 1937 1929 1895 1915 1890 1928 2006 2078 2171 2376 2363 2504 2580 2620 2612 2546 2619 2641 2568 2536 2489 2445 2419 2397 2317 2323 2388 2261 2474 2482 2467 2422 2461 2443 2397 2442 2492 2472 2459 2478 2563 2580 2545 2599 2740 2856 2744 2557 2577 2676 2702 2519 2583 2582 2526 2495 2501 2839 3171 3329 3412 3128 3067 3180 3038 3142 3305 2989 2847 2699 2865 2765 2737 2746 2795 2670 2517 2639 2340 2427 2220 2179 2262 2262 2305 2403 2496 2636 2772 2814 3063 3212 3194 3284 3246 3344 3331 3253 3191 3421 3479 3569 3552 3119 2803 2757 2647 2355 2124 2090 2326 2360 2730 2409 2439 2356 2160 1971 2237 2384 2719 2633 2485 2365 2353 2357 2302 2372 2379 2450 2531 2523 2449 2536 2491 2540 2443 2457 2364 2377 2550 2655 2731 2882 2974 2924 2855 2989 2944 2830 2877 3030 3321 3176 3225 3170 3157 3233 3287 3444 3625 3662 3567 3399 3620 3466 3343 3312 3260 3530 3763 3738 3566 3306 3456 3527 3445 3213 3025 3271 3399 3557 3280 3082 2995 3289 3444 3175 3049 2944 2950 2960 3020 3021 3078 3039 2953 2969 3030 3073 3093 3064 3041 3057 3103 3223 3315 3476 3395 3304 3412 3434 3437 3641 3578 3526 3775 3551 3654 3773 3740 3907 3821 3662 3812 3640 3531 3543 3586 3786 3979 3978 4141 4121 4234 -9999 -9999 -9999 -9999 -9999 -9999 -9999 -9999 -9999
-9999 -9999 -9999 -9999 -9999 -9999 -9999 -9999 -9999 -9999 -9999 -9999 -9999 -9999 -9999 -9999 -9999 -9999 2258 2219 2226 2170 2090 1940 1841 1731 1662 1611 1618 1869 1931 2070 2137 2199 2273 2299 2391 2432 2557 2608 2453 2423 2266 2242 2301 2204 2087 1908 1826 1639 1532 1478 1500 1522 1533 1574 1612 1646 1672 1716 1817 1868 1814 1759 1769 1793 1869 1921 1932 2037 2049 2101 2205 2322 2388 2556 2663 2666 2572 2425 2481 2517 2487 2400 2376 2357 2468 2336 2223 2281 2439 2535 2501 2481 2348 2268 2313 2343 2435 2546 2412 2419 2462 2546 2643 2643 2628 2820 2745 2839 2735 2612 2633 2845 2894 2759 2811 2745 2739 2732 2798 2996 3291 3485 3658 3358 3375 3322 3086 3255 3039 2896 2932 2691 2593 2795 2667 2415 2516 2459 2419 2281 2234 2276 2365 2538 2516 2311 2297 2364 2437 2632 2804 2831 3130 3481 3725 3798 3717 3699 3710 3576 3527 3490 3224 3150 3265 3330 2991 2626 2510 2366 2086 2229 2642 2617 2903 2728 2915 2833 2483 2164 2047 2274 2605 2606 2533 2388 2336 2253 2331 2363 2383 2444 2488 2423 2423 2425 2403 2375 2325 2328 2352 2453 2573 2590 2632 2780 2918 2853 2769 2837 2731 2880 2971 3079 3132 2969 2923 3080 3369 3465 3454 3534 3680 3575 3527 3252 3295 3249 3127 3087 3341 3610 3687 3549 3334 3183 3276 3382 3347 3104 2977 3147 3241 3518 3430 3169 3043 3016 3092 2881 2847 2897 2926 2925 2905 2910 2920 2947 3017 3029 3027 3050 3097 3121 3227 3330 3474 3409 3567 3792 3499 3551 3739 3776 3772 3820 3657 3687 3986 3915 3841 3939 4158 4121 3778 3738 3846 3823 3715 3666 3607 3579 3780 3887 3886 4035 4163 -9999 -9999 -9999 -9999 -9999 -9999 -9999 -9999 -9999
-9999 -9999 -9999 -9999 -9999 -9999 -9999 -9999 -9999 -9999 -9999 -9999 -9999 -9999 -9999 -9999 -9999 -9999 -9999 2338 2357 2193 1997 1884 1846 1766 1709 1662 1677 1833 1924 2009 1950 2029 2104 2121 2330 2347 2353 2428 2377 2285 2159 2075 2047 1981 1917 1834 1753 1576 1517 1480 1493 1623 1615 1602 1602 1596 1625 1634 1664 1689 1737 1776 1915 1894 1912 1925 2046 2085 2264 2224 2261 2382 2568 2527 2486 2570 2476 2323 2348 2453 2325 2186 2183 2191 2290 2315 2180 2296 2334 2279 2203 2220 2271 2335 2446 2479 2437 2407 2358 2439 2494 2636 2802 2792 2734 2809 2912 2855 2840 2769 2777 2934 3023 3067 3073 2998 3175 3227 2978 3197 3474 3517 3650 3315 3138 3215 3283 3155 2915 2754 2689 2538 2451 2464 2363 2325 2341 2390 2473 2587 2699 2328 2441 2616 2680 2403 2347 2334 2501 2679 2866 3022 3324 3495 3468 3564 3634 3843 4051 3858 3786 3400 3122 2901 2845 2903 2992 3071 2818 2329 2053 2367 2722 2879 3081 2978 2657 2497 2330 2105 2089 2254 2508 2604 2551 2363 2309 2296 2480 2474 2413 2384 2366 2366 2301 2265 2284 2318 2346 2381 2516 2518 2513 2524 2591 2586 2679 2719 2676 2729 2713 2832 2896 2775 2823 2874 3015 3185 3282 3215 3312 3425 3584 3348 3238 3250 3056 3032 3092 3183 3295 3343 3407 3356 3183 3061 3077 3131 3128 2963 2901 3115 3242 3213 3149 3078 3075 2879 2810 2872 2910 3068 3246 3215 3224 3160 3207 3287 3413 3450 3517 3436 3498 3452 3530 3482 3797 3747 3865 3728 3672 3500 3587 3883 4150 3980 3890 3819 3827 4115 4208 4156 4216 3940 3816 3894 4099 4055 3854 3764 3761 3623 3672 3714 3795 3934 3995 4152 -9999 -9999 -9999 -9999 -9999 -9999 -9999 -9999
-9999 -9999 -9999 -9999 -9999 -9999 -9999 -9999 -9999 -9999 -9999 -9999 -9999 -9999 -9999 -9999 -9999 -9999 -9999 -9999 2209 2103 1983 1898 1866 1825 1761 1682 1672 1728 1866 1940 1868 1960 1923 2036 2063 2098 2112 2185 2275 2212 2046 2069 1989 1858 1850 1738 1785 1618 1531 1486 1493 1587 1639 1749 1678 1768 1895 1891 1824 1778 1954 1993 1925 1963 2114 2064 2168 2205 2310 2373 2402 2460 2452 2444 2365 2403 2336 2267 2189 2318 2151 2127 2090 2051 2106 2108 2175 2151 2199 2265 2234 2345 2385 2405 2327 2378 2274 2421 2424 2575 2623 2727 2770 2909 2904 2819 2967 3013 3029 2921 2991 3041 3087 3260 3375 3515 3629 3551 3195 3237 3377 3497 3542 3257 3088 2908 3122 3051 2977 2852 2768 2538 2382 2565 2675 2769 2623 2835 2899 2915 2696 2336 2658 2768 2665 2587 2514 2472 2408 2544 2924 3064 3197 3231 3216 3378 3463 3675 3957 4221 4181 3825 3162 2889 2806 2660 2733 2668 2536 2200 2263 2548 2805 2963 3188 2905 2649 2539 2263 1992 2273 2432 2692 2671 2466 2289 2215 2380 2329 2334 2330 2291 2290 2236 2268 2402 2447 2487 2604 2640 2444 2438 2465 2490 2492 2503 2562 2559 2566 2720 2889 2828 2819 2721 2912 2933 2974 2965 3027 3266 3324 3336 3465 3318 3229 3142 2975 2887 3014 3023 3092 3215 3326 3368 3204 3054 2927 3054 3172 2921 2882 3116 3152 2981 2924 2839 2797 2801 2830 3004 3099 3153 3261 3460 3442 3480 3566 3656 3704 3706 3663 3642 3648 3688 3761 3715 4028 3977 4083 3822 3966 3665 3629 3867 4029 4229 4220 4034 3892 4053 4172 4349 4065 3890 4035 4184 4376 4078 3880 3978 3847 3738 3748 3705 3709 3794 4006 4059 4161 -9999 -9999 -9999 -9999 -9999 -9999 -9999
-9999 -9999 -9999 -9999 -9999 -9999 -9999 -9999 -9999 -9999 -9999 -9999 -9999 -9999 -9999 -9999 -9999 -9999 2321 2201 2153 2070 2020 1921 1897 1922 1813 1744 1712 1674 1712 1748 1768 1785 1846 1972 1962 1988 2023 2136 2183 2187 1995 1964 1903 1821 1785 1701 1744 1613 1552 1488 1494 1670 1701 1799 1766 1881 1912 1975 1914 1912 1887 1987 2097 2143 2219 2218 2169 2185 2306 2302 2305 2374 2371 2348 2338 2312 2195 2237 2137 2158 2103 2043 2078 2082 2210 2214 2269 2233 2260 2287 2281 2377 2331 2368 2253 2256 2297 2432 2605 2532 2551 2637 2738 2875 2899 2871 2896 3011 3084 2989 3072 3172 3203 3452 3643 3580 3445 3319 3149 3232 3466 3509 3473 3314 3041 2857 3043 2886 2856 2691 2572 2380 2582 2658 2837 2968 2723 2929 3056 2859 2747 2364 2490 2666 2743 2781 2632 2662 2543 2635 2903 2984 3029 3117 3270 3344 3392 3627 3811 3918 4088 3798 3128 2773 2691 2598 2498 2424 2352 2176 2482 2791 2971 3123 2966 2898 2560 2397 2093 2082 2278 2351 2657 2546 2436 2276 2215 2324 2256 2285 2254 2244 2219 2263 2321 2503 2570 2631 2641 2605 2412 2407 2446 2424 2426 2452 2520 2522 2550 2694 2770 2724 2684 2774 2924 2840 2863 2953 3048 3199 3256 3209 3328 3256 3151 3081 3000 2852 2937 2949 3098 3230 3318 3318 3196 3028 2886 3011 3134 2883 2908 3070 2985 2902 2843 2759 2777 2809 2889 2944 2983 3146 3286 3319 3409 3532 3611 3634 3514 3512 3517 3594 3731 3769 3891 3897 4033 4171 4143 3884 4054 3768 3692 3725 3858 4055 4181 4118 4014 4210 4295 4294 4003 3954 4173 4255 4393 4067 3965 4088 3872 3871 3811 3771 3672 3815 3900 4107 4178 4275 -9999 -9999 -9999 -9999 -9999 -9999
-9999 -9999 -9999 -9999 -9999 -9999 -9999 -9999 -9999 -9999 -9999 -9999 -9999 -9999 -9999 -9999 -9999 -9999 2460 2390 2303 2233 2058 2033 2032 2094 1997 1985 1916 1746 1719 1717 1782 1746 1747 1800 1843 1882 1920 1991 2090 2133 2000 1857 1788 1749 1706 1620 1573 1530 1505 1494 1540 1587 1618 1703 1767 1867 1953 2040 2112 2098 2127 2114 2114 2034 2115 2146 2061 2096 2177 2141 2182 2225 2178 2173 2167 2146 2146 2092 2058 1952 2098 2090 2080 2137 2205 2276 2369 2348 2288 2342 2365 2330 2304 2234 2260 2333 2453 2599 2681 2709 2689 2603 2662 2697 2693 2711 2812 2987 3088 3206 3313 3593 3652 3692 3487 3350 3173 3272 3339 3501 3336 3208 3014 3010 2944 2759 2868 2747 2547 2422 2533 2657 2927 2772 2849 3132 2976 2970 2957 2737 2476 2664 2478 2614 2838 2963 3064 3043 2855 2873 2974 3105 3122 3170 3361 3621 3674 3556 3516 3729 3889 3555 2995 2873 2636 2311 2166 2209 2276 2517 2615 2917 3248 3166 2857 2589 2339 2233 2006 2206 2608 2713 2658 2460 2345 2175 2168 2160 2164 2178 2183 2210 2261 2427 2473 2648 2594 2501 2434 2418 2346 2385 2447 2467 2494 2527 2561 2575 2534 2555 2595 2649 2720 2761 2789 2852 2885 2915 3016 3107 3009 3068 3106 3133 3114 2992 2850 2793 2915 2980 3122 3037 3058 3038 3022 3030 2829 2958 3017 2911 2810 2754 2746 2735 2771 2797 2823 2932 3067 3203 3196 3220 3303 3393 3381 3345 3327 3412 3586 3654 3783 3885 3913 4018 3921 4081 4106 4202 4171 4066 4192 3952 3845 3938 3918 3963 4021 4213 4169 4371 4352 4125 4078 4242 4175 4328 4382 4085 4082 4244 4151 3958 3938 3820 3797 3707 3820 3887 3958 4090 4193 -9999 -9999 -9999 -9999 -9999
-9999 -9999 -9999 -9999 -9999 -9999 -9999 -9999 -9999 -9999 -9999 -9999 -9999 -9999 -9999 -9999 -9999 -9999 -9999 2487 2490 2324 2210 2171 2150 2053 1977 1874 1833 1802 1740 1720 1757 1771 1831 1958 2009 1990 1871 1961 2141 2210 2194 2030 1987 1936 1835 1722 1559 1508 1503 1499 1553 1663 1697 1790 1886 1934 2016 1938 1975 1927 2024 1960 1974 1962 2046 1985 1916 2014 1997 2035 2080 2031 2098 2016 2065 2036 2035 1917 1924 2127 2163 2012 2065 2158 2226 2315 2493 2423 2421 2249 2224 2333 2245 2109 2236 2263 2314 2410 2590 2533 2474 2473 2503 2526 2560 2671 2807 3044 3204 3572 3423 3384 3395 3593 3600 3406 3290 3459 3608 3271 2994 2910 2790 2686 2667 2628 2524 2581 2602 2564 2701 2949 3123 3113 3146 3226 3067 2854 2763 2598 2583 2859 2580 2604 2754 2979 3077 3208 3297 3158 2971 3080 3404 3309 3523 3618 3446 3324 3469 3437 3525 3517 3131 2888 2884 2548 2273 2666 2850 3036 2990 3197 3006 2888 2697 2560 2536 2344 2027 2245 2661 2804 2624 2448 2247 2125 2142 2291 2330 2344 2366 2424 2482 2492 2509 2463 2463 2361 2313 2312 2404 2448 2489 2504 2534 2558 2654 2683 2808 2717 2677 2660 2690 2720 2707 2808 2905 2953 3053 2950 2918 2895 2896 2878 2851 2881 2811 2796 2941 2982 2954 2828 2902 2928 2890 2851 2761 2840 2913 2751 2720 2727 2760 2834 2930 3060 3113 3161 3116 3135 3151 3202 3280 3288 3395 3360 3553 3611 3733 3814 3751 3728 3879 3974 4020 4291 4408 4409 4294 4138 4031 4036 4106 4154 4085 4115 4107 4257 4543 4379 4263 4169 4265 4327 4318 4476 4340 4246 4237 4358 4136 4153 4015 4021 3933 3828 3760 3828 3940 4025 3949 3986 4000 -9999 -9999 -9999
-9999 -9999 -9999 -9999 -9999 -9999 -9999 -9999 -9999 -9999 -9999 -9999 -9999 -9999 -9999 -9999 -9999 -9999 -9999 -9999 -9999 2488 2492 2250 2185 2119 2062 1963 1881 1803 1796 1761 1885 1950 2038 2148 2163 2109 1941 1987 2034 2063 2084 2122 2110 2030 1879 1759 1571 1505 1504 1503 1548 1664 1699 1761 1904 1907 1910 1842 1870 1786 1875 1847 1845 1917 1935 1875 1814 1869 1876 1918 1944 1910 1927 1884 1905 1923 1883 1951 2050 2033 1978 2006 2030 2112 2235 2372 2414 2451 2226 2330 2169 2096 2137 2051 2193 2225 2244 2458 2359 2331 2379 2363 2396 2492 2579 2758 2966 3065 3051 3281 3102 3382 3333 3230 3347 3480 3310 3431 3543 3328 3277 3217 2937 2657 2744 2802 2902 2990 2727 2579 2655 2957 3119 3392 3257 2997 2842 2700 2600 2683 2795 2887 2622 2707 2772 3029 3179 3305 3368 3121 3241 3243 3399 3505 3688 3527 3452 3317 3207 3259 3260 3236 3082 3115 3004 2527 2541 2897 3031 3303 3394 3313 3150 2988 2747 2520 2377 2407 2281 2082 2448 2550 2602 2458 2118 2281 2268 2275 2269 2309 2314 2378 2430 2373 2397 2386 2376 2278 2356 2393 2440 2585 2681 2641 2637 2688 2746 2735 2740 2769 2697 2559 2517 2524 2618 2779 2851 2814 2923 2890 2925 2889 2763 2740 2743 2769 2679 2825 2796 2687 2665 2686 2705 2721 2691 2692 2689 2701 2680 2681 2765 2872 2912 2953 3108 3069 3041 3158 3419 3465 3409 3316 3437 3637 3675 3581 3567 3688 3551 3524 3427 3504 3613 3727 3899 4091 4012 4182 4306 4352 4178 4343 4374 4289 4359 4333 4401 4404 -9999 4522 4483 4403 4386 4513 4408 -9999 -9999 4298 4382 4482 4396 4403 4158 4049 3956 3901 3929 3843 3792 3869 3865 3876 3885 3917 3949 -9999
-9999 -9999 -9999 -9999 -9999 -9999 -9999 -9999 -9999 -9999 -9999 -9999 -9999 -9999 -9999 -9999 -9999 -9999 -9999 -9999 -9999 -9999 -9999 2316 2245 2107 1983 1911 1885 1857 1828 1845 1937 2006 2171 2116 2194 2120 1997 1924 1963 1982 2061 2051 2068 2006 1850 1722 1553 1510 1508 1506 1553 1661 1696 1807 1916 1852 1878 1793 1792 1727 1774 1808 1770 1865 1870 1825 1768 1827 1809 1849 1865 1843 1837 1840 1835 1886 1816 1965 1968 1931 1916 1990 2049 2184 2323 2332 2314 2364 2197 2376 2193 2079 2085 2020 2130 2182 2182 2409 2284 2269 2327 2324 2370 2581 2698 2905 2928 2831 2894 3069 3027 3239 3161 3093 3255 3518 3375 3507 3531 3322 3206 3163 2858 2696 2902 2976 3035 2908 2710 2635 2654 2812 3075 3392 3363 3117 2999 2773 2632 2876 2996 2785 2718 2822 2867 3019 3296 3410 3394 3186 3425 3421 3584 3657 3774 3617 3604 3472 3278 3168 3145 3117 3135 2910 2810 2405 2727 2940 3055 3217 3374 3131 3015 2894 2635 2595 2646 2607 2311 2038 2327 2510 2494 2312 2127 2283 2235 2249 2259 2297 2344 2433 2364 2334 2367 2352 2321 2293 2372 2403 2508 2590 2693 2599 2564 2633 2700 2686 2621 2668 2681 2633 2509 2568 2639 2780 2879 2826 2838 2762 2790 2909 2744 2685 2698 2765 2648 2786 2649 2611 2612 2619 2626 2632 2635 2650 2665 2673 2691 2754 2836 2989 3032 3034 3113 3041 3101 3202 3480 3594 3463 3507 3387 3689 3753 3664 3640 3668 3543 3418 3467 3620 3681 3788 4047 4004 4012 4136 4212 -9999 -9999 -9999 -9999 -9999 -9999 -9999 4569 -9999 -9999 -9999 -9999 -9999 -9999 -9999 -9999 -9999 -9999 -9999 -9999 -9999 -9999 4372 4158 4148 4018 3922 3938 3853 3829 3827 3857 3866 3877 3879 3910 -9999
-9999 -9999 -9999 -9999 -9999 -9999 -9999 -9999 -9999 -9999 -9999 -9999 -9999 -9999 -9999 -9999 -9999 -9999 -9999 -9999 -9999 -9999 -9999 -9999 2287 2130 2083 2064 2019 1946 2013 1863 1957 1990 2045 2057 2160 2169 2170 2151 2025 1985 2013 2050 1947 1924 1876 1732 1575 1528 1519 1511 1542 1644 1694 1793 1749 1717 1724 1715 1670 1629 1619 1626 1655 1682 1678 1656 1674 1667 1676 1680 1705 1725 1775 1770 1753 1746 1759 1785 1810 1853 1951 1960 1987 2193 2217 2217 2168 2187 2110 2212 2201 2114 2036 2050 2056 2048 2090 2102 2123 2152 2174 2225 2488 2642 2609 2615 2500 2714 2762 2863 2990 2970 3060 3351 3477 3622 3581 3572 3419 3101 2919 2876 2819 2988 3128 3115 2877 2700 2733 2807 2807 2997 3135 3505 3574 3321 3030 2774 2709 2973 3180 2859 2895 3089 3218 3101 3136 3201 3455 3484 3536 3647 3898 3659 3703 3468 3554 3455 3209 3279 3307 3094 2796 2597 2520 2391 2746 2979 3095 3311 3401 3128 2933 2912 3067 2845 2536 2407 2191 2061 2235 2222 2102 2132 2342 2293 2258 2250 2262 2278 2300 2373 2307 2293 2256 2343 2240 2355 2452 2472 2450 2507 2456 2435 2496 2513 2609 2669 2521 2588 2628 2671 2549 2477 2626 2640 2634 2860 2670 2712 2669 2688 2691 2659 2628 2697 2664 2579 2579 2597 2646 2731 2799 2815 2802 2877 2993 3080 2970 3062 3112 3180 3249 3117 2997 3241 3331 3455 3546 3705 3649 3605 3573 3574 3824 3919 3819 3641 3388 3279 3535 3791 3853 3878 4145 3965 3802 3887 4001 4268 -9999 -9999 -9999 -9999 -9999 -9999 -9999 -9999 -9999 -9999 -9999 -9999 -9999 -9999 -9999 -9999 -9999 -9999 -9999 -9999 -9999 -9999 -9999 4381 4128 4073 3958 4042 3970 4002 3934 4000 -9999 -9999 -9999 -9999
-9999 -9999 -9999 -9999 -9999 -9999 -9999 -9999 -9999 -9999 -9999 -9999 -9999 -9999 -9999 -9999 -9999 -9999 -9999 -9999 -9999 -9999 -9999 -9999 2343 2278 2161 2139 2074 2164 2039 1938 1912 1900 1932 1952 2002 2059 2163 2232 2118 2031 2085 2100 1973 1824 1743 1652 1616 1539 1526 1516 1518 1583 1637 1702 1649 1607 1573 1573 1627 1773 1837 1799 1794 1756 1830 1789 1852 1848 1875 1947 1953 1940 2145 2117 2036 1872 1826 1825 1806 1799 1838 1976 1954 2024 1998 2025 2038 2119 2063 2029 1994 2024 1968 1965 2051 2122 2232 2297 2270 2208 2226 2291 2282 2329 2424 2581 2440 2549 2705 2848 2689 2976 3138 3223 3253 3283 3494 3563 3509 3281 3175 3147 3082 3247 3452 3379 3094 2758 2822 3065 3178 3310 3358 3560 3467 3176 2961 2766 2888 3237 2940 3003 2910 2889 3240 3495 3434 3473 3423 3628 3742 3705 3703 3558 3435 3392 3367 3312 3424 3318 3254 2954 2817 2593 2384 2476 2843 2948 3055 3191 3459 3368 3110 3023 2841 2788 2716 2785 2452 2071 2064 2056 2229 2466 2405 2340 2313 2262 2285 2283 2274 2308 2260 2270 2215 2208 2351 2437 2414 2368 2423 2406 2369 2431 2398 2558 2659 2699 2549 2452 2577 2707 2576 2374 2444 2614 2732 2850 2802 2607 2627 2631 2610 2591 2618 2591 2551 2587 2700 2759 2790 2846 2935 3027 3068 2984 2990 3103 3311 3326 3218 3311 3201 3136 2933 3147 3206 3284 3500 3596 3670 3762 3702 3701 3700 3621 3510 3386 3235 3256 3405 3582 3718 3808 4087 3994 3700 3836 3969 3968 -9999 -9999 -9999 -9999 -9999 -9999 -9999 -9999 -9999 -9999 -9999 -9999 -9999 -9999 -9999 -9999 -9999 -9999 -9999 -9999 -9999 -9999 -9999 -9999 4380 4175 4062 4058 4057 4112 4004 -9999 -9999 -9999 -9999 -9999
-9999 -9999 -9999 -9999 -9999 -9999 -9999 -9999 -9999 -9999 -9999 -9999 -9999 -9999 -9999 -9999 -9999 -9999 -9999 -9999 -9999 -9999 -9999 -9999 -9999 -9999 -9999 2215 2246 2144 2084 2053 2002 2046 1987 1982 2057 2003 2051 2219 2088 2032 2177 2151 1987 1785 1787 1960 1856 1622 1553 1522 1521 1525 1535 1543 1551 1612 1637 1657 1703 1762 1801 1861 1995 1979 2089 2106 2048 2048 2036 1986 2079 2263 2297 2156 2125 1965 1896 1961 1905 1958 1845 1824 1840 1872 1904 1927 1938 1938 1973 1941 1921 1927 1945 1992 2025 2067 2187 2336 2435 2519 2664 2897 2743 2834 2860 3080 2823 2677 2576 2485 2731 2838 2836 2845 2907 2993 3124 3290 3535 3587 3420 3439 3360 3560 3319 3141 2826 2834 2800 2979 3133 3448 3779 3571 3438 3228 2917 3039 3112 3331 3177 3462 3296 3190 3061 3219 3479 3606 3613 3830 3524 3401 3406 3353 3464 3610 3690 3526 3241 2980 2866 2724 2563 2435 2324 2489 2734 3023 3135 3351 3476 3283 3204 3068 3052 2776 2683 2515 2265 2124 2401 2453 2200 2092 2397 2351 2325 2287 2234 2247 2226 2306 2209 2189 2243 2353 2406 2409 2356 2305 2370 2276 2406 2458 2344 2397 2606 2690 2446 2380 2469 2509 2387 2436 2584 2674 2794 2653 2648 2584 2608 2589 2516 2523 2525 2544 2602 2711 2878 2941 2886 2951 3027 3095 3235 3276 3324 3298 3442 3587 3522 3412 3280 3140 2916 3012 3114 3067 3175 3421 3506 3381 3439 3457 3467 3421 3444 3235 3155 3265 3442 3594 3748 3782 3903 3932 3661 3566 3590 3842 -9999 -9999 -9999 -9999 -9999 -9999 -9999 -9999 -9999 -9999 -9999 -9999 -9999 -9999 -9999 -9999 -9999 -9999 -9999 -9999 -9999 -9999 -9999 -9999 -9999 4269 4388 4372 4280 -9999 -9999 -9999 -9999 -9999 -9999 -9999
-9999 -9999 -9999 -9999 -9999 -9999 -9999 -9999 -9999 -9999 -9999 -9999 -9999 -9999 -9999 -9999 -9999 -9999 -9999 -9999 -9999 -9999 -9999 -9999 -9999 -9999 -9999 -9999 -9999 2206 2076 2088 2052 2065 2016 2019 2059 2055 2047 2218 2126 2054 2186 2112 1916 1847 1953 1872 1753 1618 1604 1539 1522 1526 1527 1537 1540 1547 1562 1578 1628 1679 1804 1884 1913 1981 2027 2040 2146 2148 2155 2092 2131 2312 2273 2116 2061 1943 1960 1992 2002 1977 1940 1851 1832 1843 1864 1883 1896 1908 1934 1912 1950 2030 2021 1987 2025 2024 2123 2269 2441 2735 2881 3117 3061 3104 3134 3248 3073 2875 2811 2643 2532 2606 2641 2719 2785 2866 3074 3220 3507 3706 3531 3566 3600 3527 3198 3052 2820 3003 2999 2995 3243 3587 3821 3512 3372 3108 2936 3131 3254 3418 3199 3485 3469 3334 3180 3295 3383 3524 3807 3889 3562 3432 3200 3172 3275 3523 3616 3520 3243 3045 3000 2856 2723 2436 2326 2604 2636 2930 3021 3236 3346 3128 2997 2989 2986 2564 2513 2445 2113 2260 2568 2544 2193 2163 2229 2347 2292 2308 2245 2211 2231 2244 2157 2253 2287 2324 2361 2387 2310 2276 2262 2322 2440 2416 2311 2382 2546 2633 2414 2404 2431 2361 2348 2384 2454 2562 2705 2685 2609 2587 2612 2512 2506 2572 2604 2614 2747 2846 2964 2982 2945 3058 3043 3137 3215 3244 3343 3402 3482 3475 3469 3301 3257 3074 2979 2908 2990 3030 3223 3271 3332 3302 3205 3412 3313 3311 3427 3175 3225 3271 3338 3474 3671 3675 3755 3832 3601 3486 3596 3875 -9999 -9999 -9999 -9999 -9999 -9999 -9999 -9999 -9999 -9999 -9999 -9999 -9999 -9999 -9999 -9999 -9999 -9999 -9999 -9999 -9999 -9999 -9999 -9999 -9999 -9999 -9999 -9999 -9999 -9999 -9999 -9999 -9999 -9999 -9999 -9999
-9999 -9999 -9999 -9999 -9999 -9999 -9999 -9999 -9999 -9999 -9999 -9999 -9999 -9999 -9999 -9999 -9999 -9999 -9999 -9999 -9999 -9999 -9999 -9999 -9999 -9999 -9999 -9999 -9999 -9999 2173 2207 2177 2133 2042 2090 2095 2164 2140 2275 2122 2092 2239 2143 1984 2050 2000 1939 1872 1856 1938 1786 1627 1588 1577 1555 1536 1541 1545 1548 1559 1585 1666 1720 1814 1909 1897 1939 2114 2112 2238 2258 2263 2362 2341 2103 1989 2111 2200 2114 2090 2016 1956 1876 1885 1963 2035 2038 2047 2000 1988 2063 2131 2112 2175 2109 2061 2191 2105 2199 2474 2600 2703 2910 2900 2995 3004 3352 3504 3277 3101 2907 2817 2617 2667 3006 3185 3205 3292 3319 3432 3606 3895 3879 3573 3405 3154 2984 3036 3330 3303 3080 3296 3479 3694 3581 3476 3168 3336 3149 3233 3586 3553 3518 3700 3533 3395 3529 3606 3670 3706 3563 3619 3503 3325 3001 2991 3249 3366 3233 3311 3099 2972 2815 2525 2420 2614 2925 3027 2917 2974 3272 3142 2933 2726 2578 2748 2499 2162 2155 2334 2617 2536 2291 2335 2223 2317 2094 2146 2336 2274 2143 2135 2136 2126 2135 2141 2145 2154 2168 2214 2207 2219 2270 2287 2311 2410 2420 2447 2395 2352 2315 2361 2433 2397 2488 2501 2726 2722 2574 2552 2620 2661 2488 2502 2633 2688 2777 2781 2912 3069 3014 3097 3260 3138 3136 3064 3188 3322 3389 3328 3177 3264 3393 3353 3286 3116 2843 2975 3032 3067 2997 2978 2999 3008 3086 3129 3089 3093 3155 3375 3492 3565 3628 3716 3629 3448 3557 3441 3573 3680 -9999 -9999 -9999 -9999 -9999 -9999 -9999 -9999 -9999 -9999 -9999 -9999 -9999 -9999 -9999 -9999 -9999 -9999 -9999 -9999 -9999 -9999 -9999 -9999 -9999 -9999 -9999 -9999 -9999 -9999 -9999 -9999 -9999 -9999 -9999 -9999 -9999
-9999 -9999 -9999 -9999 -9999 -9999 -9999 -9999 -9999 -9999 -9999 -9999 -9999 -9999 -9999 -9999 -9999 -9999 -9999 -9999 -9999 -9999 -9999 -9999 -9999 -9999 -9999 -9999 -9999 -9999 2232 2226 2231 2130 2103 2203 2165 2222 2248 2311 2164 2127 2304 2199 2124 2188 2110 2087 1998 1994 2057 1979 1830 1811 1777 1761 1766 1578 1546 1548 1553 1563 1649 1670 1716 1809 1967 2033 2066 1996 2121 2127 2299 2263 2081 1971 1945 2086 2237 2256 2189 2153 1949 2053 2083 2048 2100 2241 2234 2298 2310 2473 2385 2298 2173 2260 2075 2080 2318 2270 2395 2382 2404 2429 2545 2856 2977 3064 3374 3485 3448 3260 3083 2890 2803 2902 3252 3549 3529 3546 3597 3661 3929 3748 3433 3172 3049 3085 3114 3412 3549 3391 3232 3371 3460 3684 3567 3516 3537 3520 3438 3562 3817 3708 3795 3703 3763 3707 3518 3392 3392 3246 3444 3414 3269 3094 2768 2946 3074 2905 3087 2822 2734 2685 2360 2482 2539 2679 3006 3312 3334 3352 3157 2943 2672 2558 2427 2270 2296 2432 2674 2737 2430 2225 2349 2460 2532 2406 2185 2180 2294 2330 2323 2163 2129 2166 2170 2183 2183 2176 2180 2185 2191 2280 2299 2258 2300 2341 2392 2333 2301 2370 2387 2458 2529 2663 2571 2719 2607 2523 2635 2694 2534 2474 2555 2644 2708 2840 2926 2977 3021 2995 3074 3202 3035 2958 3115 3283 3307 3328 3142 2994 3147 3342 3247 3148 3045 2824 2901 2913 2959 2989 3022 3058 3040 3020 2969 3082 3251 3230 3287 3357 3503 3645 3500 3410 3318 3471 3533 3737 3858 -9999 -9999 -9999 -9999 -9999 -9999 -9999 -9999 -9999 -9999 -9999 -9999 -9999 -9999 -9999 -9999 -9999 -9999 -9999 -9999 -9999 -9999 -9999 -9999 -9999 -9999 -9999 -9999 -9999 -9999 -9999 -9999 -9999 -9999 -9999 -9999 -9999
-9999 -9999 -9999 -9999 -9999 -9999 -9999 -9999 -9999 -9999 -9999 -9999 -9999 -9999 -9999 -9999 -9999 -9999 -9999 -9999 -9999 -9999 -9999 -9999 -9999 -9999 -9999 -9999 -9999 -9999 -9999 2288 2267 2200 2216 2257 2259 2251 2317 2313 2283 2186 2287 2368 2285 2307 2297 2236 2212 2086 2113 2065 1970 1896 1835 1668 1626 1600 1690 1786 1806 1578 1563 1596 1696 1829 1873 1903 1888 1912 1998 2021 2143 2166 1993 1928 1977 1998 2048 2134 2050 2056 2114 2175 2245 2264 2372 2452 2311 2358 2491 2424 2283 2292 2276 2240 2202 2122 2287 2596 2883 2998 3018 2801 2743 2591 2699 2955 2979 3237 3409 3740 3680 3344 3186 2966 3135 3484 3744 3848 3793 3893 3726 3644 3416 3172 3376 3441 3364 3432 3741 3463 3367 3596 3538 3747 3773 3723 3995 3854 3746 3948 4094 4055 4226 4116 3838 3754 3516 3469 3267 3058 3030 3046 3093 2847 2701 2620 2607 2654 2641 2524 2432 2393 2581 2899 2975 3014 3011 3289 3419 3151 2937 2803 2623 2496 2469 2244 2563 2691 2783 2572 2263 2247 2461 2684 2601 2554 2485 2494 2479 2432 2410 2294 2244 2147 2183 2302 2287 2247 2212 2208 2199 2212 2325 2319 2327 2286 2351 2350 2407 2447 2509 2530 2546 2493 2578 2670 2612 2536 2594 2529 2457 2532 2582 2677 2746 2896 2859 2958 2880 2922 3061 3151 2966 2861 2988 3105 3117 3174 3008 2971 2999 3111 3010 3019 2792 3047 3124 3224 3192 3268 3369 3278 3207 3210 3017 3000 3067 3117 3206 3253 3339 3237 3221 3276 3432 3703 3923 3879 -9999 -9999 -9999 -9999 -9999 -9999 -9999 -9999 -9999 -9999 -9999 -9999 -9999 -9999 -9999 -9999 -9999 -9999 -9999 -9999 -9999 -9999 -9999 -9999 -9999 -9999 -9999 -9999 -9999 -9999 -9999 -9999 -9999 -9999 -9999 -9999 -9999 -9999
-9999 -9999 -9999 -9999 -9999 -9999 -9999 -9999 -9999 -9999 -9999 -9999 -9999 -9999 -9999 -9999 -9999 -9999 -9999 -9999 -9999 -9999 -9999 -9999 -9999 -9999 -9999 -9999 -9999 -9999 -9999 -9999 2291 2243 2265 2285 2302 2277 2333 2320 2302 2208 2365 2399 2387 2373 2405 2270 2161 2049 2082 2028 1887 1790 1762 1721 1731 1575 1781 1828 1866 1760 1617 1569 1668 1728 1784 1800 1846 1968 2039 2090 2214 2094 1925 1887 1897 1988 1973 2022 1998 2020 2072 2118 2199 2387 2459 2435 2408 2416 2511 2427 2331 2383 2353 2300 2301 2242 2244 2529 2903 3173 3248 3072 2933 2724 2654 2774 3012 3269 3447 3801 3928 3559 3426 3124 3085 3325 3643 3713 3738 3913 3892 3718 3438 3250 3519 3658 3490 3493 3806 3521 3467 3647 3762 3710 3853 3889 4145 3984 3924 4096 4181 4102 4187 4221 3945 3832 3608 3582 3411 3245 2961 2888 2859 2719 2766 2807 2757 2572 2501 2536 2606 2434 2645 2908 2971 3128 3245 3467 3461 3222 3036 2831 2705 2715 2387 2378 2616 2718 2619 2388 2283 2403 2404 2657 2616 2584 2555 2477 2519 2450 2418 2302 2266 2194 2168 2228 2314 2342 2253 2268 2222 2222 2329 2337 2339 2356 2387 2409 2412 2430 2544 2491 2478 2522 2582 2637 2600 2491 2556 2506 2454 2523 2599 2728 2794 2897 2810 2808 2844 2909 3084 3057 2943 2820 2972 2980 3056 3078 3036 2875 2946 2946 2875 2805 2854 2999 3019 3238 3300 3375 3451 3358 3336 3231 3097 3051 3052 3064 3074 3100 3141 3180 3294 3378 3510 3613 3975 -9999 -9999 -9999 -9999 -9999 -9999 -9999 -9999 -9999 -9999 -9999 -9999 -9999 -9999 -9999 -9999 -9999 -9999 -9999 -9999 -9999 -9999 -9999 -9999 -9999 -9999 -9999 -9999 -9999 -9999 -9999 -9999 -9999 -9999 -9999 -9999 -9999 -9999 -9999
-9999 -9999 -9999 -9999 -9999 -9999 -9999 -9999 -9999 -9999 -9999 -9999 -9999 -9999 -9999 -9999 -9999 -9999 -9999 -9999 -9999 -9999 -9999 -9999 -9999 -9999 -9999 -9999 -9999 -9999 -9999 -9999 2344 2352 2374 2345 2369 2334 2399 2354 2308 2267 2344 2403 2412 2422 2404 2341 2197 2011 1978 1912 1854 1903 1909 1865 1677 1708 1814 1888 1895 1804 1812 1664 1605 1740 1868 1887 2028 2148 2192 2242 2369 2137 2035 1858 1879 1873 1944 1935 1914 1922 2043 2031 2066 2148 2198 2267 2365 2415 2476 2436 2491 2540 2503 2584 2562 2375 2370 2737 3030 3171 3295 3441 3224 3060 3096 2909 2960 3065 3201 3597 3869 3730 3644 3535 3283 3161 3350 3462 3742 3958 3840 3698 3540 3433 3753 3918 3799 3690 3821 3835 3834 3885 3933 3964 4013 4110 4078 3857 3750 3820 3876 3808 3788 3855 4143 3946 3860 3844 3688 3480 3202 3126 3069 3003 3221 3222 3187 3057 2983 2658 2556 2395 2593 2770 2800 2966 3223 3297 3247 3247 2984 2688 2519 2394 2284 2478 2788 2790 2429 2380 2576 2707 2723 2543 2759 2690 2663 2493 2562 2462 2409 2320 2263 2311 2282 2212 2237 2368 2308 2327 2326 2219 2226 2258 2357 2396 2402 2401 2430 2488 2450 2492 2542 2581 2612 2613 2527 2506 2485 2440 2487 2589 2679 2764 2830 2879 2811 2783 2911 2995 2906 2929 2901 2777 2870 2780 2910 2825 2778 2699 2768 2857 2863 3022 3197 3303 3326 3193 3414 3480 3540 3709 3590 3328 3365 3282 3225 3233 3290 3278 3293 3285 3313 3398 3531 3702 4003 -9999 -9999 -9999 -9999 -9999 -9999 -9999 -9999 -9999 -9999 -9999 -9999 -9999 -9999 -9999 -9999 -9999 -9999 -9999 -9999 -9999 -9999 -9999 -9999 -9999 -9999 -9999 -9999 -9999 -9999 -9999 -9999 -9999 -9999 -9999 -9999 -9999 -9999 -9999
-9999 -9999 -9999 -9999 -9999 -9999 -9999 -9999 -9999 -9999 -9999 -9999 -9999 -9999 -9999 -9999 -9999 -9999 -9999 -9999 -9999 -9999 -9999 -9999 -9999 -9999 -9999 -9999 -9999 -9999 -9999 -9999 -9999 -9999 2443 2430 2416 2396 2417 2420 2360 2309 2366 2434 2441 2281 2252 2296 2238 2161 2146 2080 1996 1950 1873 1733 1707 1683 1909 1980 1979 1943 1921 1755 1579 1699 1862 1937 2047 2059 2174 2215 2208 2198 2002 1835 1805 1826 1840 1863 1873 1999 2276 2188 2188 2233 2493 2537 2494 2585 2605 2636 2812 2861 2907 2837 2499 2551 2339 2567 2715 2829 2922 3203 3428 3452 3304 3213 3377 3289 3236 3398 3615 3805 3878 3749 3568 3462 3385 3378 3451 3696 3862 3980 3740 3626 3839 3958 3995 3958 4027 3730 3596 3589 3642 3893 3797 3792 3867 3764 3606 3458 3661 3544 3519 3648 3826 3941 3697 3652 3548 3684 3593 3557 3497 3473 3454 3106 2984 2955 2637 2408 2513 2780 2899 3094 3207 3264 3267 3016 2954 2951 2930 2641 2282 2359 2598 2811 2876 2687 2389 2515 2732 2849 2784 2815 2787 2836 2753 2682 2613 2520 2440 2296 2387 2402 2335 2326 2196 2367 2348 2405 2422 2257 2237 2274 2370 2427 2459 2479 2529 2442 2472 2601 2547 2611 2652 2529 2470 2470 2435 2505 2548 2650 2745 2828 2775 2645 2652 2795 2959 2917 2734 2853 2686 2642 2649 2615 2686 2742 2806 2944 3036 3021 3039 3171 3242 3396 3545 3443 3440 3544 3565 3855 3732 3693 3670 3556 3403 3518 3639 3590 3509 3486 3415 3422 3483 3711 -9999 -9999 -9999 -9999 -9999 -9999 -9999 -9999 -9999 -9999 -9999 -9999 -9999 -9999 -9999 -9999 -9999 -9999 -9999 -9999 -9999 -9999 -9999 -9999 -9999 -9999 -9999 -9999 -9999 -9999 -9999 -9999 -9999 -9999 -9999 -9999 -9999 -9999 -9999 -9999
-9999 -9999 -9999 -9999 -9999 -9999 -9999 -9999 -9999 -9999 -9999 -9999 -9999 -9999 -9999 -9999 -9999 -9999 -9999 -9999 -9999 -9999 -9999 -9999 -9999 -9999 -9999 -9999 -9999 -9999 -9999 -9999 -9999 -9999 -9999 2545 2497 2509 2456 2440 2395 2381 2410 2412 2416 2242 2190 2120 2101 2104 2076 2046 1894 1963 1966 1846 1646 1929 1922 2027 2033 2047 1929 1836 1622 1607 1804 1851 2012 1958 1952 2038 1988 1870 1784 1937 2057 2013 1936 1859 1876 2009 2293 2279 2253 2428 2532 2534 2689 2701 2732 2906 3025 3065 3064 2691 2816 2654 2643 2652 2666 2970 3067 3220 3382 3578 3680 3561 3533 3784 3694 3685 3609 3720 3794 3892 3768 3776 3717 3742 3658 3639 3800 3943 3834 3790 4045 4111 3910 3740 3645 3455 3331 3206 3350 3516 3476 3404 3352 3310 3263 3093 3368 3249 3174 3283 3552 3822 3588 3492 3269 3448 3508 3435 3215 3068 3142 2918 2867 2621 2437 2649 2686 2740 2905 2976 3123 3326 3047 2885 2836 2655 2625 2505 2324 2448 2683 2917 2725 2565 2424 2560 2784 2906 2922 2898 2847 2814 2794 2765 2660 2557 2458 2444 2528 2411 2354 2343 2271 2280 2351 2424 2520 2358 2296 2248 2255 2272 2345 2376 2344 2385 2385 2425 2467 2558 2680 2502 2401 2412 2599 2596 2623 2573 2511 2495 2513 2552 2619 2647 2648 2658 2573 2575 2656 2717 2790 2907 3054 2933 3079 3073 3131 3256 3259 3355 3477 3541 3587 3660 3735 3784 3891 -9999 -9999 -9999 -9999 -9999 3640 -9999 -9999 3899 3867 3614 3630 3691 3720 -9999 -9999 -9999 -9999 -9999 -9999 -9999 -9999 -9999 -9999 -9999 -9999 -9999 -9999 -9999 -9999 -9999 -9999 -9999 -9999 -9999 -9999 -9999 -9999 -9999 -9999 -9999 -9999 -9999 -9999 -9999 -9999 -9999 -9999 -9999 -9999 -9999 -9999 -9999 -9999 -9999
-9999 -9999 -9999 -9999 -9999 -9999 -9999 -9999 -9999 -9999 -9999 -9999 -9999 -9999 -9999 -9999 -9999 -9999 -9999 -9999 -9999 -9999 -9999 -9999 -9999 -9999 -9999 -9999 -9999 -9999 -9999 -9999 -9999 -9999 -9999 -9999 2509 2530 2568 2455 2443 2428 2437 2450 2363 2310 2251 2180 2109 2003 1963 1934 1875 1836 1911 1797 1702 1990 2023 2030 2062 2091 1900 1791 1787 1616 1719 1801 1869 1829 1779 1810 1779 1774 1957 2126 2218 2180 2164 2100 2040 1914 2018 2054 2125 2277 2529 2650 2648 2679 2864 3149 3248 3297 3082 3038 2909 2890 3085 2744 2847 2768 2746 2885 3063 3391 3604 3719 3820 3562 3497 3641 3763 3595 3467 3495 3529 3284 3245 3282 3435 3662 3864 3925 3967 4070 3880 3787 3586 3529 3528 3546 3602 3440 3116 3053 3033 2996 2978 2911 2904 2889 2985 3033 3031 3186 3425 3600 3472 3409 3097 3365 3302 3153 3056 3083 2797 2809 2639 2469 2638 2876 2993 2792 2987 3167 3183 3412 3194 3031 2993 2833 2538 2343 2572 2634 2815 3017 2700 2539 2591 2854 2992 3014 2942 2927 2937 2942 2899 2860 2721 2653 2607 2568 2629 2536 2518 2403 2250 2298 2387 2444 2560 2404 2366 2307 2312 2351 2316 2302 2294 2310 2331 2321 2332 2350 2446 2411 2376 2451 2476 2407 2407 2459 2519 2534 2561 2566 2643 2631 2608 2543 2688 2773 2875 2956 3030 3065 3089 3060 3094 3172 3287 3271 3180 3191 3285 3390 3428 3546 3656 3752 3865 -9999 -9999 -9999 -9999 -9999 -9999 -9999 -9999 -9999 3901 3670 3664 3771 -9999 -9999 -9999 -9999 -9999 -9999 -9999 -9999 -9999 -9999 -9999 -9999 -9999 -9999 -9999 -9999 -9999 -9999 -9999 -9999 -9999 -9999 -9999 -9999 -9999 -9999 -9999 -9999 -9999 -9999 -9999 -9999 -9999 -9999 -9999 -9999 -9999 -9999 -9999 -9999 -9999 -9999
-9999 -9999 -9999 -9999 -9999 -9999 -9999 -9999 -9999 -9999 -9999 -9999 -9999 -9999 -9999 -9999 -9999 -9999 -9999 -9999 -9999 -9999 -9999 -9999 -9999 -9999 -9999 -9999 -9999 -9999 -9999 -9999 -9999 -9999 -9999 -9999 -9999 -9999 -9999 2495 2456 2434 2468 2438 2345 2301 2272 2221 2168 2097 2056 1929 1946 1870 1777 1682 1802 1992 2112 2087 2117 2087 1893 1844 1843 1661 1683 1766 1783 1742 1714 1719 1740 1837 2007 2162 2305 2268 2308 2182 2105 1962 1955 2096 2245 2406 2470 2626 2682 2716 2929 3215 3362 3314 3228 3254 3098 3092 3142 2852 3013 2967 2879 3027 3247 3403 3582 3949 3699 3402 3300 3444 3551 3507 3358 3258 3369 3127 3077 3107 3259 3493 3731 3733 3936 3974 3785 3682 3617 3716 3706 3688 3625 3358 3051 3032 3059 3055 2982 3039 3086 3026 2873 2844 2925 3019 3207 3452 3373 3215 3032 3200 3151 3144 2895 2944 2826 2617 2537 2578 2800 3041 3134 2936 2958 3213 3332 3354 3231 3037 2913 2767 2463 2462 2671 2784 2905 3029 2725 2573 2549 2810 3039 3017 2959 2968 2947 2982 2958 2901 2815 2769 2681 2671 2598 2520 2530 2346 2246 2248 2432 2467 2545 2442 2445 2398 2284 2342 2455 2431 2371 2395 2421 2372 2332 2344 2358 2367 2373 2392 2396 2405 2455 2546 2615 2632 2657 2662 2745 2731 2737 2632 2574 2836 2905 2939 2944 3077 2942 2905 2974 3018 3113 3088 3134 3282 3322 3511 3534 3647 3756 3847 -9999 -9999 -9999 -9999 -9999 -9999 -9999 -9999 -9999 -9999 -9999 -9999 -9999 -9999 -9999 -9999 -9999 -9999 -9999 -9999 -9999 -9999 -9999 -9999 -9999 -9999 -9999 -9999 -9999 -9999 -9999 -9999 -9999 -9999 -9999 -9999 -9999 -9999 -9999 -9999 -9999 -9999 -9999 -9999 -9999 -9999 -9999 -9999 -9999 -9999 -9999 -9999 -9999 -9999 -9999 -9999
-9999 -9999 -9999 -9999 -9999 -9999 -9999 -9999 -9999 -9999 -9999 -9999 -9999 -9999 -9999 -9999 -9999 -9999 -9999 -9999 -9999 -9999 -9999 -9999 -9999 -9999 -9999 -9999 -9999 -9999 -9999 -9999 -9999 -9999 -9999 -9999 -9999 -9999 -9999 2543 2518 2500 2475 2401 2363 2287 2264 2171 2088 2052 2036 2021 2055 1954 1767 1814 1987 2179 2308 2226 2196 2040 2018 1957 1799 1759 1618 1695 1735 1805 1826 1912 1893 1848 1951 2103 2158 2303 2400 2379 2275 2090 1964 2114 2231 2594 2702 2651 2696 2761 2949 3274 3354 3333 3537 3428 3423 3366 3401 3211 3340 3351 3331 3361 3536 3608 3616 3717 3472 3359 3175 3074 3285 3101 3171 2943 2924 2964 3262 3430 3401 3302 3413 3500 3762 3993 3955 3890 3732 3573 3387 3270 3239 3079 3138 3401 3546 3506 3188 3421 3509 3434 3278 3207 2970 2850 2859 3099 3006 3027 2849 2805 2742 2783 2745 2606 2573 2494 2554 2774 2695 2928 2986 3110 3248 3408 3405 3213 3095 2889 2820 2614 2425 2596 2823 2915 3146 3040 2751 2569 2698 2923 3158 3156 3063 3044 2963 2980 2924 2918 2832 2803 2776 2675 2532 2427 2312 2341 2422 2273 2462 2569 2676 2586 2548 2490 2364 2391 2312 2364 2602 2576 2566 2510 2447 2368 2373 2386 2396 2478 2499 2490 2449 2621 2720 2809 2841 2865 2835 2874 2887 2831 2771 2606 2629 2634 2727 2743 2792 2837 2889 2999 3089 3240 3317 3441 3569 3550 3632 3806 3910 -9999 -9999 -9999 -9999 -9999 -9999 -9999 -9999 -9999 -9999 -9999 -9999 -9999 -9999 -9999 -9999 -9999 -9999 -9999 -9999 -9999 -9999 -9999 -9999 -9999 -9999 -9999 -9999 -9999 -9999 -9999 -9999 -9999 -9999 -9999 -9999 -9999 -9999 -9999 -9999 -9999 -9999 -9999 -9999 -9999 -9999 -9999 -9999 -9999 -9999 -9999 -9999 -9999 -9999 -9999 -9999 -9999
-9999 -9999 -9999 -9999 -9999 -9999 -9999 -9999 -9999 -9999 -9999 -9999 -9999 -9999 -9999 -9999 -9999 -9999 -9999 -9999 -9999 -9999 -9999 -9999 -9999 -9999 -9999 -9999 -9999 -9999 -9999 -9999 -9999 -9999 -9999 -9999 -9999 -9999 -9999 2388 2329 2355 2441 2372 2270 2174 2166 2120 2023 1926 1887 1913 1841 1759 1761 1822 1921 2229 2530 2452 2181 2120 2001 1877 1952 1784 1611 1700 1946 1943 2025 2082 2164 2096 1956 2064 2145 2307 2426 2289 2227 2073 2062 2017 2143 2428 2737 2656 2621 2695 2875 3107 3270 3294 3571 3639 3563 3560 3351 3254 3154 3274 3442 3268 3419 3177 3322 3221 3058 3089 3015 2842 2793 2817 2866 2927 3249 3458 3341 3505 3740 3602 3680 3645 3713 3773 3935 3886 3765 3556 3257 3218 3264 3073 3282 3531 3648 3774 3477 3500 3641 3822 3723 3473 3384 3131 2981 2857 2840 2831 2915 2961 2864 2802 2790 2824 2698 2542 2667 2706 2936 2886 2892 3101 3302 3521 3382 3124 2957 2761 2677 2545 2470 2652 2915 3090 3452 3094 2803 2637 2752 3046 3393 3334 3175 3061 2981 3041 2979 2881 2829 2645 2599 2436 2334 2380 2474 2510 2548 2464 2466 2570 2680 2777 2668 2567 2423 2505 2521 2452 2360 2548 2704 2666 2553 2568 2565 2566 2509 2622 2711 2708 2665 2536 2837 2962 2996 2961 2967 3018 3012 2945 2723 2682 2780 2784 2738 2829 2857 2834 3024 3163 3181 3318 3329 3291 3482 3725 3813 -9999 -9999 -9999 -9999 -9999 -9999 -9999 -9999 -9999 -9999 -9999 -9999 -9999 -9999 -9999 -9999 -9999 -9999 -9999 -9999 -9999 -9999 -9999 -9999 -9999 -9999 -9999 -9999 -9999 -9999 -9999 -9999 -9999 -9999 -9999 -9999 -9999 -9999 -9999 -9999 -9999 -9999 -9999 -9999 -9999 -9999 -9999 -9999 -9999 -9999 -9999 -9999 -9999 -9999 -9999 -9999 -9999 -9999 -9999
-9999 -9999 -9999 -9999 -9999 -9999 -9999 -9999 -9999 -9999 -9999 -9999 -9999 -9999 -9999 -9999 -9999 -9999 -9999 -9999 -9999 -9999 -9999 -9999 -9999 -9999 -9999 -9999 -9999 -9999 -9999 -9999 -9999 -9999 -9999 -9999 -9999 -9999 -9999 2291 2215 2202 2247 2284 2195 2104 2048 2019 1936 2023 2050 2015 1772 2094 2200 1989 2013 2329 2567 2357 2162 2046 2072 2067 1977 1811 1621 1702 1896 2085 2189 2191 2225 2195 2015 2042 2097 2242 2423 2348 2250 2245 2306 2106 2067 2245 2467 2583 2516 2592 2809 3144 3345 3328 3320 3584 3319 3248 3221 2916 2912 3059 3133 2992 3164 2943 2856 2858 2821 2728 2794 2987 3111 2947 3097 3288 3343 3624 3573 3584 3814 3801 3579 3456 3320 3520 3715 3819 3828 3577 3294 3409 3536 3302 3184 3468 3649 4048 3855 3605 3677 3909 4068 3801 3564 3490 3350 3348 3280 3139 3037 2989 2843 2723 2663 2674 2604 2934 3078 2954 2932 3172 3108 3075 3266 3516 3572 3289 3095 2926 2828 2522 2621 2859 3041 3148 3383 3017 2677 2692 2902 3213 3429 3361 3255 3122 3061 2919 2731 2556 2441 2454 2516 2570 2580 2466 2588 2682 2654 2586 2496 2658 2719 2818 2717 2704 2535 2676 2634 2528 2397 2378 2666 2701 2730 2798 2770 2798 2693 2663 2861 2918 2921 2649 2631 2800 2932 3103 3114 3149 3117 2964 2806 2772 2945 2995 2885 2964 3060 3065 2924 3024 3213 3317 3407 3564 3573 3739 3857 -9999 -9999 -9999 -9999 -9999 -9999 -9999 -9999 -9999 -9999 -9999 -9999 -9999 -9999 -9999 -9999 -9999 -9999 -9999 -9999 -9999 -9999 -9999 -9999 -9999 -9999 -9999 -9999 -9999 -9999 -9999 -9999 -9999 -9999 -9999 -9999 -9999 -9999 -9999 -9999 -9999 -9999 -9999 -9999 -9999 -9999 -9999 -9999 -9999 -9999 -9999 -9999 -9999 -9999 -9999 -9999 -9999 -9999 -9999
-9999 -9999 -9999 -9999 -9999 -9999 -9999 -9999 -9999 -9999 -9999 -9999 -9999 -9999 -9999 -9999 -9999 -9999 -9999 -9999 -9999 -9999 -9999 -9999 -9999 -9999 -9999 -9999 -9999 -9999 -9999 -9999 -9999 -9999 -9999 -9999 -9999 -9999 2384 2257 2239 2228 2167 2161 2113 2055 2034 1987 2001 2163 2201 2030 1810 2081 2241 2115 1978 2256 2501 2336 2189 2060 2105 2069 1981 1801 1642 1739 1871 2040 2144 2158 2295 2224 2098 2074 2156 2218 2449 2316 2223 2367 2344 2230 2156 2132 2339 2592 2518 2602 2822 3141 3236 3231 3189 3483 3332 3143 3219 2931 2836 2806 2939 2948 3001 2789 2748 2694 2706 2885 3020 3208 3333 3094 3099 3449 3368 3665 3661 3682 3860 3724 3479 3313 3181 3396 3618 3734 3877 3588 3356 3456 3648 3406 3208 3461 3608 3893 3985 3698 3729 3953 4060 3786 3722 3602 3499 3251 3118 2994 2820 2770 2734 2830 2931 2983 2688 2913 3123 3130 2960 3184 3258 3154 3364 3462 3438 3268 2971 2826 2709 2508 2754 2798 2932 3034 3248 2965 2752 2709 2926 3297 3409 3324 3310 3161 3105 2943 2768 2471 2507 2670 2718 2660 2613 2492 2637 2720 2750 2619 2511 2672 2827 2841 2806 2747 2660 2723 2535 2467 2548 2410 2474 2635 2715 2895 2891 2915 2776 2708 2903 3036 2990 2680 2578 2814 2932 3153 3186 3213 3083 2911 2905 2870 2963 3071 2847 2936 3150 3174 3076 3099 3140 3286 3395 3598 3656 3827 -9999 -9999 -9999 -9999 -9999 -9999 -9999 -9999 -9999 -9999 -9999 -9999 -9999 -9999 -9999 -9999 -9999 -9999 -9999 -9999 -9999 -9999 -9999 -9999 -9999 -9999 -9999 -9999 -9999 -9999 -9999 -9999 -9999 -9999 -9999 -9999 -9999 -9999 -9999 -9999 -9999 -9999 -9999 -9999 -9999 -9999 -9999 -9999 -9999 -9999 -9999 -9999 -9999 -9999 -9999 -9999 -9999 -9999 -9999 -9999
-9999 -9999 -9999 -9999 -9999 -9999 -9999 -9999 -9999 -9999 -9999 -9999 -9999 -9999 -9999 -9999 -9999 -9999 -9999 -9999 -9999 -9999 -9999 -9999 -9999 -9999 -9999 -9999 -9999 -9999 -9999 -9999 -9999 -9999 -9999 -9999 -9999 2573 2495 2414 2343 2306 2233 2144 2128 2164 2154 2259 2387 2389 2284 2118 1831 2045 2183 2329 2117 2230 2601 2425 2171 2230 2048 1906 1769 1639 1734 1841 1905 1931 2035 2118 2279 2263 2265 2195 2220 2411 2488 2369 2393 2587 2608 2383 2263 2248 2188 2262 2407 2461 2700 2955 3109 3011 3053 3232 2958 3040 2936 3085 2774 2543 2625 2759 2542 2601 2721 2848 3043 3128 3195 3398 3610 3453 3393 3430 3704 3647 3889 3717 3416 3301 3108 3094 3360 3218 3498 3614 3912 3672 3508 3492 3740 3738 3405 3365 3539 3834 4155 3998 3994 4017 3772 3529 3369 3286 3202 3039 2879 2949 2861 3002 3131 3059 3308 3055 2883 2961 3105 3414 3253 3317 3454 3523 3546 3188 3118 3048 2986 2692 2550 2714 2863 2917 3030 3203 3157 2886 2792 2830 2923 3261 3338 3327 3387 3255 3063 2704 2599 2466 2676 2871 2943 2880 2657 2560 2629 2822 2942 2792 2500 2708 2870 2999 2962 2937 2731 2694 2648 2725 2846 2674 2416 2768 2850 2723 2911 2992 2903 2775 2943 3087 3058 2895 2604 2917 3032 3191 3231 3263 3064 2979 3098 3048 2938 3133 2941 3066 3101 3224 3296 3140 3398 3443 3448 3666 3839 -9999 -9999 -9999 -9999 -9999 -9999 -9999 -9999 -9999 -9999 -9999 -9999 -9999 -9999 -9999 -9999 -9999 -9999 -9999 -9999 -9999 -9999 -9999 -9999 -9999 -9999 -9999 -9999 -9999 -9999 -9999 -9999 -9999 -9999 -9999 -9999 -9999 -9999 -9999 -9999 -9999 -9999 -9999 -9999 -9999 -9999 -9999 -9999 -9999 -9999 -9999 -9999 -9999 -9999 -9999 -9999 -9999 -9999 -9999 -9999 -9999
-9999 -9999 -9999 -9999 -9999 -9999 -9999 -9999 -9999 -9999 -9999 -9999 -9999 -9999 -9999 -9999 -9999 -9999 -9999 -9999 -9999 -9999 -9999 -9999 -9999 -9999 -9999 -9999 -9999 -9999 -9999 -9999 -9999 -9999 -9999 -9999 -9999 -9999 2581 2503 2429 2355 2278 2269 2302 2309 2357 2593 2512 2277 2179 2038 1920 1921 2035 2351 2188 2188 2633 2550 2156 2034 1920 1722 1761 1864 1897 1919 1990 2092 2159 2199 2186 2225 2325 2370 2380 2426 2537 2550 2672 2692 2406 2406 2369 2323 2481 2433 2388 2480 2582 2854 2835 2806 3005 2815 2717 2657 2759 2661 2457 2693 2707 2761 2839 2977 2969 3244 3472 3420 3548 3659 3796 3767 3764 3613 3890 3807 3615 3570 3307 3010 3198 3319 3606 3386 3496 3654 4089 3963 3721 3544 3686 3903 3702 3418 3495 3739 4020 4327 4139 3813 3546 3394 3233 3138 2995 3109 3237 3267 2908 3054 3361 3297 3321 3281 3106 2962 3042 3345 3527 3650 3714 3662 3581 3368 3249 3015 2753 2594 2753 3021 3256 3272 3196 3304 3133 2817 3015 3088 3198 3180 3354 3401 3527 3264 2912 2647 2504 2668 2778 2971 3042 3055 2778 2634 2721 2939 3204 2789 2542 2723 3152 3212 2977 2871 2796 2879 2723 2942 3092 2722 2503 2553 2709 2773 3034 3119 3160 2956 2821 3071 3153 2836 2608 2713 2774 2870 3053 3299 3210 3091 3263 3117 3052 3196 3018 3282 3219 3298 3528 3224 3359 3630 3712 3864 -9999 -9999 -9999 -9999 -9999 -9999 -9999 -9999 -9999 -9999 -9999 -9999 -9999 -9999 -9999 -9999 -9999 -9999 -9999 -9999 -9999 -9999 -9999 -9999 -9999 -9999 -9999 -9999 -9999 -9999 -9999 -9999 -9999 -9999 -9999 -9999 -9999 -9999 -9999 -9999 -9999 -9999 -9999 -9999 -9999 -9999 -9999 -9999 -9999 -9999 -9999 -9999 -9999 -9999 -9999 -9999 -9999 -9999 -9999 -9999 -9999 -9999
-9999 -9999 -9999 -9999 -9999 -9999 -9999 -9999 -9999 -9999 -9999 -9999 -9999 -9999 -9999 -9999 -9999 -9999 -9999 -9999 -9999 -9999 -9999 -9999 -9999 -9999 -9999 -9999 -9999 -9999 -9999 -9999 -9999 -9999 -9999 -9999 -9999 -9999 -9999 2540 2426 2408 2423 2465 2517 2501 2604 2784 2568 2476 2428 2207 1954 2040 2175 2487 2335 2197 2594 2579 2282 2040 1917 1763 1740 1995 2049 2104 2144 2182 2267 2250 2143 2269 2283 2310 2363 2469 2561 2736 2863 2694 2598 2598 2516 2427 2575 2583 2549 2537 2611 2691 2809 2820 2632 2416 2380 2397 2453 2614 2901 3092 3191 3033 3034 3299 3242 3347 3565 3654 3492 3284 3560 3586 3598 3829 3686 3395 3242 3232 2959 3129 3404 3493 3721 3580 3521 3768 4097 4036 3806 3675 3693 4020 3673 3541 3692 3764 4071 4102 4012 3795 3736 3496 3191 3105 3353 3479 3364 3218 2916 3263 3424 3468 3571 3420 3384 3088 3104 3311 3492 3737 3686 3643 3474 3417 3284 2992 2764 2669 2834 3109 3524 3697 3511 3314 3045 2835 3048 3132 3363 3474 3520 3579 3463 3080 2889 2691 2525 2695 2984 3095 3166 2960 2660 2868 2931 3158 3252 2902 2599 2715 2804 3184 3144 3013 2946 3033 2795 2947 3101 2849 2580 2435 2569 2979 3065 3264 3272 3250 2919 3169 3080 2675 2776 2792 2849 2929 3038 3204 3381 3269 3386 3198 3138 3284 3102 3363 3497 3424 3593 3351 3500 3577 3650 3785 -9999 -9999 -9999 -9999 -9999 -9999 -9999 -9999 -9999 -9999 -9999 -9999 -9999 -9999 -9999 -9999 -9999 -9999 -9999 -9999 -9999 -9999 -9999 -9999 -9999 -9999 -9999 -9999 -9999 -9999 -9999 -9999 -9999 -9999 -9999 -9999 -9999 -9999 -9999 -9999 -9999 -9999 -9999 -9999 -9999 -9999 -9999 -9999 -9999 -9999 -9999 -9999 -9999 -9999 -9999 -9999 -9999 -9999 -9999 -9999 -9999 -9999
-9999 -9999 -9999 -9999 -9999 -9999 -9999 -9999 -9999 -9999 -9999 -9999 -9999 -9999 -9999 -9999 -9999 -9999 -9999 -9999 -9999 -9999 -9999 -9999 -9999 -9999 -9999 -9999 -9999 -9999 -9999 -9999 -9999 -9999 -9999 -9999 -9999 -9999 -9999 2562 2438 2460 2477 2574 2585 2634 2735 2713 2525 2407 2421 2243 1969 2007 2144 2473 2400 2257 2604 2638 2318 2164 1965 1892 1674 1910 2018 2100 2255 2239 2268 2152 2165 2222 2258 2310 2374 2477 2637 2733 2782 2738 2720 2684 2579 2483 2575 2657 2663 2643 2679 2673 2801 2709 2532 2312 2607 2704 2727 2679 3072 3222 3359 3178 3175 3263 3390 3448 3498 3491 3315 3067 3248 3352 3444 3670 3442 3259 3074 3070 2934 3313 3627 3637 3699 3782 3599 3767 4008 4242 3987 3690 3697 3980 3652 3641 3824 3812 3982 4124 4018 3982 3637 3388 3168 3221 3462 3625 3385 3225 2928 3143 3280 3312 3537 3420 3295 3251 3161 3280 3456 3744 3772 3816 3579 3307 3205 2929 2716 2755 2917 3146 3674 3836 3456 3301 3086 2866 3122 3217 3473 3537 3641 3718 3361 3043 2800 2601 2524 2810 3031 3193 3141 2875 2678 2941 3046 3228 3167 2831 2729 2898 2982 3112 3182 3058 3091 3158 2856 3013 2965 2740 2604 2446 2615 2948 3162 3275 3342 3274 2976 3090 3078 2664 2769 2932 2936 3063 3118 3277 3442 3334 3393 3241 3191 3274 3263 3319 3596 3545 3620 3436 3561 3615 3660 -9999 -9999 -9999 -9999 -9999 -9999 -9999 -9999 -9999 -9999 -9999 -9999 -9999 -9999 -9999 -9999 -9999 -9999 -9999 -9999 -9999 -9999 -9999 -9999 -9999 -9999 -9999 -9999 -9999 -9999 -9999 -9999 -9999 -9999 -9999 -9999 -9999 -9999 -9999 -9999 -9999 -9999 -9999 -9999 -9999 -9999 -9999 -9999 -9999 -9999 -9999 -9999 -9999 -9999 -9999 -9999 -9999 -9999 -9999 -9999 -9999 -9999 -9999
-9999 -9999 -9999 -9999 -9999 -9999 -9999 -9999 -9999 -9999 -9999 -9999 -9999 -9999 -9999 -9999 -9999 -9999 -9999 -9999 -9999 -9999 -9999 -9999 -9999 -9999 -9999 -9999 -9999 -9999 -9999 -9999 -9999 -9999 -9999 -9999 -9999 -9999 -9999 2590 2551 2614 2630 2701 2796 2882 2752 2583 2639 2531 2440 2155 1990 1998 2120 2320 2581 2339 2649 2667 2473 2272 2091 1932 1683 1853 1949 2007 2160 2319 2085 2058 2069 2120 2239 2346 2461 2649 2638 2838 2827 2850 2971 2755 2676 2647 2567 2632 2661 2623 2538 2552 2717 2611 2460 2349 2838 3024 3159 3074 3162 3429 3610 3496 3427 3468 3346 3127 3080 3146 3087 2796 2880 3241 3417 3387 3098 2916 2795 2917 3242 3432 3621 3800 3992 3994 3714 3698 3920 4095 4040 3808 3804 3982 3700 3774 3906 4102 4171 4094 3993 3810 3524 3322 3409 3489 3698 3530 3259 3147 3038 3258 3230 3244 3431 3467 3561 3482 3356 3420 3571 3844 3926 3737 3503 3270 3147 2956 2741 2766 2890 3274 3644 3691 3336 3205 3033 2905 3118 3256 3556 3685 3854 3705 3402 3180 2832 2558 2653 2931 3157 3414 3275 3153 2759 3067 3166 3458 3148 2769 3042 3155 3418 3187 3238 3317 3235 3184 3031 3129 2809 2771 2829 2474 2513 2707 3018 2927 3039 3341 3083 3112 2932 2707 2848 2932 3016 3139 3330 3531 3586 3574 3470 3262 3308 3259 3397 3515 3557 3665 3628 3629 3691 3774 -9999 -9999 -9999 -9999 -9999 -9999 -9999 -9999 -9999 -9999 -9999 -9999 -9999 -9999 -9999 -9999 -9999 -9999 -9999 -9999 -9999 -9999 -9999 -9999 -9999 -9999 -9999 -9999 -9999 -9999 -9999 -9999 -9999 -9999 -9999 -9999 -9999 -9999 -9999 -9999 -9999 -9999 -9999 -9999 -9999 -9999 -9999 -9999 -9999 -9999 -9999 -9999 -9999 -9999 -9999 -9999 -9999 -9999 -9999 -9999 -9999 -9999 -9999 -9999
-9999 -9999 -9999 -9999 -9999 -9999 -9999 -9999 -9999 -9999 -9999 -9999 -9999 -9999 -9999 -9999 -9999 -9999 -9999 -9999 -9999 -9999 -9999 -9999 -9999 -9999 -9999 -9999 -9999 -9999 -9999 -9999 -9999 -9999 -9999 -9999 -9999 -9999 -9999 -9999 2651 2717 2786 2898 2901 2688 2553 2459 2351 2260 2232 2141 1950 2048 2160 2244 2466 2494 2579 2709 2690 2492 2090 1996 1777 1816 2024 2035 2190 2108 1995 2070 2144 2294 2387 2427 2602 2826 2770 2696 2761 2874 2989 2822 2726 2573 2438 2508 2576 2481 2466 2496 2545 2621 2274 2539 2840 2944 3077 3382 3640 3554 3432 3488 3468 3354 3332 3060 2773 2905 2739 2642 2930 3166 3095 3103 2887 2735 3112 3291 3523 3472 3616 3647 3879 3746 3670 3731 3803 3838 3831 4128 4083 3893 3848 3925 4083 4136 4240 3934 3854 3751 3530 3606 3581 3690 3655 3397 3121 3142 3252 3325 3508 3387 3566 3620 3623 3750 3628 3734 3857 3882 3790 3567 3354 3133 3033 2903 2683 2893 3012 3358 3737 3574 3259 3150 2958 3036 3225 3366 3550 3780 3724 3554 3315 3005 2686 2722 2814 3008 3179 3424 3272 3056 2810 3206 3313 3520 3078 2800 3141 3337 3605 3354 3576 3603 3552 3217 3139 2995 2755 3062 2819 2498 2656 2538 2727 2961 3153 3427 3225 3036 2898 2777 2907 3104 3164 3351 3483 3579 3837 3774 3550 3297 3457 3446 3539 3640 3709 3689 3846 3866 3833 -9999 -9999 -9999 -9999 -9999 -9999 -9999 -9999 -9999 -9999 -9999 -9999 -9999 -9999 -9999 -9999 -9999 -9999 -9999 -9999 -9999 -9999 -9999 -9999 -9999 -9999 -9999 -9999 -9999 -9999 -9999 -9999 -9999 -9999 -9999 -9999 -9999 -9999 -9999 -9999 -9999 -9999 -9999 -9999 -9999 -9999 -9999 -9999 -9999 -9999 -9999 -9999 -9999 -9999 -9999 -9999 -9999 -9999 -9999 -9999 -9999 -9999 -9999 -9999 -9999
-9999 -9999 -9999 -9999 -9999 -9999 -9999 -9999 -9999 -9999 -9999 -9999 -9999 -9999 -9999 -9999 -9999 -9999 -9999 -9999 -9999 -9999 -9999 -9999 -9999 -9999 -9999 -9999 -9999 -9999 -9999 -9999 -9999 -9999 -9999 -9999 -9999 -9999 -9999 -9999 2796 2796 3024 2995 2758 2515 2458 2472 2321 2291 2209 2147 1976 2300 2328 2229 2429 2645 2566 2751 2778 2511 2080 1999 1863 1722 1824 1910 2089 1944 2002 2112 2374 2481 2588 2589 2560 2586 2722 2911 2938 2730 2667 2810 2862 2566 2462 2392 2511 2433 2280 2219 2241 2224 2534 2711 2740 2866 3270 3587 3634 3284 3118 3276 3197 3099 3191 2905 2784 2577 2494 2828 2802 2884 2755 2730 2619 2978 3220 3233 3423 3808 3854 3844 3543 3325 3301 3338 3459 3637 3944 4139 -9999 4034 4111 4240 -9999 -9999 -9999 4261 4117 3765 3650 3808 3775 3683 3467 3254 3416 3512 3408 3578 3759 3618 3755 3723 3702 3826 3897 3902 4160 3843 3726 3569 3406 3385 3500 3072 2765 2938 3071 3131 3388 3452 3245 3157 3003 3196 3417 3420 3580 3748 3870 3608 3213 2965 2645 2810 2936 3225 3388 3464 3487 3271 2891 3242 3377 3460 3092 2898 3240 3364 3615 3497 3742 3621 3397 3247 2898 2942 3158 3057 2735 2570 2765 2621 2763 3068 3212 3205 3076 3078 2963 2994 2871 3106 3270 3367 3499 3784 3803 3691 3547 3404 3537 3584 3782 3807 -9999 -9999 -9999 -9999 -9999 -9999 -9999 -9999 -9999 -9999 -9999 -9999 -9999 -9999 -9999 -9999 -9999 -9999 -9999 -9999 -9999 -9999 -9999 -9999 -9999 -9999 -9999 -9999 -9999 -9999 -9999 -9999 -9999 -9999 -9999 -9999 -9999 -9999 -9999 -9999 -9999 -9999 -9999 -9999 -9999 -9999 -9999 -9999 -9999 -9999 -9999 -9999 -9999 -9999 -9999 -9999 -9999 -9999 -9999 -9999 -9999 -9999 -9999 -9999 -9999 -9999 -9999 -9999 -9999 -9999
-9999 -9999 -9999 -9999 -9999 -9999 -9999 -9999 -9999 -9999 -9999 -9999 -9999 -9999 -9999 -9999 -9999 -9999 -9999 -9999 -9999 -9999 -9999 -9999 -9999 -9999 -9999 -9999 -9999 -9999 -9999 -9999 -9999 -9999 -9999 -9999 -9999 -9999 -9999 -9999 -9999 2943 3106 2953 2787 2675 2761 2717 2453 2186 2070 2131 2269 2402 2473 2463 2736 2761 2606 2788 2642 2421 2081 2065 1830 1683 1773 1836 1889 1962 2206 2392 2328 2458 2636 2864 2886 2714 2774 2876 2793 2586 2639 2702 2674 2642 2514 2318 2404 2324 2136 2159 2272 2317 2580 2938 3193 3244 3403 3502 3323 3267 3093 2853 2829 3097 3015 2825 2544 2419 2529 2435 2454 2487 2495 2573 2895 3135 3360 3489 3499 3567 3396 3398 3187 3148 3477 3506 3617 3774 4180 -9999 -9999 -9999 -9999 -9999 -9999 -9999 3902 3893 3822 3799 3912 3809 3550 3471 3366 3477 3645 3724 3675 3751 3978 3859 3789 3887 3890 3859 3983 4243 3889 3666 3594 3685 3557 3529 3401 3055 2793 2983 3107 3156 3340 3449 3150 3071 3196 3225 3366 3499 3597 3737 3635 3460 3107 2846 2810 2974 3056 3280 3564 3774 3812 3386 2981 3167 3400 3340 3039 3032 3305 3409 3655 3725 3693 3532 3287 3020 3132 3256 3086 2828 2580 2783 2959 2645 2770 2932 2880 2902 2866 2987 3054 3151 2986 3193 3372 3595 3689 3900 3838 3841 3531 3538 3644 3743 3824 -9999 -9999 -9999 -9999 -9999 -9999 -9999 -9999 -9999 -9999 -9999 -9999 -9999 -9999 -9999 -9999 -9999 -9999 -9999 -9999 -9999 -9999 -9999 -9999 -9999 -9999 -9999 -9999 -9999 -9999 -9999 -9999 -9999 -9999 -9999 -9999 -9999 -9999 -9999 -9999 -9999 -9999 -9999 -9999 -9999 -9999 -9999 -9999 -9999 -9999 -9999 -9999 -9999 -9999 -9999 -9999 -9999 -9999 -9999 -9999 -9999 -9999 -9999 -9999 -9999 -9999 -9999 -9999 -9999 -9999 -9999
-9999 -9999 -9999 -9999 -9999 -9999 -9999 -9999 -9999 -9999 -9999 -9999 -9999 -9999 -9999 -9999 -9999 -9999 -9999 -9999 -9999 -9999 -9999 -9999 -9999 -9999 -9999 -9999 -9999 -9999 -9999 -9999 -9999 -9999 -9999 -9999 -9999 -9999 -9999 -9999 -9999 3031 3046 2946 2857 2834 2869 2738 2484 2190 2033 2165 2247 2395 2485 2553 2736 2855 2686 2818 2654 2341 2026 1988 1796 1680 1760 1840 1849 2065 2357 2421 2561 2494 2550 2730 2805 2885 2925 2831 2712 2531 2584 2549 2598 2567 2439 2303 2374 2225 2126 2312 2432 2447 2743 2996 3033 3042 3308 3465 3125 3310 3199 2868 2847 2984 2820 2679 2400 2381 2417 2605 2700 2706 2770 2610 2774 3057 3309 3364 3330 3355 3189 3229 3085 3253 3609 3706 3673 3945 4229 -9999 -9999 -9999 -9999 -9999 -9999 -9999 3925 3857 3879 3989 3894 3749 3571 3573 3394 3550 3806 3872 3722 3931 4071 3949 3810 4019 3885 3956 4065 4149 3759 3551 3474 3599 3451 3313 3117 2938 2793 2967 3091 3326 3437 3559 3175 3078 3275 3303 3513 3584 3688 3752 3455 3252 2977 2722 2890 3178 3213 3384 3619 3832 3724 3352 3020 3216 3430 3451 3055 3075 3273 3365 3612 3846 3625 3517 3246 3101 3309 3313 3111 2857 2563 2890 3019 2631 2825 2797 2769 2777 2878 3070 3139 3196 3141 3134 3279 3463 3571 3757 3917 3825 3536 3645 3694 3824 -9999 -9999 -9999 -9999 -9999 -9999 -9999 -9999 -9999 -9999 -9999 -9999 -9999 -9999 -9999 -9999 -9999 -9999 -9999 -9999 -9999 -9999 -9999 -9999 -9999 -9999 -9999 -9999 -9999 -9999 -9999 -9999 -9999 -9999 -9999 -9999 -9999 -9999 -9999 -9999 -9999 -9999 -9999 -9999 -9999 -9999 -9999 -9999 -9999 -9999 -9999 -9999 -9999 -9999 -9999 -9999 -9999 -9999 -9999 -9999 -9999 -9999 -9999 -9999 -9999 -9999 -9999 -9999 -9999 -9999 -9999 -9999
-9999 -9999 -9999 -9999 -9999 -9999 -9999 -9999 -9999 -9999 -9999 -9999 -9999 -9999 -9999 -9999 -9999 -9999 -9999 -9999 -9999 -9999 -9999 -9999 -9999 -9999 -9999 -9999 -9999 -9999 -9999 -9999 -9999 -9999 -9999 -9999 -9999 -9999 -9999 -9999 -9999 3132 2929 2823 2724 2625 2641 2466 2287 2080 2151 2342 2485 2509 2618 2767 2852 2889 2716 2782 2669 2443 2034 1933 1743 1696 1735 1768 1948 1901 2198 2391 2722 2786 2652 2596 2562 2827 2779 2686 2586 2351 2271 2452 2503 2452 2227 2378 2180 2095 2271 2481 2722 2743 2746 2639 2826 2983 3322 3247 2947 2873 2936 2641 2903 2711 2557 2347 2626 2749 2784 2775 3013 3152 3034 2841 2652 2653 2783 2886 3075 2947 2943 2925 3133 3254 3544 3706 3993 -9999 -9999 -9999 -9999 -9999 -9999 -9999 -9999 -9999 -9999 4072 4083 4155 3944 3809 3751 3634 3534 3714 3964 4077 4060 4165 4119 3994 3979 4054 4110 4150 4192 3822 3524 3364 3321 3293 3217 2880 2885 3015 3075 3163 3234 3518 3730 3382 3144 3252 3482 3495 3663 3738 3667 3272 3079 2945 2786 2909 3100 3219 3247 3423 3632 3731 3505 3184 3118 3399 3571 3449 3051 3192 3573 3477 3724 3748 3492 3447 3418 3376 3100 2960 2947 2667 2705 3045 3126 2781 2613 2650 2677 2817 2991 3162 3268 3441 3244 3238 3187 3335 3538 3790 3937 3755 3832 3989 3985 4030 -9999 -9999 -9999 -9999 -9999 -9999 -9999 -9999 -9999 -9999 -9999 -9999 -9999 -9999 -9999 -9999 -9999 -9999 -9999 -9999 -9999 -9999 -9999 -9999 -9999 -9999 -9999 -9999 -9999 -9999 -9999 -9999 -9999 -9999 -9999 -9999 -9999 -9999 -9999 -9999 -9999 -9999 -9999 -9999 -9999 -9999 -9999 -9999 -9999 -9999 -9999 -9999 -9999 -9999 -9999 -9999 -9999 -9999 -9999 -9999 -9999 -9999 -9999 -9999 -9999 -9999 -9999 -9999 -9999 -9999 -9999 -9999
-9999 -9999 -9999 -9999 -9999 -9999 -9999 -9999 -9999 -9999 -9999 -9999 -9999 -9999 -9999 -9999 -9999 -9999 -9999 -9999 -9999 -9999 -9999 -9999 -9999 -9999 -9999 -9999 -9999 -9999 -9999 -9999 -9999 -9999 -9999 -9999 -9999 -9999 -9999 -9999 -9999 3182 2945 2884 2815 2696 2583 2414 2259 2231 2423 2595 2629 2772 2846 3068 3141 2770 2717 2720 2459 2312 2021 1957 1905 1786 1707 1711 1731 1757 1992 2123 2296 2536 2320 2358 2523 2863 2776 2473 2364 2316 2272 2403 2427 2309 2190 2100 2194 2274 2397 2477 2440 2380 2322 2660 2942 3110 3017 2831 2668 2521 2604 2479 2597 2340 2372 2698 2869 3114 3200 2992 3036 3309 3346 3086 2806 3054 2892 2801 2794 2847 3042 3245 3307 3593 3603 3660 3803 4177 -9999 -9999 -9999 -9999 -9999 -9999 -9999 -9999 -9999 -9999 4309 4149 4051 3888 3703 3589 3623 3928 4124 4182 4213 4011 4027 4043 4157 4246 3901 3838 3711 3448 3294 3125 3101 3009 3066 3317 3223 3343 3404 3387 3549 3640 3388 3220 3506 3525 3662 3756 3559 3475 3300 3030 2858 2871 2953 3175 3334 3414 3513 3703 3619 3361 3240 3215 3459 3556 3737 3336 3111 3506 3602 3759 3759 3597 3503 3354 3128 2999 2998 2954 2644 2880 3058 3105 3139 2777 2635 2795 2873 2970 3163 3302 3334 3582 3345 3339 3516 3367 3694 4016 3866 3835 3987 -9999 -9999 -9999 -9999 -9999 -9999 -9999 -9999 -9999 -9999 -9999 -9999 -9999 -9999 -9999 -9999 -9999 -9999 -9999 -9999 -9999 -9999 -9999 -9999 -9999 -9999 -9999 -9999 -9999 -9999 -9999 -9999 -9999 -9999 -9999 -9999 -9999 -9999 -9999 -9999 -9999 -9999 -9999 -9999 -9999 -9999 -9999 -9999 -9999 -9999 -9999 -9999 -9999 -9999 -9999 -9999 -9999 -9999 -9999 -9999 -9999 -9999 -9999 -9999 -9999 -9999 -9999 -9999 -9999 -9999 -9999 -9999 -9999 -9999 -9999
-9999 -9999 -9999 -9999 -9999 -9999 -9999 -9999 -9999 -9999 -9999 -9999 -9999 -9999 -9999 -9999 -9999 -9999 -9999 -9999 -9999 -9999 -9999 -9999 -9999 -9999 -9999 -9999 -9999 -9999 -9999 -9999 -9999 -9999 -9999 -9999 -9999 -9999 -9999 -9999 -9999 3150 2991 2881 2689 2582 2485 2349 2250 2470 2530 2690 2990 3196 3358 3340 3095 2772 2642 2546 2372 2133 1917 1909 1916 1838 1761 1879 1843 1861 1757 1836 2189 2272 2133 2396 2568 2868 2630 2607 2469 2248 2050 2115 2071 2063 2164 2256 2190 2203 2152 2128 2116 2102 2172 2542 2913 2999 2863 2500 2311 2387 2352 2303 2424 2683 2764 3048 3122 3273 3385 3448 3391 3555 3528 3171 2977 3279 3198 3028 2979 3283 3224 3133 3335 3585 3703 3869 4211 -9999 -9999 -9999 -9999 -9999 -9999 -9999 -9999 -9999 -9999 -9999 -9999 4289 4192 3884 3711 3762 3871 3952 4188 4281 4139 3963 3777 3677 3846 4038 3787 3489 3308 3185 3198 3172 3100 3265 3395 3463 3348 3619 3852 3825 3773 3362 3429 3573 3782 3724 3558 3539 3192 3105 3011 2944 3033 3212 3170 3140 3386 3726 3709 3403 3371 3384 3458 3577 3553 3810 3667 3235 3277 3712 3929 3769 3519 3270 3361 3362 3249 3130 2870 2716 2829 3042 3218 3071 2943 2689 2680 2779 2898 3065 3215 3451 3593 3672 3569 3427 3584 3654 3540 4048 4098 4059 4216 -9999 -9999 -9999 -9999 -9999 -9999 -9999 -9999 -9999 -9999 -9999 -9999 -9999 -9999 -9999 -9999 -9999 -9999 -9999 -9999 -9999 -9999 -9999 -9999 -9999 -9999 -9999 -9999 -9999 -9999 -9999 -9999 -9999 -9999 -9999 -9999 -9999 -9999 -9999 -9999 -9999 -9999 -9999 -9999 -9999 -9999 -9999 -9999 -9999 -9999 -9999 -9999 -9999 -9999 -9999 -9999 -9999 -9999 -9999 -9999 -9999 -9999 -9999 -9999 -9999 -9999 -9999 -9999 -9999 -9999 -9999 -9999 -9999 -9999 -9999
-9999 -9999 -9999 -9999 -9999 -9999 -9999 -9999 -9999 -9999 -9999 -9999 -9999 -9999 -9999 -9999 -9999 -9999 -9999 -9999 -9999 -9999 -9999 -9999 -9999 -9999 -9999 -9999 -9999 -9999 -9999 -9999 -9999 -9999 -9999 -9999 -9999 -9999 -9999 -9999 3099 3032 2981 2857 2758 2575 2503 2373 2229 2344 2434 2773 3110 3373 3484 3290 2977 2735 2595 2618 2420 2050 1898 1832 1835 1759 1860 1957 1985 2027 1743 1797 2131 2082 2153 2439 2586 2774 2737 2631 2528 2177 2040 2103 2230 2276 2163 2062 2059 2073 2071 2093 2108 2157 2140 2532 2799 2789 2591 2444 2297 2610 2606 2367 2456 2743 2898 3043 2888 3179 3341 3410 3411 3626 3543 3232 3040 3340 3254 3079 3050 3414 3492 3302 3242 3553 3793 3926 -9999 -9999 -9999 -9999 -9999 -9999 -9999 -9999 -9999 -9999 -9999 -9999 -9999 4294 4098 3833 3773 3807 3941 4154 4321 4296 4136 3829 3649 3552 3689 3822 3489 3239 3243 3286 3283 3189 3232 3425 3512 3451 3471 3635 3949 3878 3582 3341 3607 3739 3668 3574 3429 3394 3062 2994 3053 3162 3168 3164 3257 3212 3527 3754 3587 3445 3621 3493 3600 3724 3659 3823 3562 3199 3403 3641 3821 3710 3416 3225 3163 3238 3146 2986 2820 2689 2864 3192 3229 2945 2824 2652 2755 2765 2893 3041 3209 3526 3649 3770 3730 3538 3645 3818 3633 3956 4195 4197 -9999 -9999 -9999 -9999 -9999 -9999 -9999 -9999 -9999 -9999 -9999 -9999 -9999 -9999 -9999 -9999 -9999 -9999 -9999 -9999 -9999 -9999 -9999 -9999 -9999 -9999 -9999 -9999 -9999 -9999 -9999 -9999 -9999 -9999 -9999 -9999 -9999 -9999 -9999 -9999 -9999 -9999 -9999 -9999 -9999 -9999 -9999 -9999 -9999 -9999 -9999 -9999 -9999 -9999 -9999 -9999 -9999 -9999 -9999 -9999 -9999 -9999 -9999 -9999 -9999 -9999 -9999 -9999 -9999 -9999 -9999 -9999 -9999 -9999 -9999 -9999
-9999 -9999 -9999 -9999 -9999 -9999 -9999 -9999 -9999 -9999 -9999 -9999 -9999 -9999 -9999 -9999 -9999 -9999 -9999 -9999 -9999 -9999 -9999 -9999 -9999 -9999 -9999 -9999 -9999 -9999 -9999 -9999 -9999 -9999 -9999 -9999 -9999 -9999 -9999 -9999 3201 3163 3025 2770 2760 2631 2510 2307 2466 2852 2903 3062 3544 3437 3241 2915 2696 2487 2392 2441 2254 1899 1808 1776 1789 1912 2076 2133 2243 2146 1763 1767 1930 2076 2356 2665 2623 2611 2560 2287 2239 2021 2367 2466 2581 2557 2486 2328 2134 2153 2273 2278 2363 2487 2322 2206 2380 2384 2437 2496 2584 2923 2992 2592 2504 2445 2460 2560 2727 2965 2957 3042 3160 3347 3537 3483 3213 3254 3455 3469 3347 3731 3771 3656 3347 3601 3920 -9999 -9999 -9999 -9999 -9999 -9999 -9999 -9999 -9999 -9999 -9999 -9999 -9999 4274 4056 3942 3877 3967 3888 4112 4425 4245 4180 4012 3908 3735 3620 3372 3300 3374 3588 3520 3414 3349 3643 3544 3588 3676 3727 3667 3846 3910 3471 3392 3655 3829 3628 3433 3325 3187 3129 3205 3321 3414 3379 3383 3377 3489 3531 3787 3639 3541 3685 3810 3823 3976 4007 3862 3492 3334 3334 3426 3780 3692 3560 3322 3054 2978 2957 3143 3060 2725 2905 3149 3245 3018 2762 2664 2789 2873 3018 3053 3047 3295 3484 3501 3708 3919 3660 3781 4078 3855 3844 4348 -9999 -9999 -9999 -9999 -9999 -9999 -9999 -9999 -9999 -9999 -9999 -9999 -9999 -9999 -9999 -9999 -9999 -9999 -9999 -9999 -9999 -9999 -9999 -9999 -9999 -9999 -9999 -9999 -9999 -9999 -9999 -9999 -9999 -9999 -9999 -9999 -9999 -9999 -9999 -9999 -9999 -9999 -9999 -9999 -9999 -9999 -9999 -9999 -9999 -9999 -9999 -9999 -9999 -9999 -9999 -9999 -9999 -9999 -9999 -9999 -9999 -9999 -9999 -9999 -9999 -9999 -9999 -9999 -9999 -9999 -9999 -9999 -9999 -9999 -9999 -9999 -9999
-9999 -9999 -9999 -9999 -9999 -9999 -9999 -9999 -9999 -9999 -9999 -9999 -9999 -9999 -9999 -9999 -9999 -9999 -9999 -9999 -9999 -9999 -9999 -9999 -9999 -9999 -9999 -9999 -9999 -9999 -9999 -9999 -9999 -9999 -9999 -9999 -9999 -9999 -9999 3254 3009 2933 2866 2724 2631 2395 2438 2609 2867 3011 2987 3242 3577 3188 3047 2917 3023 2680 2453 2353 2030 1824 1811 1851 1970 2186 2266 2181 2139 1994 1758 1799 2038 2206 2511 2355 2293 2621 2353 2202 2031 2163 2475 2806 2923 2779 2633 2381 2184 2308 2497 2435 2535 2728 2761 2399 2352 2575 2924 3018 2894 3064 2950 2824 2992 2707 2634 2598 2764 2692 2789 2931 2997 3181 3304 3593 3402 3343 3445 3595 3880 3801 3949 3780 3601 3753 4016 -9999 -9999 -9999 -9999 -9999 -9999 -9999 -9999 -9999 -9999 -9999 -9999 -9999 -9999 4127 4140 4071 4186 4330 4454 4187 4221 4278 4160 4026 3800 3733 3457 3422 3740 3561 3524 3652 3553 3734 3655 3779 3757 3882 3887 3657 3476 3594 3753 3895 3628 3461 3233 3238 3539 3295 3407 3589 3722 3576 3666 3629 3717 3833 3984 3723 3768 3912 4088 4088 4018 3669 3453 3335 3415 3738 3673 3907 3631 3493 3267 3234 3100 3090 2852 2773 3000 3071 3232 2982 2768 2707 2783 2956 3028 3253 3374 3260 3158 3396 3561 3743 3944 3896 3993 4310 4425 4318 -9999 -9999 -9999 -9999 -9999 -9999 -9999 -9999 -9999 -9999 -9999 -9999 -9999 -9999 -9999 -9999 -9999 -9999 -9999 -9999 -9999 -9999 -9999 -9999 -9999 -9999 -9999 -9999 -9999 -9999 -9999 -9999 -9999 -9999 -9999 -9999 -9999 -9999 -9999 -9999 -9999 -9999 -9999 -9999 -9999 -9999 -9999 -9999 -9999 -9999 -9999 -9999 -9999 -9999 -9999 -9999 -9999 -9999 -9999 -9999 -9999 -9999 -9999 -9999 -9999 -9999 -9999 -9999 -9999 -9999 -9999 -9999 -9999 -9999 -9999 -9999 -9999 -9999
-9999 -9999 -9999 -9999 -9999 -9999 -9999 -9999 -9999 -9999 -9999 -9999 -9999 -9999 -9999 -9999 -9999 -9999 -9999 -9999 -9999 -9999 -9999 -9999 -9999 -9999 -9999 -9999 -9999 -9999 -9999 -9999 -9999 -9999 -9999 -9999 -9999 -9999 -9999 3362 3069 2949 2939 2753 2592 2440 2619 2836 3317 3452 3392 3354 3471 3360 3300 3215 3030 2658 2363 2185 1905 1816 1971 2055 2186 2423 2211 2117 2008 1871 1775 1781 2038 2358 2362 2205 2378 2202 2186 2010 2223 2501 2699 3074 3118 2807 2695 2377 2280 2382 2558 2607 2761 2896 2982 2604 2250 2410 2634 3040 3349 3312 3312 3279 3108 2985 2878 2912 3031 2703 2697 3070 3434 3241 3298 3618 3853 3828 3706 3643 3969 3965 4079 4057 3779 3857 -9999 -9999 -9999 -9999 -9999 -9999 -9999 -9999 -9999 -9999 -9999 -9999 -9999 -9999 -9999 -9999 -9999 4444 4408 4273 4190 4188 4045 4116 4309 4083 3816 3704 3461 3692 3801 3660 3785 3944 3800 3841 3722 3959 4019 3813 3624 3683 3874 3845 3961 3649 3433 3258 3381 3489 3799 3521 3398 3476 3646 3866 3866 3775 3954 4080 3883 3714 3776 4002 4194 4027 3887 3633 3600 3474 3649 4057 3942 3700 3387 3272 3371 3287 3204 3109 2841 3092 3227 3234 3049 2795 2797 2895 2915 2922 3174 3408 3504 3337 3443 3500 3462 3843 4066 4067 4164 4454 -9999 -9999 -9999 -9999 -9999 -9999 -9999 -9999 -9999 -9999 -9999 -9999 -9999 -9999 -9999 -9999 -9999 -9999 -9999 -9999 -9999 -9999 -9999 -9999 -9999 -9999 -9999 -9999 -9999 -9999 -9999 -9999 -9999 -9999 -9999 -9999 -9999 -9999 -9999 -9999 -9999 -9999 -9999 -9999 -9999 -9999 -9999 -9999 -9999 -9999 -9999 -9999 -9999 -9999 -9999 -9999 -9999 -9999 -9999 -9999 -9999 -9999 -9999 -9999 -9999 -9999 -9999 -9999 -9999 -9999 -9999 -9999 -9999 -9999 -9999 -9999 -9999 -9999 -9999 -9999
-9999 -9999 -9999 -9999 -9999 -9999 -9999 -9999 -9999 -9999 -9999 -9999 -9999 -9999 -9999 -9999 -9999 -9999 -9999 -9999 -9999 -9999 -9999 -9999 -9999 -9999 -9999 -9999 -9999 -9999 -9999 -9999 -9999 -9999 -9999 -9999 -9999 -9999 -9999 3374 3141 3074 3086 2916 2688 2493 2658 2984 3391 3557 3583 3561 3421 3487 3371 3292 2884 2562 2268 2055 1854 1858 2073 2225 2252 2487 2232 2117 1951 1844 1803 1790 2053 2382 2252 2162 2126 1957 1971 2093 2189 2408 2774 3126 3126 2923 2662 2394 2282 2397 2575 2706 2858 2953 3000 2684 2254 2430 2762 3014 3203 3193 3321 3314 3276 3112 2980 3009 3183 2880 2747 2982 3489 3338 3325 3602 3977 4042 3936 3814 3910 -9999 -9999 4076 3863 3983 -9999 -9999 -9999 -9999 -9999 -9999 -9999 -9999 -9999 -9999 -9999 -9999 -9999 -9999 -9999 -9999 -9999 -9999 4230 4110 4039 4015 4020 4025 4212 4033 3748 3577 3539 3759 3832 3736 3815 4102 4017 3893 3791 4021 3936 3625 3601 3789 3914 3997 3891 3556 3312 3402 3561 3667 3960 3594 3436 3563 3623 3898 3967 3847 4005 4210 3857 3726 3830 4052 4218 3955 3868 3779 3645 3526 3720 4068 3813 3492 3271 3175 3173 3115 2951 2902 2935 3227 3353 3255 2973 2772 2823 3035 3010 3115 3081 3311 3339 3501 3607 3740 3636 3895 4241 4232 -9999 -9999 -9999 -9999 -9999 -9999 -9999 -9999 -9999 -9999 -9999 -9999 -9999 -9999 -9999 -9999 -9999 -9999 -9999 -9999 -9999 -9999 -9999 -9999 -9999 -9999 -9999 -9999 -9999 -9999 -9999 -9999 -9999 -9999 -9999 -9999 -9999 -9999 -9999 -9999 -9999 -9999 -9999 -9999 -9999 -9999 -9999 -9999 -9999 -9999 -9999 -9999 -9999 -9999 -9999 -9999 -9999 -9999 -9999 -9999 -9999 -9999 -9999 -9999 -9999 -9999 -9999 -9999 -9999 -9999 -9999 -9999 -9999 -9999 -9999 -9999 -9999 -9999 -9999 -9999 -9999 -9999
-9999 -9999 -9999 -9999 -9999 -9999 -9999 -9999 -9999 -9999 -9999 -9999 -9999 -9999 -9999 -9999 -9999 -9999 -9999 -9999 -9999 -9999 -9999 -9999 -9999 -9999 -9999 -9999 -9999 -9999 -9999 -9999 -9999 -9999 -9999 -9999 -9999 -9999 -9999 3305 3022 2902 2914 2831 2584 2673 2724 3035 3495 3622 3717 3599 3107 2872 2806 2758 2518 2480 2232 1970 1830 2042 2257 2438 2648 2443 2167 2039 1936 1989 1818 1786 2074 2198 1917 1999 2134 2351 2385 2552 2460 2502 2674 3059 3138 2884 2600 2405 2415 2451 2570 2750 3018 3160 2960 2604 2287 2470 2713 2876 2861 3032 2950 3134 3492 3293 3080 2934 3263 3312 3157 2939 3295 3490 3436 3555 3923 4196 4369 4297 4110 -9999 -9999 -9999 4205 -9999 -9999 -9999 -9999 -9999 -9999 -9999 -9999 -9999 -9999 -9999 -9999 -9999 -9999 -9999 -9999 -9999 -9999 -9999 4273 4169 4021 4032 3777 3799 3816 3661 3630 3640 3677 3925 3885 3884 3966 4167 4047 3924 3989 3823 3675 3833 3984 3994 4142 3863 3724 3416 3438 3760 4052 3991 3816 3571 3572 3731 3678 3782 4092 4193 4167 4133 3864 3862 4095 4321 4162 3973 3951 3865 3564 3709 3894 4145 3645 3451 3320 3258 3174 2898 3136 3212 3125 3255 3250 3084 2845 2940 2990 3118 3259 3398 3463 3299 3376 3552 3700 4029 4074 3913 4095 -9999 -9999 -9999 -9999 -9999 -9999 -9999 -9999 -9999 -9999 -9999 -9999 -9999 -9999 -9999 -9999 -9999 -9999 -9999 -9999 -9999 -9999 -9999 -9999 -9999 -9999 -9999 -9999 -9999 -9999 -9999 -9999 -9999 -9999 -9999 -9999 -9999 -9999 -9999 -9999 -9999 -9999 -9999 -9999 -9999 -9999 -9999 -9999 -9999 -9999 -9999 -9999 -9999 -9999 -9999 -9999 -9999 -9999 -9999 -9999 -9999 -9999 -9999 -9999 -9999 -9999 -9999 -9999 -9999 -9999 -9999 -9999 -9999 -9999 -9999 -9999 -9999 -9999 -9999 -9999 -9999 -9999 -9999
-9999 -9999 -9999 -9999 -9999 -9999 -9999 -9999 -9999 -9999 -9999 -9999 -9999 -9999 -9999 -9999 -9999 -9999 -9999 -9999 -9999 -9999 -9999 -9999 -9999 -9999 -9999 -9999 -9999 -9999 -9999 -9999 -9999 -9999 -9999 -9999 -9999 -9999 3379 3210 2990 2911 2775 2610 2667 2902 2992 3125 3478 3422 3295 3160 2840 2536 2469 2629 2108 2086 1983 1868 1956 2170 2503 2616 2557 2369 2137 1990 2167 2269 2025 1985 1853 1898 2077 2504 2658 2486 2685 2900 2946 2988 2897 2908 2948 2763 2695 2668 2607 2692 2771 2900 3170 3256 3022 2660 2383 2583 2791 2839 2819 2782 2896 3131 3246 3388 3279 3005 3131 3501 3422 3125 3071 3416 3549 3915 3890 4010 4230 -9999 -9999 -9999 -9999 -9999 -9999 -9999 -9999 -9999 -9999 -9999 -9999 -9999 -9999 -9999 -9999 -9999 -9999 -9999 -9999 -9999 -9999 -9999 -9999 -9999 -9999 4242 4234 3968 3784 3773 3759 3776 3865 3948 3805 3982 4033 3888 3997 4303 4223 4071 3903 3803 4098 3878 3974 4258 3845 3634 3477 3461 3835 4178 4179 3991 3749 3685 3680 3857 3837 3885 3971 4168 4161 4040 3938 3953 3968 4284 4209 4010 3948 3735 3670 3944 4112 4052 3765 3555 3488 3352 3029 3181 3167 3298 3469 3442 3102 2961 3013 2993 3195 3338 3314 3276 3530 3597 3580 3727 3935 4214 -9999 -9999 -9999 -9999 -9999 -9999 -9999 -9999 -9999 -9999 -9999 -9999 -9999 -9999 -9999 -9999 -9999 -9999 -9999 -9999 -9999 -9999 -9999 -9999 -9999 -9999 -9999 -9999 -9999 -9999 -9999 -9999 -9999 -9999 -9999 -9999 -9999 -9999 -9999 -9999 -9999 -9999 -9999 -9999 -9999 -9999 -9999 -9999 -9999 -9999 -9999 -9999 -9999 -9999 -9999 -9999 -9999 -9999 -9999 -9999 -9999 -9999 -9999 -9999 -9999 -9999 -9999 -9999 -9999 -9999 -9999 -9999 -9999 -9999 -9999 -9999 -9999 -9999 -9999 -9999 -9999 -9999 -9999 -9999 -9999 -9999
-9999 -9999 -9999 -9999 -9999 -9999 -9999 -9999 -9999 -9999 -9999 -9999 -9999 -9999 -9999 -9999 -9999 -9999 -9999 -9999 -9999 -9999 -9999 -9999 -9999 -9999 -9999 -9999 -9999 -9999 -9999 -9999 -9999 -9999 -9999 -9999 -9999 3350 3127 3013 2936 2973 2740 2779 2942 2976 3186 3469 3380 3098 2935 2848 2587 2556 2420 2348 1931 2197 2044 1965 2091 2386 2675 2824 2606 2275 2074 2067 2317 2513 2224 2222 2121 1856 2165 2512 2634 3000 3135 3400 3478 3210 3299 3142 3092 2936 2914 2776 2717 2795 3043 3278 3210 3128 2836 2665 2404 2450 2945 3276 3110 2995 2889 3039 3326 3529 3580 3447 3219 3592 3602 3335 3245 3600 3657 3767 4107 4405 -9999 -9999 -9999 -9999 -9999 -9999 -9999 -9999 -9999 -9999 -9999 -9999 -9999 -9999 -9999 -9999 -9999 -9999 -9999 -9999 -9999 -9999 -9999 -9999 -9999 -9999 -9999 4217 4062 3944 4148 4100 4021 3865 3974 4127 3935 4054 4124 4006 4050 4339 4533 3936 3849 4024 4262 4073 4078 4123 3855 3464 3497 3812 4079 4203 3950 3904 3946 3829 3803 3996 3958 4188 3988 4024 4267 4138 4235 4372 4327 4305 4179 4309 4233 4219 4077 3948 -9999 -9999 3955 3778 3510 3351 3098 3315 3482 3530 3652 3315 3082 3069 3172 3203 3234 3519 3638 3488 3530 3824 3816 3928 4082 -9999 -9999 -9999 -9999 -9999 -9999 -9999 -9999 -9999 -9999 -9999 -9999 -9999 -9999 -9999 -9999 -9999 -9999 -9999 -9999 -9999 -9999 -9999 -9999 -9999 -9999 -9999 -9999 -9999 -9999 -9999 -9999 -9999 -9999 -9999 -9999 -9999 -9999 -9999 -9999 -9999 -9999 -9999 -9999 -9999 -9999 -9999 -9999 -9999 -9999 -9999 -9999 -9999 -9999 -9999 -9999 -9999 -9999 -9999 -9999 -9999 -9999 -9999 -9999 -9999 -9999 -9999 -9999 -9999 -9999 -9999 -9999 -9999 -9999 -9999 -9999 -9999 -9999 -9999 -9999 -9999 -9999 -9999 -9999 -9999 -9999 -9999
-9999 -9999 -9999 -9999 -9999 -9999 -9999 -9999 -9999 -9999 -9999 -9999 -9999 -9999 -9999 -9999 -9999 -9999 -9999 -9999 -9999 -9999 -9999 -9999 -9999 -9999 -9999 -9999 -9999 -9999 -9999 -9999 -9999 -9999 -9999 -9999 3498 3382 3269 3080 2794 2737 2771 2887 3309 3320 3277 3458 3296 3053 2925 2760 2386 2424 2200 2076 2013 2081 2175 2187 2089 2500 2796 2819 2528 2258 2252 2356 2606 2397 2476 2457 2044 1904 2118 2420 2515 2681 2899 3282 3322 3123 3036 2958 2835 2818 2763 2855 2830 2908 3205 3404 3199 3302 3200 2933 2579 2399 2734 3145 3109 3124 3208 3217 3116 3281 3388 3681 3397 3569 3703 4067 3740 3575 3657 3888 4146 -9999 -9999 -9999 -9999 -9999 -9999 -9999 -9999 -9999 -9999 -9999 -9999 -9999 -9999 -9999 -9999 -9999 -9999 -9999 -9999 -9999 -9999 -9999 -9999 -9999 -9999 -9999 -9999 -9999 4061 4190 4222 4286 4124 4000 4153 4215 4138 4176 4385 4138 4145 4511 4214 3947 3988 4213 4321 4332 4362 4101 3639 3529 3576 3672 3825 4155 4045 4115 3989 4011 3965 4134 4271 4330 4260 4200 4352 4312 4376 -9999 -9999 -9999 -9999 -9999 -9999 -9999 -9999 -9999 -9999 -9999 4018 3687 3389 3393 3345 3562 3809 3843 3520 3270 3309 3297 3371 3462 3313 3535 3579 3756 3927 3919 4004 4194 -9999 -9999 -9999 -9999 -9999 -9999 -9999 -9999 -9999 -9999 -9999 -9999 -9999 -9999 -9999 -9999 -9999 -9999 -9999 -9999 -9999 -9999 -9999 -9999 -9999 -9999 -9999 -9999 -9999 -9999 -9999 -9999 -9999 -9999 -9999 -9999 -9999 -9999 -9999 -9999 -9999 -9999 -9999 -9999 -9999 -9999 -9999 -9999 -9999 -9999 -9999 -9999 -9999 -9999 -9999 -9999 -9999 -9999 -9999 -9999 -9999 -9999 -9999 -9999 -9999 -9999 -9999 -9999 -9999 -9999 -9999 -9999 -9999 -9999 -9999 -9999 -9999 -9999 -9999 -9999 -9999 -9999 -9999 -9999 -9999 -9999 -9999 -9999
-9999 -9999 -9999 -9999 -9999 -9999 -9999 -9999 -9999 -9999 -9999 -9999 -9999 -9999 -9999 -9999 -9999 -9999 -9999 -9999 -9999 -9999 -9999 -9999 -9999 -9999 -9999 -9999 -9999 -9999 -9999 -9999 -9999 -9999 3794 3608 3439 3289 3114 2999 2761 2857 2918 2997 3477 3446 3305 3374 3219 3098 2974 2676 2495 2113 2092 2331 2250 2082 2165 2267 2127 2457 2719 2791 2513 2268 2335 2489 2694 2462 2666 2453 2017 1872 2020 2219 2277 2509 2876 3154 3227 2950 2855 2864 2777 2695 2780 2875 2942 2993 3298 3482 3319 3437 3266 2954 2650 2474 2630 2977 2956 3082 3226 3299 3138 3380 3517 3741 3477 3701 3961 4345 3873 3638 3694 3947 4173 -9999 -9999 -9999 -9999 -9999 -9999 -9999 -9999 -9999 -9999 -9999 -9999 -9999 -9999 -9999 -9999 -9999 -9999 -9999 -9999 -9999 -9999 -9999 -9999 -9999 -9999 -9999 -9999 -9999 -9999 4233 4312 -9999 -9999 4080 4352 4371 4273 -9999 -9999 4364 4415 4457 4092 3993 4036 4267 4172 4130 4216 4026 3607 3606 3716 3738 3827 4138 4145 4173 4079 4078 4009 4094 -9999 -9999 4450 4447 -9999 -9999 -9999 -9999 -9999 -9999 -9999 -9999 -9999 -9999 -9999 -9999 -9999 -9999 -9999 3715 3548 3486 3543 3719 3872 3874 3584 3340 3419 3417 3471 3581 3435 3582 3685 3918 3890 4016 -9999 -9999 -9999 -9999 -9999 -9999 -9999 -9999 -9999 -9999 -9999 -9999 -9999 -9999 -9999 -9999 -9999 -9999 -9999 -9999 -9999 -9999 -9999 -9999 -9999 -9999 -9999 -9999 -9999 -9999 -9999 -9999 -9999 -9999 -9999 -9999 -9999 -9999 -9999 -9999 -9999 -9999 -9999 -9999 -9999 -9999 -9999 -9999 -9999 -9999 -9999 -9999 -9999 -9999 -9999 -9999 -9999 -9999 -9999 -9999 -9999 -9999 -9999 -9999 -9999 -9999 -9999 -9999 -9999 -9999 -9999 -9999 -9999 -9999 -9999 -9999 -9999 -9999 -9999 -9999 -9999 -9999 -9999 -9999 -9999 -9999 -9999 -9999 -9999 -9999
-9999 -9999 -9999 -9999 -9999 -9999 -9999 -9999 -9999 -9999 -9999 -9999 -9999 -9999 -9999 -9999 -9999 -9999 -9999 -9999 -9999 -9999 -9999 -9999 -9999 -9999 -9999 -9999 -9999 -9999 -9999 -9999 -9999 -9999 3679 3459 3270 3255 3012 2888 3009 3156 3129 3150 3411 3237 3171 2982 2905 3019 2993 2886 2356 2319 2480 2690 2446 2203 2173 2323 2437 2279 2585 2718 2530 2302 2601 2741 2773 2788 2483 2315 2038 2193 2121 1927 2044 2328 2702 2900 2826 2707 2573 2688 2633 2580 2726 2868 3047 3243 3494 3676 3616 3550 3249 2945 2550 2477 2905 2728 2687 2892 3056 3357 3475 3472 3513 3661 3809 4009 4156 4088 3922 3928 4018 4231 4206 -9999 -9999 -9999 -9999 -9999 -9999 -9999 -9999 -9999 -9999 -9999 -9999 -9999 -9999 -9999 -9999 -9999 -9999 -9999 -9999 -9999 -9999 -9999 -9999 -9999 -9999 -9999 -9999 -9999 -9999 -9999 -9999 -9999 -9999 -9999 -9999 -9999 -9999 -9999 -9999 -9999 4406 4151 4085 4127 4312 4141 3975 3841 3866 3699 3613 3693 3725 3973 4130 4194 -9999 4266 4348 4340 4282 4273 -9999 -9999 -9999 -9999 -9999 -9999 -9999 -9999 -9999 -9999 -9999 -9999 -9999 -9999 -9999 -9999 -9999 -9999 -9999 -9999 3819 3721 3831 -9999 -9999 -9999 3664 3647 3593 3590 3674 3805 3624 3660 3780 3945 4025 -9999 -9999 -9999 -9999 -9999 -9999 -9999 -9999 -9999 -9999 -9999 -9999 -9999 -9999 -9999 -9999 -9999 -9999 -9999 -9999 -9999 -9999 -9999 -9999 -9999 -9999 -9999 -9999 -9999 -9999 -9999 -9999 -9999 -9999 -9999 -9999 -9999 -9999 -9999 -9999 -9999 -9999 -9999 -9999 -9999 -9999 -9999 -9999 -9999 -9999 -9999 -9999 -9999 -9999 -9999 -9999 -9999 -9999 -9999 -9999 -9999 -9999 -9999 -9999 -9999 -9999 -9999 -9999 -9999 -9999 -9999 -9999 -9999 -9999 -9999 -9999 -9999 -9999 -9999 -9999 -9999 -9999 -9999 -9999 -9999 -9999 -9999 -9999 -9999 -9999 -9999
-9999 -9999 -9999 -9999 -9999 -9999 -9999 -9999 -9999 -9999 -9999 -9999 -9999 -9999 -9999 -9999 -9999 -9999 -9999 -9999 -9999 -9999 -9999 -9999 -9999 -9999 -9999 -9999 -9999 -9999 -9999 -9999 -9999 -9999 3666 3478 3369 3200 3001 3219 3188 3227 3386 3460 3395 3145 2960 2798 2769 2709 2657 2544 2214 2394 2574 2766 2495 2322 2162 2281 2644 2562 2415 2569 2516 2419 2740 2911 2887 2972 2547 2328 2323 2526 2301 1923 2032 2482 2614 2476 2418 2536 2715 2532 2515 2635 2761 2863 3101 3261 3577 3717 3441 3257 2999 2881 2582 2552 3029 2897 2693 2709 2736 2987 3263 3149 3158 3583 3916 4089 4205 4257 4083 4030 4113 -9999 -9999 -9999 -9999 -9999 -9999 -9999 -9999 -9999 -9999 -9999 -9999 -9999 -9999 -9999 -9999 -9999 -9999 -9999 -9999 -9999 -9999 -9999 -9999 -9999 -9999 -9999 -9999 -9999 -9999 -9999 -9999 -9999 -9999 -9999 -9999 -9999 -9999 -9999 -9999 -9999 -9999 -9999 4302 4305 4401 4348 4207 4122 4224 3875 3831 3682 4051 3828 3888 4118 4353 -9999 -9999 -9999 -9999 -9999 -9999 -9999 -9999 -9999 -9999 -9999 -9999 -9999 -9999 -9999 -9999 -9999 -9999 -9999 -9999 -9999 -9999 -9999 -9999 -9999 -9999 -9999 -9999 -9999 -9999 -9999 -9999 -9999 -9999 3837 3885 3966 3858 3968 3737 4023 3950 -9999 -9999 -9999 -9999 -9999 -9999 -9999 -9999 -9999 -9999 -9999 -9999 -9999 -9999 -9999 -9999 -9999 -9999 -9999 -9999 -9999 -9999 -9999 -9999 -9999 -9999 -9999 -9999 -9999 -9999 -9999 -9999 -9999 -9999 -9999 -9999 -9999 -9999 -9999 -9999 -9999 -9999 -9999 -9999 -9999 -9999 -9999 -9999 -9999 -9999 -9999 -9999 -9999 -9999 -9999 -9999 -9999 -9999 -9999 -9999 -9999 -9999 -9999 -9999 -9999 -9999 -9999 -9999 -9999 -9999 -9999 -9999 -9999 -9999 -9999 -9999 -9999 -9999 -9999 -9999 -9999 -9999 -9999 -9999 -9999 -9999 -9999 -9999 -9999 -9999 -9999 -9999 -9999
-9999 -9999 -9999 -9999 -9999 -9999 -9999 -9999 -9999 -9999 -9999 -9999 -9999 -9999 -9999 -9999 -9999 -9999 -9999 -9999 -9999 -9999 -9999 -9999 -9999 -9999 -9999 -9999 -9999 -9999 -9999 -9999 -9999 -9999 -9999 3452 3281 3246 3110 3330 3409 3553 3461 3212 3279 3133 2951 2762 2568 2618 2635 2360 2551 2726 2719 2772 2484 2234 2312 2435 2659 2840 2539 2665 2586 2564 2650 2754 3043 2937 2585 2515 2729 2312 1938 2159 2261 2266 2350 2543 2664 2789 2752 2473 2473 2738 2851 2975 3246 3181 3417 3703 3458 3300 2995 2930 2769 2634 3100 3067 2805 2797 2719 2684 2859 3035 3215 3471 3577 3766 3829 3938 3969 4184 -9999 -9999 -9999 -9999 -9999 -9999 -9999 -9999 -9999 -9999 -9999 -9999 -9999 -9999 -9999 -9999 -9999 -9999 -9999 -9999 -9999 -9999 -9999 -9999 -9999 -9999 -9999 -9999 -9999 -9999 -9999 -9999 -9999 -9999 -9999 -9999 -9999 -9999 -9999 -9999 -9999 -9999 -9999 -9999 -9999 -9999 -9999 4442 4441 4192 4009 4046 3914 3868 4136 3937 3961 4254 -9999 -9999 -9999 -9999 -9999 -9999 -9999 -9999 -9999 -9999 -9999 -9999 -9999 -9999 -9999 -9999 -9999 -9999 -9999 -9999 -9999 -9999 -9999 -9999 -9999 -9999 -9999 -9999 -9999 -9999 -9999 -9999 -9999 -9999 -9999 -9999 -9999 -9999 4288 4047 4144 -9999 -9999 -9999 -9999 -9999 -9999 -9999 -9999 -9999 -9999 -9999 -9999 -9999 -9999 -9999 -9999 -9999 -9999 -9999 -9999 -9999 -9999 -9999 -9999 -9999 -9999 -9999 -9999 -9999 -9999 -9999 -9999 -9999 -9999 -9999 -9999 -9999 -9999 -9999 -9999 -9999 -9999 -9999 -9999 -9999 -9999 -9999 -9999 -9999 -9999 -9999 -9999 -9999 -9999 -9999 -9999 -9999 -9999 -9999 -9999 -9999 -9999 -9999 -9999 -9999 -9999 -9999 -9999 -9999 -9999 -9999 -9999 -9999 -9999 -9999 -9999 -9999 -9999 -9999 -9999 -9999 -9999 -9999 -9999 -9999 -9999 -9999 -9999 -9999 -9999 -9999 -9999 -9999 -9999 -9999
-9999 -9999 -9999 -9999 -9999 -9999 -9999 -9999 -9999 -9999 -9999 -9999 -9999 -9999 -9999 -9999 -9999 -9999 -9999 -9999 -9999 -9999 -9999 -9999 -9999 -9999 -9999 -9999 -9999 -9999 -9999 -9999 -9999 -9999 3735 3552 3382 3303 3213 3506 3550 3404 3302 3014 2999 3043 3023 2885 2580 2559 2581 2454 2664 2815 2927 2735 2446 2294 2375 2530 2771 2815 2645 2763 2564 2616 2818 2817 3069 3037 2631 2728 2779 2290 1930 2082 2134 2251 2452 2659 2755 2777 2706 2436 2488 2696 2761 2936 3194 3121 3447 3617 3508 3349 3099 3084 2826 2695 3169 3147 2864 2968 2872 2652 2702 3064 3199 3375 3341 3501 3594 3710 3922 -9999 -9999 -9999 -9999 -9999 -9999 -9999 -9999 -9999 -9999 -9999 -9999 -9999 -9999 -9999 -9999 -9999 -9999 -9999 -9999 -9999 -9999 -9999 -9999 -9999 -9999 -9999 -9999 -9999 -9999 -9999 -9999 -9999 -9999 -9999 -9999 -9999 -9999 -9999 -9999 -9999 -9999 -9999 -9999 -9999 -9999 -9999 -9999 -9999 -9999 4205 4149 4030 3891 3893 4105 4025 3999 4219 -9999 -9999 -9999 -9999 -9999 -9999 -9999 -9999 -9999 -9999 -9999 -9999 -9999 -9999 -9999 -9999 -9999 -9999 -9999 -9999 -9999 -9999 -9999 -9999 -9999 -9999 -9999 -9999 -9999 -9999 -9999 -9999 -9999 -9999 -9999 -9999 -9999 -9999 -9999 -9999 -9999 -9999 -9999 -9999 -9999 -9999 -9999 -9999 -9999 -9999 -9999 -9999 -9999 -9999 -9999 -9999 -9999 -9999 -9999 -9999 -9999 -9999 -9999 -9999 -9999 -9999 -9999 -9999 -9999 -9999 -9999 -9999 -9999 -9999 -9999 -9999 -9999 -9999 -9999 -9999 -9999 -9999 -9999 -9999 -9999 -9999 -9999 -9999 -9999 -9999 -9999 -9999 -9999 -9999 -9999 -9999 -9999 -9999 -9999 -9999 -9999 -9999 -9999 -9999 -9999 -9999 -9999 -9999 -9999 -9999 -9999 -9999 -9999 -9999 -9999 -9999 -9999 -9999 -9999 -9999 -9999 -9999 -9999 -9999 -9999 -9999 -9999 -9999 -9999 -9999 -9999 -9999 -9999 -9999 -9999 -9999
-9999 -9999 -9999 -9999 -9999 -9999 -9999 -9999 -9999 -9999 -9999 -9999 -9999 -9999 -9999 -9999 -9999 -9999 -9999 -9999 -9999 -9999 -9999 -9999 -9999 -9999 -9999 -9999 -9999 -9999 -9999 -9999 -9999 -9999 3765 3601 3505 3420 3517 3284 3080 3019 2979 2940 2659 2787 2710 2631 2350 2369 2436 2569 3039 3156 3159 2661 2434 2464 2630 2705 2849 2889 2919 2757 2624 2810 3000 3008 2922 2809 2846 2878 2527 2224 1972 2121 2278 2587 2613 2593 2527 2632 2527 2415 2534 2700 2814 3072 2947 3019 3196 3431 3713 3554 3314 3395 3046 2866 3099 3386 3218 3197 3100 3023 2830 2776 2923 3135 3407 3583 3648 3819 4103 4230 -9999 -9999 -9999 -9999 -9999 -9999 -9999 -9999 -9999 -9999 -9999 -9999 -9999 -9999 -9999 -9999 -9999 -9999 -9999 -9999 -9999 -9999 -9999 -9999 -9999 -9999 -9999 -9999 -9999 -9999 -9999 -9999 -9999 -9999 -9999 -9999 -9999 -9999 -9999 -9999 -9999 -9999 -9999 -9999 -9999 -9999 -9999 -9999 -9999 -9999 4182 3971 4051 4174 4174 -9999 -9999 -9999 -9999 -9999 -9999 -9999 -9999 -9999 -9999 -9999 -9999 -9999 -9999 -9999 -9999 -9999 -9999 -9999 -9999 -9999 -9999 -9999 -9999 -9999 -9999 -9999 -9999 -9999 -9999 -9999 -9999 -9999 -9999 -9999 -9999 -9999 -9999 -9999 -9999 -9999 -9999 -9999 -9999 -9999 -9999 -9999 -9999 -9999 -9999 -9999 -9999 -9999 -9999 -9999 -9999 -9999 -9999 -9999 -9999 -9999 -9999 -9999 -9999 -9999 -9999 -9999 -9999 -9999 -9999 -9999 -9999 -9999 -9999 -9999 -9999 -9999 -9999 -9999 -9999 -9999 -9999 -9999 -9999 -9999 -9999 -9999 -9999 -9999 -9999 -9999 -9999 -9999 -9999 -9999 -9999 -9999 -9999 -9999 -9999 -9999 -9999 -9999 -9999 -9999 -9999 -9999 -9999 -9999 -9999 -9999 -9999 -9999 -9999 -9999 -9999 -9999 -9999 -9999 -9999 -9999 -9999 -9999 -9999 -9999 -9999 -9999 -9999 -9999 -9999 -9999 -9999 -9999 -9999 -9999 -9999 -9999 -9999 -9999
-9999 -9999 -9999 -9999 -9999 -9999 -9999 -9999 -9999 -9999 -9999 -9999 -9999 -9999 -9999 -9999 -9999 -9999 -9999 -9999 -9999 -9999 -9999 -9999 -9999 -9999 -9999 -9999 -9999 -9999 -9999 -9999 -9999 -9999 3906 3702 3602 3531 3504 3385 3161 3052 2857 2714 2656 2507 2409 2447 2536 2940 3053 3170 3368 3105 2934 2658 2527 2575 2873 2987 3061 3130 2795 2841 2901 3046 2858 2874 2987 2924 2984 2833 2613 2268 1938 2101 2224 2394 2378 2347 2389 2435 2350 2480 2635 2725 2886 2810 2995 3104 3456 3560 3827 3858 3639 3370 3071 3088 3157 3387 3677 3387 3356 3416 3050 3098 3102 2963 3193 3550 3640 3780 3827 3916 -9999 -9999 -9999 -9999 -9999 -9999 -9999 -9999 -9999 -9999 -9999 -9999 -9999 -9999 -9999 -9999 -9999 -9999 -9999 -9999 -9999 -9999 -9999 -9999 -9999 -9999 -9999 -9999 -9999 -9999 -9999 -9999 -9999 -9999 -9999 -9999 -9999 -9999 -9999 -9999 -9999 -9999 -9999 -9999 -9999 -9999 -9999 -9999 -9999 -9999 -9999 4283 -9999 -9999 -9999 -9999 -9999 -9999 -9999 -9999 -9999 -9999 -9999 -9999 -9999 -9999 -9999 -9999 -9999 -9999 -9999 -9999 -9999 -9999 -9999 -9999 -9999 -9999 -9999 -9999 -9999 -9999 -9999 -9999 -9999 -9999 -9999 -9999 -9999 -9999 -9999 -9999 -9999 -9999 -9999 -9999 -9999 -9999 -9999 -9999 -9999 -9999 -9999 -9999 -9999 -9999 -9999 -9999 -9999 -9999 -9999 -9999 -9999 -9999 -9999 -9999 -9999 -9999 -9999 -9999 -9999 -9999 -9999 -9999 -9999 -9999 -9999 -9999 -9999 -9999 -9999 -9999 -9999 -9999 -9999 -9999 -9999 -9999 -9999 -9999 -9999 -9999 -9999 -9999 -9999 -9999 -9999 -9999 -9999 -9999 -9999 -9999 -9999 -9999 -9999 -9999 -9999 -9999 -9999 -9999 -9999 -9999 -9999 -9999 -9999 -9999 -9999 -9999 -9999 -9999 -9999 -9999 -9999 -9999 -9999 -9999 -9999 -9999 -9999 -9999 -9999 -9999 -9999 -9999 -9999 -9999 -9999 -9999 -9999 -9999 -9999 -9999 -9999 -9999
-9999 -9999 -9999 -9999 -9999 -9999 -9999 -9999 -9999 -9999 -9999 -9999 -9999 -9999 -9999 -9999 -9999 -9999 -9999 -9999 -9999 -9999 -9999 -9999 -9999 -9999 -9999 -9999 -9999 -9999 -9999 -9999 -9999 -9999 3689 3470 3335 3289 3172 3054 3004 3042 3007 2687 2563 2599 2783 3101 3045 3206 3389 3502 3241 2852 2761 2710 2864 2699 2774 2909 3253 3161 2993 3091 3028 2962 3152 3152 2893 2725 2859 2849 2679 2383 2147 2027 2303 2370 2438 2498 2544 2412 2375 2582 2678 2605 2648 2971 3201 3196 3343 3595 3846 3910 3606 3537 3472 3394 3501 3485 3766 3605 3648 3352 3536 3558 3671 3395 3167 3242 3352 3567 3765 3978 -9999 -9999 -9999 -9999 -9999 -9999 -9999 -9999 -9999 -9999 -9999 -9999 -9999 -9999 -9999 -9999 -9999 -9999 -9999 -9999 -9999 -9999 -9999 -9999 -9999 -9999 -9999 -9999 -9999 -9999 -9999 -9999 -9999 -9999 -9999 -9999 -9999 -9999 -9999 -9999 -9999 -9999 -9999 -9999 -9999 -9999 -9999 -9999 -9999 -9999 -9999 -9999 -9999 -9999 -9999 -9999 -9999 -9999 -9999 -9999 -9999 -9999 -9999 -9999 -9999 -9999 -9999 -9999 -9999 -9999 -9999 -9999 -9999 -9999 -9999 -9999 -9999 -9999 -9999 -9999 -9999 -9999 -9999 -9999 -9999 -9999 -9999 -9999 -9999 -9999 -9999 -9999 -9999 -9999 -9999 -9999 -9999 -9999 -9999 -9999 -9999 -9999 -9999 -9999 -9999 -9999 -9999 -9999 -9999 -9999 -9999 -9999 -9999 -9999 -9999 -9999 -9999 -9999 -9999 -9999 -9999 -9999 -9999 -9999 -9999 -9999 -9999 -9999 -9999 -9999 -9999 -9999 -9999 -9999 -9999 -9999 -9999 -9999 -9999 -9999 -9999 -9999 -9999 -9999 -9999 -9999 -9999 -9999 -9999 -9999 -9999 -9999 -9999 -9999 -9999 -9999 -9999 -9999 -9999 -9999 -9999 -9999 -9999 -9999 -9999 -9999 -9999 -9999 -9999 -9999 -9999 -9999 -9999 -9999 -9999 -9999 -9999 -9999 -9999 -9999 -9999 -9999 -9999 -9999 -9999 -9999 -9999 -9999 -9999 -9999 -9999 -9999 -9999 -9999
-9999 -9999 -9999 -9999 -9999 -9999 -9999 -9999 -9999 -9999 -9999 -9999 -9999 -9999 -9999 -9999 -9999 -9999 -9999 -9999 -9999 -9999 -9999 -9999 -9999 -9999 -9999 -9999 -9999 -9999 -9999 -9999 -9999 3819 3714 3383 3128 3108 2965 2913 2874 2875 2990 2647 2838 2854 3034 3302 3151 3204 3376 3400 3106 2900 2811 2869 2918 2836 2896 2848 3159 3341 3165 3209 3128 3108 3129 3001 2787 2712 2656 2672 2688 2563 2292 2045 2387 2535 2498 2672 2757 2585 2447 2492 2536 2537 2741 3066 3079 3140 3349 3682 3782 3858 3670 3760 3672 3641 3714 3642 3907 3747 3603 3496 3714 3849 3932 3648 3294 3320 3415 3736 3872 4059 -9999 -9999 -9999 -9999 -9999 -9999 -9999 -9999 -9999 -9999 -9999 -9999 -9999 -9999 -9999 -9999 -9999 -9999 -9999 -9999 -9999 -9999 -9999 -9999 -9999 -9999 -9999 -9999 -9999 -9999 -9999 -9999 -9999 -9999 -9999 -9999 -9999 -9999 -9999 -9999 -9999 -9999 -9999 -9999 -9999 -9999 -9999 -9999 -9999 -9999 -9999 -9999 -9999 -9999 -9999 -9999 -9999 -9999 -9999 -9999 -9999 -9999 -9999 -9999 -9999 -9999 -9999 -9999 -9999 -9999 -9999 -9999 -9999 -9999 -9999 -9999 -9999 -9999 -9999 -9999 -9999 -9999 -9999 -9999 -9999 -9999 -9999 -9999 -9999 -9999 -9999 -9999 -9999 -9999 -9999 -9999 -9999 -9999 -9999 -9999 -9999 -9999 -9999 -9999 -9999 -9999 -9999 -9999 -9999 -9999 -9999 -9999 -9999 -9999 -9999 -9999 -9999 -9999 -9999 -9999 -9999 -9999 -9999 -9999 -9999 -9999 -9999 -9999 -9999 -9999 -9999 -9999 -9999 -9999 -9999 -9999 -9999 -9999 -9999 -9999 -9999 -9999 -9999 -9999 -9999 -9999 -9999 -9999 -9999 -9999 -9999 -9999 -9999 -9999 -9999 -9999 -9999 -9999 -9999 -9999 -9999 -9999 -9999 -9999 -9999 -9999 -9999 -9999 -9999 -9999 -9999 -9999 -9999 -9999 -9999 -9999 -9999 -9999 -9999 -9999 -9999 -9999 -9999 -9999 -9999 -9999 -9999 -9999 -9999 -9999 -9999 -9999 -9999 -9999
-9999 -9999 -9999 -9999 -9999 -9999 -9999 -9999 -9999 -9999 -9999 -9999 -9999 -9999 -9999 -9999 -9999 -9999 -9999 -9999 -9999 -9999 -9999 -9999 -9999 -9999 -9999 -9999 -9999 -9999 3973 3927 3675 3578 3405 3171 3105 3152 3232 3324 3261 3207 3148 3048 2910 2935 3026 3106 3166 3097 3137 3249 3377 3113 3019 3016 3093 3213 3188 3065 3236 3453 3175 3060 2928 2934 3134 3062 3063 2828 2737 2584 2425 2236 2078 2130 2183 2346 2300 2441 2469 2402 2581 2670 2566 2539 2679 2910 3241 3305 3584 3854 3931 3866 3711 3578 3751 3771 3491 3644 3933 3930 3791 3890 4171 4027 3908 3686 3498 3670 3868 4068 -9999 -9999 -9999 -9999 -9999 -9999 -9999 -9999 -9999 -9999 -9999 -9999 -9999 -9999 -9999 -9999 -9999 -9999 -9999 -9999 -9999 -9999 -9999 -9999 -9999 -9999 -9999 -9999 -9999 -9999 -9999 -9999 -9999 -9999 -9999 -9999 -9999 -9999 -9999 -9999 -9999 -9999 -9999 -9999 -9999 -9999 -9999 -9999 -9999 -9999 -9999 -9999 -9999 -9999 -9999 -9999 -9999 -9999 -9999 -9999 -9999 -9999 -9999 -9999 -9999 -9999 -9999 -9999 -9999 -9999 -9999 -9999 -9999 -9999 -9999 -9999 -9999 -9999 -9999 -9999 -9999 -9999 -9999 -9999 -9999 -9999 -9999 -9999 -9999 -9999 -9999 -9999 -9999 -9999 -9999 -9999 -9999 -9999 -9999 -9999 -9999 -9999 -9999 -9999 -9999 -9999 -9999 -9999 -9999 -9999 -9999 -9999 -9999 -9999 -9999 -9999 -9999 -9999 -9999 -9999 -9999 -9999 -9999 -9999 -9999 -9999 -9999 -9999 -9999 -9999 -9999 -9999 -9999 -9999 -9999 -9999 -9999 -9999 -9999 -9999 -9999 -9999 -9999 -9999 -9999 -9999 -9999 -9999 -9999 -9999 -9999 -9999 -9999 -9999 -9999 -9999 -9999 -9999 -9999 -9999 -9999 -9999 -9999 -9999 -9999 -9999 -9999 -9999 -9999 -9999 -9999 -9999 -9999 -9999 -9999 -9999 -9999 -9999 -9999 -9999 -9999 -9999 -9999 -9999 -9999 -9999 -9999 -9999 -9999 -9999 -9999 -9999 -9999 -9999 -9999 -9999
-9999 -9999 -9999 -9999 -9999 -9999 -9999 -9999 -9999 -9999 -9999 -9999 -9999 -9999 -9999 -9999 -9999 -9999 -9999 -9999 -9999 -9999 -9999 -9999 -9999 -9999 -9999 -9999 -9999 3957 3913 3645 3474 3370 3287 3287 3368 3509 3695 3810 3696 3536 3235 3041 2743 2646 2709 2886 3140 3233 3304 3423 3603 3391 3233 3354 3272 3565 3507 3462 3535 3554 3325 3219 2949 2745 2858 3013 3040 2882 2818 2840 2616 2580 2378 2001 2006 2083 2219 2316 2248 2237 2393 2354 2363 2499 2680 2930 3173 3273 3601 3861 3624 3491 3505 3318 3672 3583 3283 3349 3669 3649 3753 4135 4143 4106 4065 3902 3852 3807 3903 -9999 -9999 -9999 -9999 -9999 -9999 -9999 -9999 -9999 -9999 -9999 -9999 -9999 -9999 -9999 -9999 -9999 -9999 -9999 -9999 -9999 -9999 -9999 -9999 -9999 -9999 -9999 -9999 -9999 -9999 -9999 -9999 -9999 -9999 -9999 -9999 -9999 -9999 -9999 -9999 -9999 -9999 -9999 -9999 -9999 -9999 -9999 -9999 -9999 -9999 -9999 -9999 -9999 -9999 -9999 -9999 -9999 -9999 -9999 -9999 -9999 -9999 -9999 -9999 -9999 -9999 -9999 -9999 -9999 -9999 -9999 -9999 -9999 -9999 -9999 -9999 -9999 -9999 -9999 -9999 -9999 -9999 -9999 -9999 -9999 -9999 -9999 -9999 -9999 -9999 -9999 -9999 -9999 -9999 -9999 -9999 -9999 -9999 -9999 -9999 -9999 -9999 -9999 -9999 -9999 -9999 -9999 -9999 -9999 -9999 -9999 -9999 -9999 -9999 -9999 -9999 -9999 -9999 -9999 -9999 -9999 -9999 -9999 -9999 -9999 -9999 -9999 -9999 -9999 -9999 -9999 -9999 -9999 -9999 -9999 -9999 -9999 -9999 -9999 -9999 -9999 -9999 -9999 -9999 -9999 -9999 -9999 -9999 -9999 -9999 -9999 -9999 -9999 -9999 -9999 -9999 -9999 -9999 -9999 -9999 -9999 -9999 -9999 -9999 -9999 -9999 -9999 -9999 -9999 -9999 -9999 -9999 -9999 -9999 -9999 -9999 -9999 -9999 -9999 -9999 -9999 -9999 -9999 -9999 -9999 -9999 -9999 -9999 -9999 -9999 -9999 -9999 -9999 -9999 -9999 -9999 -9999
-9999 -9999 -9999 -9999 -9999 -9999 -9999 -9999 -9999 -9999 -9999 -9999 -9999 -9999 -9999 -9999 -9999 -9999 -9999 -9999 -9999 -9999 -9999 -9999 -9999 -9999 -9999 -9999 -9999 -9999 3904 3889 3613 3510 3536 3553 3882 3812 3793 3629 3389 3242 2915 2578 2612 2587 2720 2981 3097 3323 3446 3509 3757 3669 3552 3466 3691 3501 3318 3317 3351 3386 3104 2920 2795 2804 2674 2689 2723 2600 2845 2939 2863 2558 2254 1995 2021 2258 2506 2555 2410 2531 2354 2596 2642 2744 2860 2946 3193 3336 3432 3515 3601 3422 3142 3268 3479 3351 3043 3461 3604 3798 3906 3773 3701 3639 3693 3838 4087 4015 4095 -9999 -9999 -9999 -9999 -9999 -9999 -9999 -9999 -9999 -9999 -9999 -9999 -9999 -9999 -9999 -9999 -9999 -9999 -9999 -9999 -9999 -9999 -9999 -9999 -9999 -9999 -9999 -9999 -9999 -9999 -9999 -9999 -9999 -9999 -9999 -9999 -9999 -9999 -9999 -9999 -9999 -9999 -9999 -9999 -9999 -9999 -9999 -9999 -9999 -9999 -9999 -9999 -9999 -9999 -9999 -9999 -9999 -9999 -9999 -9999 -9999 -9999 -9999 -9999 -9999 -9999 -9999 -9999 -9999 -9999 -9999 -9999 -9999 -9999 -9999 -9999 -9999 -9999 -9999 -9999 -9999 -9999 -9999 -9999 -9999 -9999 -9999 -9999 -9999 -9999 -9999 -9999 -9999 -9999 -9999 -9999 -9999 -9999 -9999 -9999 -9999 -9999 -9999 -9999 -9999 -9999 -9999 -9999 -9999 -9999 -9999 -9999 -9999 -9999 -9999 -9999 -9999 -9999 -9999 -9999 -9999 -9999 -9999 -9999 -9999 -9999 -9999 -9999 -9999 -9999 -9999 -9999 -9999 -9999 -9999 -9999 -9999 -9999 -9999 -9999 -9999 -9999 -9999 -9999 -9999 -9999 -9999 -9999 -9999 -9999 -9999 -9999 -9999 -9999 -9999 -9999 -9999 -9999 -9999 -9999 -9999 -9999 -9999 -9999 -9999 -9999 -9999 -9999 -9999 -9999 -9999 -9999 -9999 -9999 -9999 -9999 -9999 -9999 -9999 -9999 -9999 -9999 -9999 -9999 -9999 -9999 -9999 -9999 -9999 -9999 -9999 -9999 -9999 -9999 -9999 -9999 -9999
-9999 -9999 -9999 -9999 -9999 -9999 -9999 -9999 -9999 -9999 -9999 -9999 -9999 -9999 -9999 -9999 -9999 -9999 -9999 -9999 -9999 -9999 -9999 -9999 -9999 -9999 -9999 -9999 -9999 3742 3873 3828 3695 3632 3690 3559 3506 3446 3220 3053 2824 2726 2619 2808 3077 2783 2643 2706 3009 3262 3393 3643 3921 3803 3693 3616 3646 3639 3518 3385 3163 3171 3206 3029 2745 2518 2687 2672 2491 2424 2506 2555 2413 2227 2003 2039 2125 2444 2550 2644 2592 2622 2510 2714 2908 3165 3203 3322 3480 3483 3217 3144 3315 3171 2926 3285 3373 3173 2879 3256 3326 3594 3500 3366 3220 3437 3541 3808 3986 -9999 -9999 -9999 -9999 -9999 -9999 -9999 -9999 -9999 -9999 -9999 -9999 -9999 -9999 -9999 -9999 -9999 -9999 -9999 -9999 -9999 -9999 -9999 -9999 -9999 -9999 -9999 -9999 -9999 -9999 -9999 -9999 -9999 -9999 -9999 -9999 -9999 -9999 -9999 -9999 -9999 -9999 -9999 -9999 -9999 -9999 -9999 -9999 -9999 -9999 -9999 -9999 -9999 -9999 -9999 -9999 -9999 -9999 -9999 -9999 -9999 -9999 -9999 -9999 -9999 -9999 -9999 -9999 -9999 -9999 -9999 -9999 -9999 -9999 -9999 -9999 -9999 -9999 -9999 -9999 -9999 -9999 -9999 -9999 -9999 -9999 -9999 -9999 -9999 -9999 -9999 -9999 -9999 -9999 -9999 -9999 -9999 -9999 -9999 -9999 -9999 -9999 -9999 -9999 -9999 -9999 -9999 -9999 -9999 -9999 -9999 -9999 -9999 -9999 -9999 -9999 -9999 -9999 -9999 -9999 -9999 -9999 -9999 -9999 -9999 -9999 -9999 -9999 -9999 -9999 -9999 -9999 -9999 -9999 -9999 -9999 -9999 -9999 -9999 -9999 -9999 -9999 -9999 -9999 -9999 -9999 -9999 -9999 -9999 -9999 -9999 -9999 -9999 -9999 -9999 -9999 -9999 -9999 -9999 -9999 -9999 -9999 -9999 -9999 -9999 -9999 -9999 -9999 -9999 -9999 -9999 -9999 -9999 -9999 -9999 -9999 -9999 -9999 -9999 -9999 -9999 -9999 -9999 -9999 -9999 -9999 -9999 -9999 -9999 -9999 -9999 -9999 -9999 -9999 -9999 -9999 -9999 -9999 -9999
-9999 -9999 -9999 -9999 -9999 -9999 -9999 -9999 -9999 -9999 -9999 -9999 -9999 -9999 -9999 -9999 -9999 -9999 -9999 -9999 -9999 -9999 -9999 -9999 -9999 -9999 -9999 -9999 3839 3690 3838 3777 3579 3465 3509 3407 3233 3191 3010 2877 2763 2796 2703 3020 3166 2736 2796 2950 2852 3111 3297 3655 3882 3769 3738 3686 3450 3498 3579 3507 3266 3121 3231 3050 2784 2526 2430 2489 2534 2396 2366 2314 2250 2063 2009 2076 2181 2407 2623 2756 2743 2718 2663 2742 2919 3170 3292 3200 3405 3275 3114 2948 3212 3112 2903 3275 3296 3142 2780 3045 3287 3381 3287 3193 3247 3574 3649 3759 3986 -9999 -9999 -9999 -9999 -9999 -9999 -9999 -9999 -9999 -9999 -9999 -9999 -9999 -9999 -9999 -9999 -9999 -9999 -9999 -9999 -9999 -9999 -9999 -9999 -9999 -9999 -9999 -9999 -9999 -9999 -9999 -9999 -9999 -9999 -9999 -9999 -9999 -9999 -9999 -9999 -9999 -9999 -9999 -9999 -9999 -9999 -9999 -9999 -9999 -9999 -9999 -9999 -9999 -9999 -9999 -9999 -9999 -9999 -9999 -9999 -9999 -9999 -9999 -9999 -9999 -9999 -9999 -9999 -9999 -9999 -9999 -9999 -9999 -9999 -9999 -9999 -9999 -9999 -9999 -9999 -9999 -9999 -9999 -9999 -9999 -9999 -9999 -9999 -9999 -9999 -9999 -9999 -9999 -9999 -9999 -9999 -9999 -9999 -9999 -9999 -9999 -9999 -9999 -9999 -9999 -9999 -9999 -9999 -9999 -9999 -9999 -9999 -9999 -9999 -9999 -9999 -9999 -9999 -9999 -9999 -9999 -9999 -9999 -9999 -9999 -9999 -9999 -9999 -9999 -9999 -9999 -9999 -9999 -9999 -9999 -9999 -9999 -9999 -9999 -9999 -9999 -9999 -9999 -9999 -9999 -9999 -9999 -9999 -9999 -9999 -9999 -9999 -9999 -9999 -9999 -9999 -9999 -9999 -9999 -9999 -9999 -9999 -9999 -9999 -9999 -9999 -9999 -9999 -9999 -9999 -9999 -9999 -9999 -9999 -9999 -9999 -9999 -9999 -9999 -9999 -9999 -9999 -9999 -9999 -9999 -9999 -9999 -9999 -9999 -9999 -9999 -9999 -9999 -9999 -9999 -9999 -9999 -9999 -9999
-9999 -9999 -9999 -9999 -9999 -9999 -9999 -9999 -9999 -9999 -9999 -9999 -9999 -9999 -9999 -9999 -9999 -9999 -9999 -9999 -9999 -9999 -9999 -9999 -9999 -9999 -9999 -9999 -9999 3563 3458 3390 3234 3176 2994 2921 2888 2849 2867 3123 2942 2742 2918 3248 3094 2977 2953 3217 3100 3012 3178 3471 3767 3912 3821 3621 3617 3320 3189 3161 3217 2950 2869 2944 2805 2665 2440 2293 2249 2155 2083 2063 2028 2061 2173 2303 2338 2479 2640 2646 2595 2719 2968 2777 2661 2674 2897 2906 3069 2963 2990 2664 2839 2763 2699 2754 2875 2866 2661 2776 2911 2909 2942 3124 3482 3559 3689 3913 4207 -9999 -9999 -9999 -9999 -9999 -9999 -9999 -9999 -9999 -9999 -9999 -9999 -9999 -9999 -9999 -9999 -9999 -9999 -9999 -9999 -9999 -9999 -9999 -9999 -9999 -9999 -9999 -9999 -9999 -9999 -9999 -9999 -9999 -9999 -9999 -9999 -9999 -9999 -9999 -9999 -9999 -9999 -9999 -9999 -9999 -9999 -9999 -9999 -9999 -9999 -9999 -9999 -9999 -9999 -9999 -9999 -9999 -9999 -9999 -9999 -9999 -9999 -9999 -9999 -9999 -9999 -9999 -9999 -9999 -9999 -9999 -9999 -9999 -9999 -9999 -9999 -9999 -9999 -9999 -9999 -9999 -9999 -9999 -9999 -9999 -9999 -9999 -9999 -9999 -9999 -9999 -9999 -9999 -9999 -9999 -9999 -9999 -9999 -9999 -9999 -9999 -9999 -9999 -9999 -9999 -9999 -9999 -9999 -9999 -9999 -9999 -9999 -9999 -9999 -9999 -9999 -9999 -9999 -9999 -9999 -9999 -9999 -9999 -9999 -9999 -9999 -9999 -9999 -9999 -9999 -9999 -9999 -9999 -9999 -9999 -9999 -9999 -9999 -9999 -9999 -9999 -9999 -9999 -9999 -9999 -9999 -9999 -9999 -9999 -9999 -9999 -9999 -9999 -9999 -9999 -9999 -9999 -9999 -9999 -9999 -9999 -9999 -9999 -9999 -9999 -9999 -9999 -9999 -9999 -9999 -9999 -9999 -9999 -9999 -9999 -9999 -9999 -9999 -9999 -9999 -9999 -9999 -9999 -9999 -9999 -9999 -9999 -9999 -9999 -9999 -9999 -9999 -9999 -9999 -9999 -9999 -9999 -9999 -9999
-9999 -9999 -9999 -9999 -9999 -9999 -9999 -9999 -9999 -9999 -9999 -9999 -9999 -9999 -9999 -9999 -9999 -9999 -9999 -9999 -9999 -9999 -9999 -9999 -9999 -9999 -9999 -9999 -9999 3571 3433 3211 3050 3053 3070 3228 3055 3141 3308 3279 2827 2886 3220 3450 3105 3152 3096 3150 3213 3219 3165 3457 3695 3802 3968 3815 3666 3406 3199 3107 3081 2921 2549 2524 2607 2531 2214 2104 2068 2082 2338 2441 2463 2383 2586 2578 2642 2486 2459 2449 2448 2560 2545 2369 2366 2600 2489 2517 2611 2522 2510 2628 2735 2793 2938 2939 2684 2644 2971 3179 3171 3285 3391 3334 3641 3859 3966 4238 -9999 -9999 -9999 -9999 -9999 -9999 -9999 -9999 -9999 -9999 -9999 -9999 -9999 -9999 -9999 -9999 -9999 -9999 -9999 -9999 -9999 -9999 -9999 -9999 -9999 -9999 -9999 -9999 -9999 -9999 -9999 -9999 -9999 -9999 -9999 -9999 -9999 -9999 -9999 -9999 -9999 -9999 -9999 -9999 -9999 -9999 -9999 -9999 -9999 -9999 -9999 -9999 -9999 -9999 -9999 -9999 -9999 -9999 -9999 -9999 -9999 -9999 -9999 -9999 -9999 -9999 -9999 -9999 -9999 -9999 -9999 -9999 -9999 -9999 -9999 -9999 -9999 -9999 -9999 -9999 -9999 -9999 -9999 -9999 -9999 -9999 -9999 -9999 -9999 -9999 -9999 -9999 -9999 -9999 -9999 -9999 -9999 -9999 -9999 -9999 -9999 -9999 -9999 -9999 -9999 -9999 -9999 -9999 -9999 -9999 -9999 -9999 -9999 -9999 -9999 -9999 -9999 -9999 -9999 -9999 -9999 -9999 -9999 -9999 -9999 -9999 -9999 -9999 -9999 -9999 -9999 -9999 -9999 -9999 -9999 -9999 -9999 -9999 -9999 -9999 -9999 -9999 -9999 -9999 -9999 -9999 -9999 -9999 -9999 -9999 -9999 -9999 -9999 -9999 -9999 -9999 -9999 -9999 -9999 -9999 -9999 -9999 -9999 -9999 -9999 -9999 -9999 -9999 -9999 -9999 -9999 -9999 -9999 -9999 -9999 -9999 -9999 -9999 -9999 -9999 -9999 -9999 -9999 -9999 -9999 -9999 -9999 -9999 -9999 -9999 -9999 -9999 -9999 -9999 -9999 -9999 -9999 -9999 -9999 -9999
-9999 -9999 -9999 -9999 -9999 -9999 -9999 -9999 -9999 -9999 -9999 -9999 -9999 -9999 -9999 -9999 -9999 -9999 -9999 -9999 -9999 -9999 -9999 -9999 -9999 -9999 -9999 -9999 -9999 -9999 3707 3457 3242 3340 3238 3357 3472 3530 3468 3097 3099 3163 3423 3334 3182 3183 3310 3466 3239 3525 3590 3427 3564 3763 3968 3897 3618 3601 3365 3454 3231 2787 2607 2533 2328 2344 2280 2122 2081 2127 2221 2254 2255 2246 2298 2410 2392 2255 2244 2249 2256 2284 2349 2552 2641 2949 3062 2926 3007 2948 2592 2949 3225 3203 3318 3037 2657 2650 3021 3313 3432 3591 3699 3695 3718 3872 3966 3983 4167 -9999 -9999 -9999 -9999 -9999 -9999 -9999 -9999 -9999 -9999 -9999 -9999 -9999 -9999 -9999 -9999 -9999 -9999 -9999 -9999 -9999 -9999 -9999 -9999 -9999 -9999 -9999 -9999 -9999 -9999 -9999 -9999 -9999 -9999 -9999 -9999 -9999 -9999 -9999 -9999 -9999 -9999 -9999 -9999 -9999 -9999 -9999 -9999 -9999 -9999 -9999 -9999 -9999 -9999 -9999 -9999 -9999 -9999 -9999 -9999 -9999 -9999 -9999 -9999 -9999 -9999 -9999 -9999 -9999 -9999 -9999 -9999 -9999 -9999 -9999 -9999 -9999 -9999 -9999 -9999 -9999 -9999 -9999 -9999 -9999 -9999 -9999 -9999 -9999 -9999 -9999 -9999 -9999 -9999 -9999 -9999 -9999 -9999 -9999 -9999 -9999 -9999 -9999 -9999 -9999 -9999 -9999 -9999 -9999 -9999 -9999 -9999 -9999 -9999 -9999 -9999 -9999 -9999 -9999 -9999 -9999 -9999 -9999 -9999 -9999 -9999 -9999 -9999 -9999 -9999 -9999 -9999 -9999 -9999 -9999 -9999 -9999 -9999 -9999 -9999 -9999 -9999 -9999 -9999 -9999 -9999 -9999 -9999 -9999 -9999 -9999 -9999 -9999 -9999 -9999 -9999 -9999 -9999 -9999 -9999 -9999 -9999 -9999 -9999 -9999 -9999 -9999 -9999 -9999 -9999 -9999 -9999 -9999 -9999 -9999 -9999 -9999 -9999 -9999 -9999 -9999 -9999 -9999 -9999 -9999 -9999 -9999 -9999 -9999 -9999 -9999 -9999 -9999 -9999 -9999 -9999 -9999 -9999 -9999
-9999 -9999 -9999 -9999 -9999 -9999 -9999 -9999 -9999 -9999 -9999 -9999 -9999 -9999 -9999 -9999 -9999 -9999 -9999 -9999 -9999 -9999 -9999 -9999 -9999 -9999 -9999 -9999 -9999 -9999 3772 3495 3346 3475 3341 3468 3505 3394 3237 3120 3228 3386 3518 3270 3252 3276 3324 3514 3363 3593 3711 3572 3755 3900 4020 3824 3681 3499 3500 3461 3255 3037 2843 2707 2407 2250 2313 2113 2087 2217 2133 2140 2142 2173 2177 2206 2215 2208 2234 2297 2333 2358 2558 2788 2906 2948 3269 3209 3196 3006 2673 2819 3134 3301 3374 2957 2679 2766 2864 3063 3193 3458 3516 3473 3502 3671 3757 3881 4051 -9999 -9999 -9999 -9999 -9999 -9999 -9999 -9999 -9999 -9999 -9999 -9999 -9999 -9999 -9999 -9999 -9999 -9999 -9999 -9999 -9999 -9999 -9999 -9999 -9999 -9999 -9999 -9999 -9999 -9999 -9999 -9999 -9999 -9999 -9999 -9999 -9999 -9999 -9999 -9999 -9999 -9999 -9999 -9999 -9999 -9999 -9999 -9999 -9999 -9999 -9999 -9999 -9999 -9999 -9999 -9999 -9999 -9999 -9999 -9999 -9999 -9999 -9999 -9999 -9999 -9999 -9999 -9999 -9999 -9999 -9999 -9999 -9999 -9999 -9999 -9999 -9999 -9999 -9999 -9999 -9999 -9999 -9999 -9999 -9999 -9999 -9999 -9999 -9999 -9999 -9999 -9999 -9999 -9999 -9999 -9999 -9999 -9999 -9999 -9999 -9999 -9999 -9999 -9999 -9999 -9999 -9999 -9999 -9999 -9999 -9999 -9999 -9999 -9999 -9999 -9999 -9999 -9999 -9999 -9999 -9999 -9999 -9999 -9999 -9999 -9999 -9999 -9999 -9999 -9999 -9999 -9999 -9999 -9999 -9999 -9999 -9999 -9999 -9999 -9999 -9999 -9999 -9999 -9999 -9999 -9999 -9999 -9999 -9999 -9999 -9999 -9999 -9999 -9999 -9999 -9999 -9999 -9999 -9999 -9999 -9999 -9999 -9999 -9999 -9999 -9999 -9999 -9999 -9999 -9999 -9999 -9999 -9999 -9999 -9999 -9999 -9999 -9999 -9999 -9999 -9999 -9999 -9999 -9999 -9999 -9999 -9999 -9999 -9999 -9999 -9999 -9999 -9999 -9999 -9999 -9999 -9999 -9999 -9999
-9999 -9999 -9999 -9999 -9999 -9999 -9999 -9999 -9999 -9999 -9999 -9999 -9999 -9999 -9999 -9999 -9999 -9999 -9999 -9999 -9999 -9999 -9999 -9999 -9999 -9999 -9999 -9999 -9999 -9999 -9999 3670 3518 3572 3531 3664 3399 3482 3669 3345 3285 3435 3579 3481 3308 3515 3451 3683 3710 3670 3585 3756 3463 3677 3841 3646 3447 3245 3169 3271 3071 2794 2652 2658 2703 2306 2165 2093 2147 2412 2511 2547 2483 2427 2521 2447 2383 2433 2552 2501 2479 2655 2848 3218 3316 3320 3537 3350 2968 2801 3033 3221 3120 3248 3374 3029 2724 2811 3139 3006 2945 3037 3097 3398 3444 3649 3735 3923 4291 -9999 -9999 -9999 -9999 -9999 -9999 -9999 -9999 -9999 -9999 -9999 -9999 -9999 -9999 -9999 -9999 -9999 -9999 -9999 -9999 -9999 -9999 -9999 -9999 -9999 -9999 -9999 -9999 -9999 -9999 -9999 -9999 -9999 -9999 -9999 -9999 -9999 -9999 -9999 -9999 -9999 -9999 -9999 -9999 -9999 -9999 -9999 -9999 -9999 -9999 -9999 -9999 -9999 -9999 -9999 -9999 -9999 -9999 -9999 -9999 -9999 -9999 -9999 -9999 -9999 -9999 -9999 -9999 -9999 -9999 -9999 -9999 -9999 -9999 -9999 -9999 -9999 -9999 -9999 -9999 -9999 -9999 -9999 -9999 -9999 -9999 -9999 -9999 -9999 -9999 -9999 -9999 -9999 -9999 -9999 -9999 -9999 -9999 -9999 -9999 -9999 -9999 -9999 -9999 -9999 -9999 -9999 -9999 -9999 -9999 -9999 -9999 -9999 -9999 -9999 -9999 -9999 -9999 -9999 -9999 -9999 -9999 -9999 -9999 -9999 -9999 -9999 -9999 -9999 -9999 -9999 -9999 -9999 -9999 -9999 -9999 -9999 -9999 -9999 -9999 -9999 -9999 -9999 -9999 -9999 -9999 -9999 -9999 -9999 -9999 -9999 -9999 -9999 -9999 -9999 -9999 -9999 -9999 -9999 -9999 -9999 -9999 -9999 -9999 -9999 -9999 -9999 -9999 -9999 -9999 -9999 -9999 -9999 -9999 -9999 -9999 -9999 -9999 -9999 -9999 -9999 -9999 -9999 -9999 -9999 -9999 -9999 -9999 -9999 -9999 -9999 -9999 -9999 -9999 -9999 -9999 -9999 -9999 -9999
-9999 -9999 -9999 -9999 -9999 -9999 -9999 -9999 -9999 -9999 -9999 -9999 -9999 -9999 -9999 -9999 -9999 -9999 -9999 -9999 -9999 -9999 -9999 -9999 -9999 -9999 -9999 -9999 -9999 -9999 3835 3733 3684 3727 3858 3714 3525 3634 3878 3602 3449 3532 3854 3720 3579 3649 3828 3683 3475 3547 3420 3536 3317 3467 3586 3704 3381 3084 2917 2855 2958 3104 2958 2789 2520 2371 2137 2283 2455 2546 2641 2657 2691 2632 2701 2703 2559 2582 2784 2734 2701 3002 3140 3339 3511 3674 3418 3225 2968 3117 3229 3532 3530 3503 3205 2908 3007 3056 2954 3341 3450 3172 3239 3414 3725 3828 3894 3943 4194 -9999 -9999 -9999 -9999 -9999 -9999 -9999 -9999 -9999 -9999 -9999 -9999 -9999 -9999 -9999 -9999 -9999 -9999 -9999 -9999 -9999 -9999 -9999 -9999 -9999 -9999 -9999 -9999 -9999 -9999 -9999 -9999 -9999 -9999 -9999 -9999 -9999 -9999 -9999 -9999 -9999 -9999 -9999 -9999 -9999 -9999 -9999 -9999 -9999 -9999 -9999 -9999 -9999 -9999 -9999 -9999 -9999 -9999 -9999 -9999 -9999 -9999 -9999 -9999 -9999 -9999 -9999 -9999 -9999 -9999 -9999 -9999 -9999 -9999 -9999 -9999 -9999 -9999 -9999 -9999 -9999 -9999 -9999 -9999 -9999 -9999 -9999 -9999 -9999 -9999 -9999 -9999 -9999 -9999 -9999 -9999 -9999 -9999 -9999 -9999 -9999 -9999 -9999 -9999 -9999 -9999 -9999 -9999 -9999 -9999 -9999 -9999 -9999 -9999 -9999 -9999 -9999 -9999 -9999 -9999 -9999 -9999 -9999 -9999 -9999 -9999 -9999 -9999 -9999 -9999 -9999 -9999 -9999 -9999 -9999 -9999 -9999 -9999 -9999 -9999 -9999 -9999 -9999 -9999 -9999 -9999 -9999 -9999 -9999 -9999 -9999 -9999 -9999 -9999 -9999 -9999 -9999 -9999 -9999 -9999 -9999 -9999 -9999 -9999 -9999 -9999 -9999 -9999 -9999 -9999 -9999 -9999 -9999 -9999 -9999 -9999 -9999 -9999 -9999 -9999 -9999 -9999 -9999 -9999 -9999 -9999 -9999 -9999 -9999 -9999 -9999 -9999 -9999 -9999 -9999 -9999 -9999 -9999 -9999
-9999 -9999 -9999 -9999 -9999 -9999 -9999 -9999 -9999 -9999 -9999 -9999 -9999 -9999 -9999 -9999 -9999 -9999 -9999 -9999 -9999 -9999 -9999 -9999 -9999 -9999 -9999 -9999 -9999 -9999 -9999 -9999 4129 4172 4205 4028 3697 3634 3805 3793 3716 3672 3864 3660 3726 3800 3835 3837 3582 3420 3406 3250 3297 3226 3340 3423 3368 3371 3085 2937 2677 2721 2854 2863 2587 2269 2118 2148 2198 2328 2372 2380 2504 2496 2634 2675 2659 2651 2826 3110 3128 3281 3401 3469 3596 3646 3527 3302 3163 3399 3485 3676 3503 3329 3004 3137 3368 3261 2927 3318 3645 3445 3604 3624 3596 3793 3920 4127 -9999 -9999 -9999 -9999 -9999 -9999 -9999 -9999 -9999 -9999 -9999 -9999 -9999 -9999 -9999 -9999 -9999 -9999 -9999 -9999 -9999 -9999 -9999 -9999 -9999 -9999 -9999 -9999 -9999 -9999 -9999 -9999 -9999 -9999 -9999 -9999 -9999 -9999 -9999 -9999 -9999 -9999 -9999 -9999 -9999 -9999 -9999 -9999 -9999 -9999 -9999 -9999 -9999 -9999 -9999 -9999 -9999 -9999 -9999 -9999 -9999 -9999 -9999 -9999 -9999 -9999 -9999 -9999 -9999 -9999 -9999 -9999 -9999 -9999 -9999 -9999 -9999 -9999 -9999 -9999 -9999 -9999 -9999 -9999 -9999 -9999 -9999 -9999 -9999 -9999 -9999 -9999 -9999 -9999 -9999 -9999 -9999 -9999 -9999 -9999 -9999 -9999 -9999 -9999 -9999 -9999 -9999 -9999 -9999 -9999 -9999 -9999 -9999 -9999 -9999 -9999 -9999 -9999 -9999 -9999 -9999 -9999 -9999 -9999 -9999 -9999 -9999 -9999 -9999 -9999 -9999 -9999 -9999 -9999 -9999 -9999 -9999 -9999 -9999 -9999 -9999 -9999 -9999 -9999 -9999 -9999 -9999 -9999 -9999 -9999 -9999 -9999 -9999 -9999 -9999 -9999 -9999 -9999 -9999 -9999 -9999 -9999 -9999 -9999 -9999 -9999 -9999 -9999 -9999 -9999 -9999 -9999 -9999 -9999 -9999 -9999 -9999 -9999 -9999 -9999 -9999 -9999 -9999 -9999 -9999 -9999 -9999 -9999 -9999 -9999 -9999 -9999 -9999 -9999 -9999 -9999 -9999 -9999 -9999 -9999
-9999 -9999 -9999 -9999 -9999 -9999 -9999 -9999 -9999 -9999 -9999 -9999 -9999 -9999 -9999 -9999 -9999 -9999 -9999 -9999 -9999 -9999 -9999 -9999 -9999 -9999 -9999 -9999 -9999 -9999 -9999 -9999 4053 4033 4080 4237 3844 3725 3715 3630 3746 3860 3846 3571 3523 3741 3694 3844 3620 3524 3531 3127 3060 3102 3252 3374 3201 3350 3184 3102 2789 2546 2620 2677 2646 2352 2120 2140 2217 2234 2255 2278 2342 2433 2560 2644 2628 2598 2750 3132 3272 3468 3443 3324 3384 3501 3680 3383 3234 3408 3593 3752 3440 3266 3121 3268 3438 3239 3020 3361 3684 3557 3690 3837 3660 3772 3914 4123 -9999 -9999 -9999 -9999 -9999 -9999 -9999 -9999 -9999 -9999 -9999 -9999 -9999 -9999 -9999 -9999 -9999 -9999 -9999 -9999 -9999 -9999 -9999 -9999 -9999 -9999 -9999 -9999 -9999 -9999 -9999 -9999 -9999 -9999 -9999 -9999 -9999 -9999 -9999 -9999 -9999 -9999 -9999 -9999 -9999 -9999 -9999 -9999 -9999 -9999 -9999 -9999 -9999 -9999 -9999 -9999 -9999 -9999 -9999 -9999 -9999 -9999 -9999 -9999 -9999 -9999 -9999 -9999 -9999 -9999 -9999 -9999 -9999 -9999 -9999 -9999 -9999 -9999 -9999 -9999 -9999 -9999 -9999 -9999 -9999 -9999 -9999 -9999 -9999 -9999 -9999 -9999 -9999 -9999 -9999 -9999 -9999 -9999 -9999 -9999 -9999 -9999 -9999 -9999 -9999 -9999 -9999 -9999 -9999 -9999 -9999 -9999 -9999 -9999 -9999 -9999 -9999 -9999 -9999 -9999 -9999 -9999 -9999 -9999 -9999 -9999 -9999 -9999 -9999 -9999 -9999 -9999 -9999 -9999 -9999 -9999 -9999 -9999 -9999 -9999 -9999 -9999 -9999 -9999 -9999 -9999 -9999 -9999 -9999 -9999 -9999 -9999 -9999 -9999 -9999 -9999 -9999 -9999 -9999 -9999 -9999 -9999 -9999 -9999 -9999 -9999 -9999 -9999 -9999 -9999 -9999 -9999 -9999 -9999 -9999 -9999 -9999 -9999 -9999 -9999 -9999 -9999 -9999 -9999 -9999 -9999 -9999 -9999 -9999 -9999 -9999 -9999 -9999 -9999 -9999 -9999 -9999 -9999 -9999 -9999
-9999 -9999 -9999 -9999 -9999 -9999 -9999 -9999 -9999 -9999 -9999 -9999 -9999 -9999 -9999 -9999 -9999 -9999 -9999 -9999 -9999 -9999 -9999 -9999 -9999 -9999 -9999 -9999 -9999 -9999 -9999 4120 3858 3727 3824 3966 4040 3909 3741 3468 3520 3619 3877 3695 3389 3554 3566 3631 3827 3565 3397 3154 2876 2894 3012 3193 3005 3097 3177 3068 3052 2717 2592 2464 2453 2408 2145 2131 2254 2413 2555 2539 2406 2346 2391 2508 2566 2573 2745 3063 3124 3124 3026 3197 3384 3544 3730 3688 3467 3568 3841 3527 3301 3290 3434 3588 3488 3268 3119 3371 3720 3726 3841 4171 3960 3874 3949 -9999 -9999 -9999 -9999 -9999 -9999 -9999 -9999 -9999 -9999 -9999 -9999 -9999 -9999 -9999 -9999 -9999 -9999 -9999 -9999 -9999 -9999 -9999 -9999 -9999 -9999 -9999 -9999 -9999 -9999 -9999 -9999 -9999 -9999 -9999 -9999 -9999 -9999 -9999 -9999 -9999 -9999 -9999 -9999 -9999 -9999 -9999 -9999 -9999 -9999 -9999 -9999 -9999 -9999 -9999 -9999 -9999 -9999 -9999 -9999 -9999 -9999 -9999 -9999 -9999 -9999 -9999 -9999 -9999 -9999 -9999 -9999 -9999 -9999 -9999 -9999 -9999 -9999 -9999 -9999 -9999 -9999 -9999 -9999 -9999 -9999 -9999 -9999 -9999 -9999 -9999 -9999 -9999 -9999 -9999 -9999 -9999 -9999 -9999 -9999 -9999 -9999 -9999 -9999 -9999 -9999 -9999 -9999 -9999 -9999 -9999 -9999 -9999 -9999 -9999 -9999 -9999 -9999 -9999 -9999 -9999 -9999 -9999 -9999 -9999 -9999 -9999 -9999 -9999 -9999 -9999 -9999 -9999 -9999 -9999 -9999 -9999 -9999 -9999 -9999 -9999 -9999 -9999 -9999 -9999 -9999 -9999 -9999 -9999 -9999 -9999 -9999 -9999 -9999 -9999 -9999 -9999 -9999 -9999 -9999 -9999 -9999 -9999 -9999 -9999 -9999 -9999 -9999 -9999 -9999 -9999 -9999 -9999 -9999 -9999 -9999 -9999 -9999 -9999 -9999 -9999 -9999 -9999 -9999 -9999 -9999 -9999 -9999 -9999 -9999 -9999 -9999 -9999 -9999 -9999 -9999 -9999 -9999 -9999 -9999 -9999
-9999 -9999 -9999 -9999 -9999 -9999 -9999 -9999 -9999 -9999 -9999 -9999 -9999 -9999 -9999 -9999 -9999 -9999 -9999 -9999 -9999 -9999 -9999 -9999 -9999 -9999 -9999 -9999 -9999 -9999 3967 3782 3755 3651 3658 3912 4073 3881 3556 3384 3311 3443 3612 3587 3364 3486 3469 3577 3598 3712 3563 3235 3019 2733 2739 2992 2809 2898 2922 2772 2899 3018 2864 2694 2385 2266 2159 2153 2239 2558 2576 2674 2738 2671 2517 2532 2490 2468 2607 2620 2603 2786 3073 3090 3174 3431 3730 3953 3686 3704 3878 3531 3396 3466 3598 3851 3531 3344 3399 3347 3528 3783 3933 4183 4246 4123 -9999 -9999 -9999 -9999 -9999 -9999 -9999 -9999 -9999 -9999 -9999 -9999 -9999 -9999 -9999 -9999 -9999 -9999 -9999 -9999 -9999 -9999 -9999 -9999 -9999 -9999 -9999 -9999 -9999 -9999 -9999 -9999 -9999 -9999 -9999 -9999 -9999 -9999 -9999 -9999 -9999 -9999 -9999 -9999 -9999 -9999 -9999 -9999 -9999 -9999 -9999 -9999 -9999 -9999 -9999 -9999 -9999 -9999 -9999 -9999 -9999 -9999 -9999 -9999 -9999 -9999 -9999 -9999 -9999 -9999 -9999 -9999 -9999 -9999 -9999 -9999 -9999 -9999 -9999 -9999 -9999 -9999 -9999 -9999 -9999 -9999 -9999 -9999 -9999 -9999 -9999 -9999 -9999 -9999 -9999 -9999 -9999 -9999 -9999 -9999 -9999 -9999 -9999 -9999 -9999 -9999 -9999 -9999 -9999 -9999 -9999 -9999 -9999 -9999 -9999 -9999 -9999 -9999 -9999 -9999 -9999 -9999 -9999 -9999 -9999 -9999 -9999 -9999 -9999 -9999 -9999 -9999 -9999 -9999 -9999 -9999 -9999 -9999 -9999 -9999 -9999 -9999 -9999 -9999 -9999 -9999 -9999 -9999 -9999 -9999 -9999 -9999 -9999 -9999 -9999 -9999 -9999 -9999 -9999 -9999 -9999 -9999 -9999 -9999 -9999 -9999 -9999 -9999 -9999 -9999 -9999 -9999 -9999 -9999 -9999 -9999 -9999 -9999 -9999 -9999 -9999 -9999 -9999 -9999 -9999 -9999 -9999 -9999 -9999 -9999 -9999 -9999 -9999 -9999 -9999 -9999 -9999 -9999 -9999 -9999 -9999 -9999
-9999 -9999 -9999 -9999 -9999 -9999 -9999 -9999 -9999 -9999 -9999 -9999 -9999 -9999 -9999 -9999 -9999 -9999 -9999 -9999 -9999 -9999 -9999 -9999 -9999 -9999 -9999 -9999 4093 3913 3805 3663 3550 3421 3522 3696 3937 3767 3650 3566 3275 3173 3353 3421 3444 3186 3207 3131 3417 3489 3600 3528 3209 2871 2704 2558 2550 2508 2561 2580 2640 2745 2755 2860 2580 2247 2166 2188 2413 2526 2512 2633 2639 2705 2757 2550 2583 2676 2804 2826 2913 2682 2960 3194 3284 3441 3501 3810 3951 3847 3971 3632 3546 3574 3902 3959 3647 3488 3490 3564 3662 3662 3745 3952 4210 -9999 -9999 -9999 -9999 -9999 -9999 -9999 -9999 -9999 -9999 -9999 -9999 -9999 -9999 -9999 -9999 -9999 -9999 -9999 -9999 -9999 -9999 -9999 -9999 -9999 -9999 -9999 -9999 -9999 -9999 -9999 -9999 -9999 -9999 -9999 -9999 -9999 -9999 -9999 -9999 -9999 -9999 -9999 -9999 -9999 -9999 -9999 -9999 -9999 -9999 -9999 -9999 -9999 -9999 -9999 -9999 -9999 -9999 -9999 -9999 -9999 -9999 -9999 -9999 -9999 -9999 -9999 -9999 -9999 -9999 -9999 -9999 -9999 -9999 -9999 -9999 -9999 -9999 -9999 -9999 -9999 -9999 -9999 -9999 -9999 -9999 -9999 -9999 -9999 -9999 -9999 -9999 -9999 -9999 -9999 -9999 -9999 -9999 -9999 -9999 -9999 -9999 -9999 -9999 -9999 -9999 -9999 -9999 -9999 -9999 -9999 -9999 -9999 -9999 -9999 -9999 -9999 -9999 -9999 -9999 -9999 -9999 -9999 -9999 -9999 -9999 -9999 -9999 -9999 -9999 -9999 -9999 -9999 -9999 -9999 -9999 -9999 -9999 -9999 -9999 -9999 -9999 -9999 -9999 -9999 -9999 -9999 -9999 -9999 -9999 -9999 -9999 -9999 -9999 -9999 -9999 -9999 -9999 -9999 -9999 -9999 -9999 -9999 -9999 -9999 -9999 -9999 -9999 -9999 -9999 -9999 -9999 -9999 -9999 -9999 -9999 -9999 -9999 -9999 -9999 -9999 -9999 -9999 -9999 -9999 -9999 -9999 -9999 -9999 -9999 -9999 -9999 -9999 -9999 -9999 -9999 -9999 -9999 -9999 -9999 -9999 -9999 -9999
-9999 -9999 -9999 -9999 -9999 -9999 -9999 -9999 -9999 -9999 -9999 -9999 -9999 -9999 -9999 -9999 -9999 -9999 -9999 -9999 -9999 -9999 -9999 -9999 -9999 -9999 -9999 4103 3990 3897 3853 3885 3589 3455 3352 3673 3767 3633 3450 3689 3413 3257 3145 3215 3335 3245 3031 3200 3382 3313 3487 3533 3220 2948 2836 2747 2561 2513 2424 2394 2431 2593 2613 2749 2464 2185 2192 2274 2485 2647 2585 2593 2647 2714 2792 2635 2715 2878 2939 3051 3123 2830 2771 3084 3136 3221 3401 3770 4011 3914 3967 3630 3590 3613 3870 4067 3720 3573 3494 3688 3689 3744 3765 3926 4223 -9999 -9999 -9999 -9999 -9999 -9999 -9999 -9999 -9999 -9999 -9999 -9999 -9999 -9999 -9999 -9999 -9999 -9999 -9999 -9999 -9999 -9999 -9999 -9999 -9999 -9999 -9999 -9999 -9999 -9999 -9999 -9999 -9999 -9999 -9999 -9999 -9999 -9999 -9999 -9999 -9999 -9999 -9999 -9999 -9999 -9999 -9999 -9999 -9999 -9999 -9999 -9999 -9999 -9999 -9999 -9999 -9999 -9999 -9999 -9999 -9999 -9999 -9999 -9999 -9999 -9999 -9999 -9999 -9999 -9999 -9999 -9999 -9999 -9999 -9999 -9999 -9999 -9999 -9999 -9999 -9999 -9999 -9999 -9999 -9999 -9999 -9999 -9999 -9999 -9999 -9999 -9999 -9999 -9999 -9999 -9999 -9999 -9999 -9999 -9999 -9999 -9999 -9999 -9999 -9999 -9999 -9999 -9999 -9999 -9999 -9999 -9999 -9999 -9999 -9999 -9999 -9999 -9999 -9999 -9999 -9999 -9999 -9999 -9999 -9999 -9999 -9999 -9999 -9999 -9999 -9999 -9999 -9999 -9999 -9999 -9999 -9999 -9999 -9999 -9999 -9999 -9999 -9999 -9999 -9999 -9999 -9999 -9999 -9999 -9999 -9999 -9999 -9999 -9999 -9999 -9999 -9999 -9999 -9999 -9999 -9999 -9999 -9999 -9999 -9999 -9999 -9999 -9999 -9999 -9999 -9999 -9999 -9999 -9999 -9999 -9999 -9999 -9999 -9999 -9999 -9999 -9999 -9999 -9999 -9999 -9999 -9999 -9999 -9999 -9999 -9999 -9999 -9999 -9999 -9999 -9999 -9999 -9999 -9999 -9999 -9999 -9999 -9999
-9999 -9999 -9999 -9999 -9999 -9999 -9999 -9999 -9999 -9999 -9999 -9999 -9999 -9999 -9999 -9999 -9999 -9999 -9999 -9999 -9999 -9999 -9999 -9999 -9999 -9999 -9999 4236 4255 4102 4037 3942 3622 3432 3172 3354 3352 3341 3215 3354 3401 3408 3425 3208 2919 3124 3069 2864 2900 3150 3314 3491 3479 3327 3286 3187 3112 3028 2908 2790 2608 2336 2472 2603 2243 2211 2318 2349 2488 2671 2598 2573 2675 2847 2919 2889 2970 3306 3272 3384 3307 3178 3110 2927 3081 3188 3406 3749 3928 4020 3908 3669 3711 3834 3853 4121 3922 3735 3567 3769 3778 3862 3956 4044 -9999 -9999 -9999 -9999 -9999 -9999 -9999 -9999 -9999 -9999 -9999 -9999 -9999 -9999 -9999 -9999 -9999 -9999 -9999 -9999 -9999 -9999 -9999 -9999 -9999 -9999 -9999 -9999 -9999 -9999 -9999 -9999 -9999 -9999 -9999 -9999 -9999 -9999 -9999 -9999 -9999 -9999 -9999 -9999 -9999 -9999 -9999 -9999 -9999 -9999 -9999 -9999 -9999 -9999 -9999 -9999 -9999 -9999 -9999 -9999 -9999 -9999 -9999 -9999 -9999 -9999 -9999 -9999 -9999 -9999 -9999 -9999 -9999 -9999 -9999 -9999 -9999 -9999 -9999 -9999 -9999 -9999 -9999 -9999 -9999 -9999 -9999 -9999 -9999 -9999 -9999 -9999 -9999 -9999 -9999 -9999 -9999 -9999 -9999 -9999 -9999 -9999 -9999 -9999 -9999 -9999 -9999 -9999 -9999 -9999 -9999 -9999 -9999 -9999 -9999 -9999 -9999 -9999 -9999 -9999 -9999 -9999 -9999 -9999 -9999 -9999 -9999 -9999 -9999 -9999 -9999 -9999 -9999 -9999 -9999 -9999 -9999 -9999 -9999 -9999 -9999 -9999 -9999 -9999 -9999 -9999 -9999 -9999 -9999 -9999 -9999 -9999 -9999 -9999 -9999 -9999 -9999 -9999 -9999 -9999 -9999 -9999 -9999 -9999 -9999 -9999 -9999 -9999 -9999 -9999 -9999 -9999 -9999 -9999 -9999 -9999 -9999 -9999 -9999 -9999 -9999 -9999 -9999 -9999 -9999 -9999 -9999 -9999 -9999 -9999 -9999 -9999 -9999 -9999 -9999 -9999 -9999 -9999 -9999 -9999 -9999 -9999 -9999 -9999
-9999 -9999 -9999 -9999 -9999 -9999 -9999 -9999 -9999 -9999 -9999 -9999 -9999 -9999 -9999 -9999 -9999 -9999 -9999 -9999 -9999 -9999 -9999 -9999 -9999 -9999 -9999 4163 4059 3929 3809 3802 3756 3656 3368 3212 2958 2944 2970 3073 3105 3079 3355 3357 3132 2889 2747 2903 2709 2894 3040 3213 3209 3183 3237 3154 2899 3000 2972 2920 2735 2557 2271 2272 2193 2310 2353 2304 2320 2458 2464 2531 2721 2753 2818 3038 3209 3526 3617 3702 3636 3605 3309 3038 3237 3600 3611 3817 4155 4190 3868 3846 3945 3940 4017 4009 3985 3775 3639 3757 3991 4073 4044 -9999 -9999 -9999 -9999 -9999 -9999 -9999 -9999 -9999 -9999 -9999 -9999 -9999 -9999 -9999 -9999 -9999 -9999 -9999 -9999 -9999 -9999 -9999 -9999 -9999 -9999 -9999 -9999 -9999 -9999 -9999 -9999 -9999 -9999 -9999 -9999 -9999 -9999 -9999 -9999 -9999 -9999 -9999 -9999 -9999 -9999 -9999 -9999 -9999 -9999 -9999 -9999 -9999 -9999 -9999 -9999 -9999 -9999 -9999 -9999 -9999 -9999 -9999 -9999 -9999 -9999 -9999 -9999 -9999 -9999 -9999 -9999 -9999 -9999 -9999 -9999 -9999 -9999 -9999 -9999 -9999 -9999 -9999 -9999 -9999 -9999 -9999 -9999 -9999 -9999 -9999 -9999 -9999 -9999 -9999 -9999 -9999 -9999 -9999 -9999 -9999 -9999 -9999 -9999 -9999 -9999 -9999 -9999 -9999 -9999 -9999 -9999 -9999 -9999 -9999 -9999 -9999 -9999 -9999 -9999 -9999 -9999 -9999 -9999 -9999 -9999 -9999 -9999 -9999 -9999 -9999 -9999 -9999 -9999 -9999 -9999 -9999 -9999 -9999 -9999 -9999 -9999 -9999 -9999 -9999 -9999 -9999 -9999 -9999 -9999 -9999 -9999 -9999 -9999 -9999 -9999 -9999 -9999 -9999 -9999 -9999 -9999 -9999 -9999 -9999 -9999 -9999 -9999 -9999 -9999 -9999 -9999 -9999 -9999 -9999 -9999 -9999 -9999 -9999 -9999 -9999 -9999 -9999 -9999 -9999 -9999 -9999 -9999 -9999 -9999 -9999 -9999 -9999 -9999 -9999 -9999 -9999 -9999 -9999 -9999 -9999 -9999 -9999 -9999 -9999
-9999 -9999 -9999 -9999 -9999 -9999 -9999 -9999 -9999 -9999 -9999 -9999 -9999 -9999 -9999 -9999 -9999 -9999 -9999 -9999 -9999 -9999 -9999 -9999 -9999 -9999 4200 4019 3912 3905 3973 3614 3556 3557 3702 3467 3297 3209 2925 2981 2835 2815 2951 3043 3303 3195 3082 2836 2669 2560 2683 2837 2925 2772 2921 2986 2972 2744 2637 2675 2518 2367 2234 2207 2343 2607 2601 2595 2394 2361 2428 2449 2509 2587 2707 2954 3045 3165 3289 3455 3617 3720 3349 3200 3311 3458 3698 3885 4121 4247 4119 4076 4036 4142 4374 4216 3873 3791 3757 3887 4167 4277 4334 -9999 -9999 -9999 -9999 -9999 -9999 -9999 -9999 -9999 -9999 -9999 -9999 -9999 -9999 -9999 -9999 -9999 -9999 -9999 -9999 -9999 -9999 -9999 -9999 -9999 -9999 -9999 -9999 -9999 -9999 -9999 -9999 -9999 -9999 -9999 -9999 -9999 -9999 -9999 -9999 -9999 -9999 -9999 -9999 -9999 -9999 -9999 -9999 -9999 -9999 -9999 -9999 -9999 -9999 -9999 -9999 -9999 -9999 -9999 -9999 -9999 -9999 -9999 -9999 -9999 -9999 -9999 -9999 -9999 -9999 -9999 -9999 -9999 -9999 -9999 -9999 -9999 -9999 -9999 -9999 -9999 -9999 -9999 -9999 -9999 -9999 -9999 -9999 -9999 -9999 -9999 -9999 -9999 -9999 -9999 -9999 -9999 -9999 -9999 -9999 -9999 -9999 -9999 -9999 -9999 -9999 -9999 -9999 -9999 -9999 -9999 -9999 -9999 -9999 -9999 -9999 -9999 -9999 -9999 -9999 -9999 -9999 -9999 -9999 -9999 -9999 -9999 -9999 -9999 -9999 -9999 -9999 -9999 -9999 -9999 -9999 -9999 -9999 -9999 -9999 -9999 -9999 -9999 -9999 -9999 -9999 -9999 -9999 -9999 -9999 -9999 -9999 -9999 -9999 -9999 -9999 -9999 -9999 -9999 -9999 -9999 -9999 -9999 -9999 -9999 -9999 -9999 -9999 -9999 -9999 -9999 -9999 -9999 -9999 -9999 -9999 -9999 -9999 -9999 -9999 -9999 -9999 -9999 -9999 -9999 -9999 -9999 -9999 -9999 -9999 -9999 -9999 -9999 -9999 -9999 -9999 -9999 -9999 -9999 -9999 -9999 -9999 -9999 -9999 -9999
-9999 -9999 -9999 -9999 -9999 -9999 -9999 -9999 -9999 -9999 -9999 -9999 -9999 -9999 -9999 -9999 -9999 -9999 -9999 -9999 -9999 -9999 -9999 -9999 -9999 -9999 4171 3965 3940 3697 3579 3660 3340 3216 3464 3614 3504 3336 3275 3255 3205 3187 2984 2748 2824 2913 2958 3169 3035 2765 2668 2477 2517 2707 2890 2845 2702 2616 2539 2513 2410 2349 2232 2258 2497 2507 2651 2590 2414 2403 2614 2628 2641 2723 2936 3102 3152 3306 3514 3639 3706 3804 3400 3370 3457 3695 3749 3993 4175 -9999 -9999 -9999 4253 4416 4471 4090 3980 3960 3949 3964 4066 -9999 -9999 -9999 -9999 -9999 -9999 -9999 -9999 -9999 -9999 -9999 -9999 -9999 -9999 -9999 -9999 -9999 -9999 -9999 -9999 -9999 -9999 -9999 -9999 -9999 -9999 -9999 -9999 -9999 -9999 -9999 -9999 -9999 -9999 -9999 -9999 -9999 -9999 -9999 -9999 -9999 -9999 -9999 -9999 -9999 -9999 -9999 -9999 -9999 -9999 -9999 -9999 -9999 -9999 -9999 -9999 -9999 -9999 -9999 -9999 -9999 -9999 -9999 -9999 -9999 -9999 -9999 -9999 -9999 -9999 -9999 -9999 -9999 -9999 -9999 -9999 -9999 -9999 -9999 -9999 -9999 -9999 -9999 -9999 -9999 -9999 -9999 -9999 -9999 -9999 -9999 -9999 -9999 -9999 -9999 -9999 -9999 -9999 -9999 -9999 -9999 -9999 -9999 -9999 -9999 -9999 -9999 -9999 -9999 -9999 -9999 -9999 -9999 -9999 -9999 -9999 -9999 -9999 -9999 -9999 -9999 -9999 -9999 -9999 -9999 -9999 -9999 -9999 -9999 -9999 -9999 -9999 -9999 -9999 -9999 -9999 -9999 -9999 -9999 -9999 -9999 -9999 -9999 -9999 -9999 -9999 -9999 -9999 -9999 -9999 -9999 -9999 -9999 -9999 -9999 -9999 -9999 -9999 -9999 -9999 -9999 -9999 -9999 -9999 -9999 -9999 -9999 -9999 -9999 -9999 -9999 -9999 -9999 -9999 -9999 -9999 -9999 -9999 -9999 -9999 -9999 -9999 -9999 -9999 -9999 -9999 -9999 -9999 -9999 -9999 -9999 -9999 -9999 -9999 -9999 -9999 -9999 -9999 -9999 -9999 -9999 -9999 -9999 -9999 -9999 -9999 -9999
-9999 -9999 -9999 -9999 -9999 -9999 -9999 -9999 -9999 -9999 -9999 -9999 -9999 -9999 -9999 -9999 -9999 -9999 -9999 -9999 -9999 -9999 -9999 4259 4157 3977 4011 4024 4041 3778 3431 3379 3297 3087 3324 3369 3489 3531 3461 3425 3433 3397 3138 2871 2648 2763 2896 3158 3132 2950 2878 2625 2451 2612 2705 2661 2560 2644 2609 2583 2514 2377 2245 2279 2455 2574 2628 2582 2435 2438 2643 2733 2761 2844 3144 3305 3345 3394 3591 3844 3953 3768 3548 3447 3616 3660 3846 4129 -9999 -9999 -9999 -9999 -9999 -9999 4446 4097 4107 4020 4100 4217 4103 -9999 -9999 -9999 -9999 -9999 -9999 -9999 -9999 -9999 -9999 -9999 -9999 -9999 -9999 -9999 -9999 -9999 -9999 -9999 -9999 -9999 -9999 -9999 -9999 -9999 -9999 -9999 -9999 -9999 -9999 -9999 -9999 -9999 -9999 -9999 -9999 -9999 -9999 -9999 -9999 -9999 -9999 -9999 -9999 -9999 -9999 -9999 -9999 -9999 -9999 -9999 -9999 -9999 -9999 -9999 -9999 -9999 -9999 -9999 -9999 -9999 -9999 -9999 -9999 -9999 -9999 -9999 -9999 -9999 -9999 -9999 -9999 -9999 -9999 -9999 -9999 -9999 -9999 -9999 -9999 -9999 -9999 -9999 -9999 -9999 -9999 -9999 -9999 -9999 -9999 -9999 -9999 -9999 -9999 -9999 -9999 -9999 -9999 -9999 -9999 -9999 -9999 -9999 -9999 -9999 -9999 -9999 -9999 -9999 -9999 -9999 -9999 -9999 -9999 -9999 -9999 -9999 -9999 -9999 -9999 -9999 -9999 -9999 -9999 -9999 -9999 -9999 -9999 -9999 -9999 -9999 -9999 -9999 -9999 -9999 -9999 -9999 -9999 -9999 -9999 -9999 -9999 -9999 -9999 -9999 -9999 -9999 -9999 -9999 -9999 -9999 -9999 -9999 -9999 -9999 -9999 -9999 -9999 -9999 -9999 -9999 -9999 -9999 -9999 -9999 -9999 -9999 -9999 -9999 -9999 -9999 -9999 -9999 -9999 -9999 -9999 -9999 -9999 -9999 -9999 -9999 -9999 -9999 -9999 -9999 -9999 -9999 -9999 -9999 -9999 -9999 -9999 -9999 -9999 -9999 -9999 -9999 -9999 -9999 -9999 -9999 -9999 -9999 -9999 -9999 -9999 -9999
-9999 -9999 -9999 -9999 -9999 -9999 -9999 -9999 -9999 -9999 -9999 -9999 -9999 -9999 -9999 -9999 -9999 -9999 -9999 -9999 -9999 -9999 -9999 4203 4116 3978 3859 3631 3647 3781 3544 3301 3015 2938 3163 3480 3664 3783 3822 3675 3636 3581 3413 3166 2871 2586 2722 3004 2969 2959 2897 2759 2655 2465 2389 2392 2576 2552 2468 2405 2272 2267 2396 2516 2508 2529 2654 2585 2466 2501 2604 2680 2971 2925 2974 3207 3380 3599 3774 3903 4021 3923 3890 3638 3684 3988 -9999 -9999 -9999 -9999 -9999 -9999 -9999 -9999 4555 4259 -9999 -9999 -9999 -9999 -9999 -9999 -9999 -9999 -9999 -9999 -9999 -9999 -9999 -9999 -9999 -9999 -9999 -9999 -9999 -9999 -9999 -9999 -9999 -9999 -9999 -9999 -9999 -9999 -9999 -9999 -9999 -9999 -9999 -9999 -9999 -9999 -9999 -9999 -9999 -9999 -9999 -9999 -9999 -9999 -9999 -9999 -9999 -9999 -9999 -9999 -9999 -9999 -9999 -9999 -9999 -9999 -9999 -9999 -9999 -9999 -9999 -9999 -9999 -9999 -9999 -9999 -9999 -9999 -9999 -9999 -9999 -9999 -9999 -9999 -9999 -9999 -9999 -9999 -9999 -9999 -9999 -9999 -9999 -9999 -9999 -9999 -9999 -9999 -9999 -9999 -9999 -9999 -9999 -9999 -9999 -9999 -9999 -9999 -9999 -9999 -9999 -9999 -9999 -9999 -9999 -9999 -9999 -9999 -9999 -9999 -9999 -9999 -9999 -9999 -9999 -9999 -9999 -9999 -9999 -9999 -9999 -9999 -9999 -9999 -9999 -9999 -9999 -9999 -9999 -9999 -9999 -9999 -9999 -9999 -9999 -9999 -9999 -9999 -9999 -9999 -9999 -9999 -9999 -9999 -9999 -9999 -9999 -9999 -9999 -9999 -9999 -9999 -9999 -9999 -9999 -9999 -9999 -9999 -9999 -9999 -9999 -9999 -9999 -9999 -9999 -9999 -9999 -9999 -9999 -9999 -9999 -9999 -9999 -9999 -9999 -9999 -9999 -9999 -9999 -9999 -9999 -9999 -9999 -9999 -9999 -9999 -9999 -9999 -9999 -9999 -9999 -9999 -9999 -9999 -9999 -9999 -9999 -9999 -9999 -9999 -9999 -9999 -9999 -9999 -9999 -9999 -9999 -9999 -9999 -9999 -9999 -9999
-9999 -9999 -9999 -9999 -9999 -9999 -9999 -9999 -9999 -9999 -9999 -9999 -9999 -9999 -9999 -9999 -9999 -9999 -9999 -9999 -9999 -9999 -9999 4369 4406 4046 3872 3702 3612 3455 3481 3441 3164 3069 2863 3122 3404 3593 3616 3619 3326 3196 3082 2964 2925 2655 2553 2741 2867 2651 2643 2801 2690 2573 2557 2396 2355 2390 2273 2263 2342 2353 2453 2486 2560 2687 2781 2747 2545 2503 2518 2559 2629 2750 3035 3404 3580 3646 3570 3798 3991 3917 4075 3944 3936 -9999 -9999 -9999 -9999 -9999 -9999 -9999 -9999 -9999 -9999 -9999 -9999 -9999 -9999 -9999 -9999 -9999 -9999 -9999 -9999 -9999 -9999 -9999 -9999 -9999 -9999 -9999 -9999 -9999 -9999 -9999 -9999 -9999 -9999 -9999 -9999 -9999 -9999 -9999 -9999 -9999 -9999 -9999 -9999 -9999 -9999 -9999 -9999 -9999 -9999 -9999 -9999 -9999 -9999 -9999 -9999 -9999 -9999 -9999 -9999 -9999 -9999 -9999 -9999 -9999 -9999 -9999 -9999 -9999 -9999 -9999 -9999 -9999 -9999 -9999 -9999 -9999 -9999 -9999 -9999 -9999 -9999 -9999 -9999 -9999 -9999 -9999 -9999 -9999 -9999 -9999 -9999 -9999 -9999 -9999 -9999 -9999 -9999 -9999 -9999 -9999 -9999 -9999 -9999 -9999 -9999 -9999 -9999 -9999 -9999 -9999 -9999 -9999 -9999 -9999 -9999 -9999 -9999 -9999 -9999 -9999 -9999 -9999 -9999 -9999 -9999 -9999 -9999 -9999 -9999 -9999 -9999 -9999 -9999 -9999 -9999 -9999 -9999 -9999 -9999 -9999 -9999 -9999 -9999 -9999 -9999 -9999 -9999 -9999 -9999 -9999 -9999 -9999 -9999 -9999 -9999 -9999 -9999 -9999 -9999 -9999 -9999 -9999 -9999 -9999 -9999 -9999 -9999 -9999 -9999 -9999 -9999 -9999 -9999 -9999 -9999 -9999 -9999 -9999 -9999 -9999 -9999 -9999 -9999 -9999 -9999 -9999 -9999 -9999 -9999 -9999 -9999 -9999 -9999 -9999 -9999 -9999 -9999 -9999 -9999 -9999 -9999 -9999 -9999 -9999 -9999 -9999 -9999 -9999 -9999 -9999 -9999 -9999 -9999 -9999 -9999 -9999 -9999 -9999 -9999 -9999 -9999 -9999
-9999 -9999 -9999 -9999 -9999 -9999 -9999 -9999 -9999 -9999 -9999 -9999 -9999 -9999 -9999 -9999 -9999 -9999 -9999 -9999 -9999 4080 4103 4097 4209 4273 4100 3817 3670 3482 3175 3137 2980 3061 2814 3045 3289 3315 3259 3572 3352 3326 3237 3090 2864 2761 2765 2551 2568 2524 2598 2776 2713 2683 2638 2495 2319 2285 2353 2417 2493 2492 2520 2559 2647 2611 2673 2774 2779 2605 2557 2554 2769 3008 3012 3239 3317 3348 3534 3679 3761 3592 3768 4024 -9999 -9999 -9999 -9999 -9999 -9999 -9999 -9999 -9999 -9999 -9999 -9999 -9999 -9999 -9999 -9999 -9999 -9999 -9999 -9999 -9999 -9999 -9999 -9999 -9999 -9999 -9999 -9999 -9999 -9999 -9999 -9999 -9999 -9999 -9999 -9999 -9999 -9999 -9999 -9999 -9999 -9999 -9999 -9999 -9999 -9999 -9999 -9999 -9999 -9999 -9999 -9999 -9999 -9999 -9999 -9999 -9999 -9999 -9999 -9999 -9999 -9999 -9999 -9999 -9999 -9999 -9999 -9999 -9999 -9999 -9999 -9999 -9999 -9999 -9999 -9999 -9999 -9999 -9999 -9999 -9999 -9999 -9999 -9999 -9999 -9999 -9999 -9999 -9999 -9999 -9999 -9999 -9999 -9999 -9999 -9999 -9999 -9999 -9999 -9999 -9999 -9999 -9999 -9999 -9999 -9999 -9999 -9999 -9999 -9999 -9999 -9999 -9999 -9999 -9999 -9999 -9999 -9999 -9999 -9999 -9999 -9999 -9999 -9999 -9999 -9999 -9999 -9999 -9999 -9999 -9999 -9999 -9999 -9999 -9999 -9999 -9999 -9999 -9999 -9999 -9999 -9999 -9999 -9999 -9999 -9999 -9999 -9999 -9999 -9999 -9999 -9999 -9999 -9999 -9999 -9999 -9999 -9999 -9999 -9999 -9999 -9999 -9999 -9999 -9999 -9999 -9999 -9999 -9999 -9999 -9999 -9999 -9999 -9999 -9999 -9999 -9999 -9999 -9999 -9999 -9999 -9999 -9999 -9999 -9999 -9999 -9999 -9999 -9999 -9999 -9999 -9999 -9999 -9999 -9999 -9999 -9999 -9999 -9999 -9999 -9999 -9999 -9999 -9999 -9999 -9999 -9999 -9999 -9999 -9999 -9999 -9999 -9999 -9999 -9999 -9999 -9999 -9999 -9999 -9999 -9999 -9999 -9999 -9999
-9999 -9999 -9999 -9999 -9999 -9999 -9999 -9999 -9999 -9999 -9999 -9999 -9999 -9999 -9999 -9999 -9999 -9999 -9999 4254 4316 4156 3998 4027 4175 4290 4121 3750 3695 3497 3260 3071 3159 3234 2854 2954 3035 3067 3244 3510 3266 3167 3177 3006 2758 2673 2641 2551 2493 2496 2550 2646 2605 2663 2573 2409 2295 2369 2452 2496 2580 2519 2599 2632 2669 2705 2674 2782 2859 2723 2645 2593 2607 2937 3106 3142 3175 3239 3327 3505 3635 3588 3861 4087 -9999 -9999 -9999 -9999 -9999 -9999 -9999 -9999 -9999 -9999 -9999 -9999 -9999 -9999 -9999 -9999 -9999 -9999 -9999 -9999 -9999 -9999 -9999 -9999 -9999 -9999 -9999 -9999 -9999 -9999 -9999 -9999 -9999 -9999 -9999 -9999 -9999 -9999 -9999 -9999 -9999 -9999 -9999 -9999 -9999 -9999 -9999 -9999 -9999 -9999 -9999 -9999 -9999 -9999 -9999 -9999 -9999 -9999 -9999 -9999 -9999 -9999 -9999 -9999 -9999 -9999 -9999 -9999 -9999 -9999 -9999 -9999 -9999 -9999 -9999 -9999 -9999 -9999 -9999 -9999 -9999 -9999 -9999 -9999 -9999 -9999 -9999 -9999 -9999 -9999 -9999 -9999 -9999 -9999 -9999 -9999 -9999 -9999 -9999 -9999 -9999 -9999 -9999 -9999 -9999 -9999 -9999 -9999 -9999 -9999 -9999 -9999 -9999 -9999 -9999 -9999 -9999 -9999 -9999 -9999 -9999 -9999 -9999 -9999 -9999 -9999 -9999 -9999 -9999 -9999 -9999 -9999 -9999 -9999 -9999 -9999 -9999 -9999 -9999 -9999 -9999 -9999 -9999 -9999 -9999 -9999 -9999 -9999 -9999 -9999 -9999 -9999 -9999 -9999 -9999 -9999 -9999 -9999 -9999 -9999 -9999 -9999 -9999 -9999 -9999 -9999 -9999 -9999 -9999 -9999 -9999 -9999 -9999 -9999 -9999 -9999 -9999 -9999 -9999 -9999 -9999 -9999 -9999 -9999 -9999 -9999 -9999 -9999 -9999 -9999 -9999 -9999 -9999 -9999 -9999 -9999 -9999 -9999 -9999 -9999 -9999 -9999 -9999 -9999 -9999 -9999 -9999 -9999 -9999 -9999 -9999 -9999 -9999 -9999 -9999 -9999 -9999 -9999 -9999 -9999 -9999 -9999 -9999 -9999
-9999 -9999 -9999 -9999 -9999 -9999 -9999 -9999 -9999 -9999 -9999 -9999 -9999 -9999 -9999 -9999 -9999 -9999 4335 4077 4039 3962 3892 3769 3841 4075 4128 4058 3890 3715 3471 3446 3270 3204 3064 2725 3056 3188 3392 3205 3159 3153 3060 2927 2850 2865 2825 2715 2591 2492 2460 2435 2420 2474 2504 2354 2334 2380 2452 2546 2643 2637 2700 2744 2824 2903 2999 2947 2921 3021 2930 3001 2989 2647 2750 2899 2930 3095 3268 3352 3479 3734 4037 -9999 -9999 -9999 -9999 -9999 -9999 -9999 -9999 -9999 -9999 -9999 -9999 -9999 -9999 -9999 -9999 -9999 -9999 -9999 -9999 -9999 -9999 -9999 -9999 -9999 -9999 -9999 -9999 -9999 -9999 -9999 -9999 -9999 -9999 -9999 -9999 -9999 -9999 -9999 -9999 -9999 -9999 -9999 -9999 -9999 -9999 -9999 -9999 -9999 -9999 -9999 -9999 -9999 -9999 -9999 -9999 -9999 -9999 -9999 -9999 -9999 -9999 -9999 -9999 -9999 -9999 -9999 -9999 -9999 -9999 -9999 -9999 -9999 -9999 -9999 -9999 -9999 -9999 -9999 -9999 -9999 -9999 -9999 -9999 -9999 -9999 -9999 -9999 -9999 -9999 -9999 -9999 -9999 -9999 -9999 -9999 -9999 -9999 -9999 -9999 -9999 -9999 -9999 -9999 -9999 -9999 -9999 -9999 -9999 -9999 -9999 -9999 -9999 -9999 -9999 -9999 -9999 -9999 -9999 -9999 -9999 -9999 -9999 -9999 -9999 -9999 -9999 -9999 -9999 -9999 -9999 -9999 -9999 -9999 -9999 -9999 -9999 -9999 -9999 -9999 -9999 -9999 -9999 -9999 -9999 -9999 -9999 -9999 -9999 -9999 -9999 -9999 -9999 -9999 -9999 -9999 -9999 -9999 -9999 -9999 -9999 -9999 -9999 -9999 -9999 -9999 -9999 -9999 -9999 -9999 -9999 -9999 -9999 -9999 -9999 -9999 -9999 -9999 -9999 -9999 -9999 -9999 -9999 -9999 -9999 -9999 -9999 -9999 -9999 -9999 -9999 -9999 -9999 -9999 -9999 -9999 -9999 -9999 -9999 -9999 -9999 -9999 -9999 -9999 -9999 -9999 -9999 -9999 -9999 -9999 -9999 -9999 -9999 -9999 -9999 -9999 -9999 -9999 -9999 -9999 -9999 -9999 -9999 -9999 -9999
-9999 -9999 -9999 -9999 -9999 -9999 -9999 -9999 -9999 -9999 -9999 -9999 -9999 -9999 -9999 -9999 -9999 4323 4187 4325 4330 4178 3795 3651 3637 3693 3847 3892 3716 3364 3394 3135 3314 3226 3089 2750 2836 3008 3067 2930 2950 2907 2973 2957 2897 2798 2734 2741 2661 2676 2692 2572 2433 2394 2383 2343 2367 2468 2449 2454 2496 2621 2646 2635 2700 2755 2965 3106 3005 3098 3358 3266 2900 2707 3124 3344 3311 3425 3728 3674 3781 4033 -9999 -9999 -9999 -9999 -9999 -9999 -9999 -9999 -9999 -9999 -9999 -9999 -9999 -9999 -9999 -9999 -9999 -9999 -9999 -9999 -9999 -9999 -9999 -9999 -9999 -9999 -9999 -9999 -9999 -9999 -9999 -9999 -9999 -9999 -9999 -9999 -9999 -9999 -9999 -9999 -9999 -9999 -9999 -9999 -9999 -9999 -9999 -9999 -9999 -9999 -9999 -9999 -9999 -9999 -9999 -9999 -9999 -9999 -9999 -9999 -9999 -9999 -9999 -9999 -9999 -9999 -9999 -9999 -9999 -9999 -9999 -9999 -9999 -9999 -9999 -9999 -9999 -9999 -9999 -9999 -9999 -9999 -9999 -9999 -9999 -9999 -9999 -9999 -9999 -9999 -9999 -9999 -9999 -9999 -9999 -9999 -9999 -9999 -9999 -9999 -9999 -9999 -9999 -9999 -9999 -9999 -9999 -9999 -9999 -9999 -9999 -9999 -9999 -9999 -9999 -9999 -9999 -9999 -9999 -9999 -9999 -9999 -9999 -9999 -9999 -9999 -9999 -9999 -9999 -9999 -9999 -9999 -9999 -9999 -9999 -9999 -9999 -9999 -9999 -9999 -9999 -9999 -9999 -9999 -9999 -9999 -9999 -9999 -9999 -9999 -9999 -9999 -9999 -9999 -9999 -9999 -9999 -9999 -9999 -9999 -9999 -9999 -9999 -9999 -9999 -9999 -9999 -9999 -9999 -9999 -9999 -9999 -9999 -9999 -9999 -9999 -9999 -9999 -9999 -9999 -9999 -9999 -9999 -9999 -9999 -9999 -9999 -9999 -9999 -9999 -9999 -9999 -9999 -9999 -9999 -9999 -9999 -9999 -9999 -9999 -9999 -9999 -9999 -9999 -9999 -9999 -9999 -9999 -9999 -9999 -9999 -9999 -9999 -9999 -9999 -9999 -9999 -9999 -9999 -9999 -9999 -9999 -9999 -9999 -9999 -9999
-9999 -9999 -9999 -9999 -9999 -9999 -9999 -9999 -9999 -9999 -9999 -9999 -9999 -9999 -9999 -9999 -9999 4164 4044 4052 4119 3971 3724 3536 3514 3417 3445 3596 3489 3165 3410 3097 2926 2866 2843 2748 2657 2701 2895 2734 2864 2959 2935 2774 2736 2646 2605 2641 2602 2547 2514 2467 2430 2414 2396 2343 2475 2513 2627 2599 2634 2684 2625 2609 2605 2661 2856 3038 3231 3383 3409 3230 3115 2992 2819 3172 3249 3383 3615 3597 3767 -9999 -9999 -9999 -9999 -9999 -9999 -9999 -9999 -9999 -9999 -9999 -9999 -9999 -9999 -9999 -9999 -9999 -9999 -9999 -9999 -9999 -9999 -9999 -9999 -9999 -9999 -9999 -9999 -9999 -9999 -9999 -9999 -9999 -9999 -9999 -9999 -9999 -9999 -9999 -9999 -9999 -9999 -9999 -9999 -9999 -9999 -9999 -9999 -9999 -9999 -9999 -9999 -9999 -9999 -9999 -9999 -9999 -9999 -9999 -9999 -9999 -9999 -9999 -9999 -9999 -9999 -9999 -9999 -9999 -9999 -9999 -9999 -9999 -9999 -9999 -9999 -9999 -9999 -9999 -9999 -9999 -9999 -9999 -9999 -9999 -9999 -9999 -9999 -9999 -9999 -9999 -9999 -9999 -9999 -9999 -9999 -9999 -9999 -9999 -9999 -9999 -9999 -9999 -9999 -9999 -9999 -9999 -9999 -9999 -9999 -9999 -9999 -9999 -9999 -9999 -9999 -9999 -9999 -9999 -9999 -9999 -9999 -9999 -9999 -9999 -9999 -9999 -9999 -9999 -9999 -9999 -9999 -9999 -9999 -9999 -9999 -9999 -9999 -9999 -9999 -9999 -9999 -9999 -9999 -9999 -9999 -9999 -9999 -9999 -9999 -9999 -9999 -9999 -9999 -9999 -9999 -9999 -9999 -9999 -9999 -9999 -9999 -9999 -9999 -9999 -9999 -9999 -9999 -9999 -9999 -9999 -9999 -9999 -9999 -9999 -9999 -9999 -9999 -9999 -9999 -9999 -9999 -9999 -9999 -9999 -9999 -9999 -9999 -9999 -9999 -9999 -9999 -9999 -9999 -9999 -9999 -9999 -9999 -9999 -9999 -9999 -9999 -9999 -9999 -9999 -9999 -9999 -9999 -9999 -9999 -9999 -9999 -9999 -9999 -9999 -9999 -9999 -9999 -9999 -9999 -9999 -9999 -9999 -9999 -9999 -9999 -9999
-9999 -9999 -9999 -9999 -9999 -9999 -9999 -9999 -9999 -9999 -9999 -9999 -9999 -9999 -9999 -9999 4258 4237 4155 3924 3897 3759 3635 3414 3452 3351 3303 3383 3338 3127 3455 3229 3020 3017 3056 2941 2656 2659 2767 2681 2883 2870 2830 2780 2670 2658 2656 2565 2549 2524 2511 2504 2496 2435 2400 2370 2494 2599 2647 2736 2749 2856 2816 2755 2684 2646 2864 2970 3160 3317 3513 3373 3272 3186 2839 3021 3133 3228 3400 3511 3706 4006 -9999 -9999 -9999 -9999 -9999 -9999 -9999 -9999 -9999 -9999 -9999 -9999 -9999 -9999 -9999 -9999 -9999 -9999 -9999 -9999 -9999 -9999 -9999 -9999 -9999 -9999 -9999 -9999 -9999 -9999 -9999 -9999 -9999 -9999 -9999 -9999 -9999 -9999 -9999 -9999 -9999 -9999 -9999 -9999 -9999 -9999 -9999 -9999 -9999 -9999 -9999 -9999 -9999 -9999 -9999 -9999 -9999 -9999 -9999 -9999 -9999 -9999 -9999 -9999 -9999 -9999 -9999 -9999 -9999 -9999 -9999 -9999 -9999 -9999 -9999 -9999 -9999 -9999 -9999 -9999 -9999 -9999 -9999 -9999 -9999 -9999 -9999 -9999 -9999 -9999 -9999 -9999 -9999 -9999 -9999 -9999 -9999 -9999 -9999 -9999 -9999 -9999 -9999 -9999 -9999 -9999 -9999 -9999 -9999 -9999 -9999 -9999 -9999 -9999 -9999 -9999 -9999 -9999 -9999 -9999 -9999 -9999 -9999 -9999 -9999 -9999 -9999 -9999 -9999 -9999 -9999 -9999 -9999 -9999 -9999 -9999 -9999 -9999 -9999 -9999 -9999 -9999 -9999 -9999 -9999 -9999 -9999 -9999 -9999 -9999 -9999 -9999 -9999 -9999 -9999 -9999 -9999 -9999 -9999 -9999 -9999 -9999 -9999 -9999 -9999 -9999 -9999 -9999 -9999 -9999 -9999 -9999 -9999 -9999 -9999 -9999 -9999 -9999 -9999 -9999 -9999 -9999 -9999 -9999 -9999 -9999 -9999 -9999 -9999 -9999 -9999 -9999 -9999 -9999 -9999 -9999 -9999 -9999 -9999 -9999 -9999 -9999 -9999 -9999 -9999 -9999 -9999 -9999 -9999 -9999 -9999 -9999 -9999 -9999 -9999 -9999 -9999 -9999 -9999 -9999 -9999 -9999 -9999 -9999 -9999 -9999
-9999 -9999 -9999 -9999 -9999 -9999 -9999 -9999 -9999 -9999 -9999 -9999 -9999 -9999 -9999 -9999 4252 4126 3980 3846 3884 3724 3559 3421 3214 3385 3379 3106 3115 3170 3263 3214 3054 3002 2894 2860 2720 2659 2612 2633 2644 2728 2737 2742 2754 2647 2626 2632 2621 2554 2535 2499 2416 2378 2393 2416 2505 2694 2865 2968 3130 3465 3362 3302 2868 2684 2805 2860 2959 3258 3525 3582 3612 3261 2955 2996 3123 3302 3412 3395 3480 3785 4071 -9999 -9999 -9999 -9999 -9999 -9999 -9999 -9999 -9999 -9999 -9999 -9999 -9999 -9999 -9999 -9999 -9999 -9999 -9999 -9999 -9999 -9999 -9999 -9999 -9999 -9999 -9999 -9999 -9999 -9999 -9999 -9999 -9999 -9999 -9999 -9999 -9999 -9999 -9999 -9999 -9999 -9999 -9999 -9999 -9999 -9999 -9999 -9999 -9999 -9999 -9999 -9999 -9999 -9999 -9999 -9999 -9999 -9999 -9999 -9999 -9999 -9999 -9999 -9999 -9999 -9999 -9999 -9999 -9999 -9999 -9999 -9999 -9999 -9999 -9999 -9999 -9999 -9999 -9999 -9999 -9999 -9999 -9999 -9999 -9999 -9999 -9999 -9999 -9999 -9999 -9999 -9999 -9999 -9999 -9999 -9999 -9999 -9999 -9999 -9999 -9999 -9999 -9999 -9999 -9999 -9999 -9999 -9999 -9999 -9999 -9999 -9999 -9999 -9999 -9999 -9999 -9999 -9999 -9999 -9999 -9999 -9999 -9999 -9999 -9999 -9999 -9999 -9999 -9999 -9999 -9999 -9999 -9999 -9999 -9999 -9999 -9999 -9999 -9999 -9999 -9999 -9999 -9999 -9999 -9999 -9999 -9999 -9999 -9999 -9999 -9999 -9999 -9999 -9999 -9999 -9999 -9999 -9999 -9999 -9999 -9999 -9999 -9999 -9999 -9999 -9999 -9999 -9999 -9999 -9999 -9999 -9999 -9999 -9999 -9999 -9999 -9999 -9999 -9999 -9999 -9999 -9999 -9999 -9999 -9999 -9999 -9999 -9999 -9999 -9999 -9999 -9999 -9999 -9999 -9999 -9999 -9999 -9999 -9999 -9999 -9999 -9999 -9999 -9999 -9999 -9999 -9999 -9999 -9999 -9999 -9999 -9999 -9999 -9999 -9999 -9999 -9999 -9999 -9999 -9999 -9999 -9999 -9999 -9999 -9999
-9999 -9999 -9999 -9999 -9999 -9999 -9999 -9999 -9999 -9999 -9999 4251 4123 4072 4007 3979 3870 3864 3755 3483 3519 3389 3124 3071 3026 3040 3030 3036 2986 2933 3023 3119 3045 3009 2991 2994 2924 2838 2677 2581 2583 2589 2628 2655 2614 2558 2551 2517 2452 2438 2453 2408 2422 2415 2422 2431 2469 2608 2905 3113 3663 3800 3547 3324 2878 2892 2734 2797 2975 3282 3300 3478 3639 3306 3170 3136 3157 3310 3583 3746 3654 3710 3920 4264 -9999 -9999 -9999 -9999 -9999 -9999 -9999 -9999 -9999 -9999 -9999 -9999 -9999 -9999 -9999 -9999 -9999 -9999 -9999 -9999 -9999 -9999 -9999 -9999 -9999 -9999 -9999 -9999 -9999 -9999 -9999 -9999 -9999 -9999 -9999 -9999 -9999 -9999 -9999 -9999 -9999 -9999 -9999 -9999 -9999 -9999 -9999 -9999 -9999 -9999 -9999 -9999 -9999 -9999 -9999 -9999 -9999 -9999 -9999 -9999 -9999 -9999 -9999 -9999 -9999 -9999 -9999 -9999 -9999 -9999 -9999 -9999 -9999 -9999 -9999 -9999 -9999 -9999 -9999 -9999 -9999 -9999 -9999 -9999 -9999 -9999 -9999 -9999 -9999 -9999 -9999 -9999 -9999 -9999 -9999 -9999 -9999 -9999 -9999 -9999 -9999 -9999 -9999 -9999 -9999 -9999 -9999 -9999 -9999 -9999 -9999 -9999 -9999 -9999 -9999 -9999 -9999 -9999 -9999 -9999 -9999 -9999 -9999 -9999 -9999 -9999 -9999 -9999 -9999 -9999 -9999 -9999 -9999 -9999 -9999 -9999 -9999 -9999 -9999 -9999 -9999 -9999 -9999 -9999 -9999 -9999 -9999 -9999 -9999 -9999 -9999 -9999 -9999 -9999 -9999 -9999 -9999 -9999 -9999 -9999 -9999 -9999 -9999 -9999 -9999 -9999 -9999 -9999 -9999 -9999 -9999 -9999 -9999 -9999 -9999 -9999 -9999 -9999 -9999 -9999 -9999 -9999 -9999 -9999 -9999 -9999 -9999 -9999 -9999 -9999 -9999 -9999 -9999 -9999 -9999 -9999 -9999 -9999 -9999 -9999 -9999 -9999 -9999 -9999 -9999 -9999 -9999 -9999 -9999 -9999 -9999 -9999 -9999 -9999 -9999 -9999 -9999 -9999 -9999 -9999 -9999 -9999 -9999 -9999
-9999 -9999 -9999 -9999 -9999 -9999 -9999 -9999 -9999 -9999 -9999 4352 4344 4091 3919 3954 3797 3475 3395 3310 3303 3230 3384 3521 3468 3321 3120 2961 2826 2777 2826 2990 2786 2821 3032 2889 2818 2805 2731 2728 2641 2563 2530 2513 2492 2493 2500 2506 2588 2617 2548 2486 2609 2686 2700 2542 2683 2693 2780 2990 3505 3840 3417 3194 3221 3051 2792 2782 2915 2983 3268 3448 3686 3600 3558 3644 3685 3627 3599 3764 3911 3887 4067 4230 -9999 -9999 -9999 -9999 -9999 -9999 -9999 -9999 -9999 -9999 -9999 -9999 -9999 -9999 -9999 -9999 -9999 -9999 -9999 -9999 -9999 -9999 -9999 -9999 -9999 -9999 -9999 -9999 -9999 -9999 -9999 -9999 -9999 -9999 -9999 -9999 -9999 -9999 -9999 -9999 -9999 -9999 -9999 -9999 -9999 -9999 -9999 -9999 -9999 -9999 -9999 -9999 -9999 -9999 -9999 -9999 -9999 -9999 -9999 -9999 -9999 -9999 -9999 -9999 -9999 -9999 -9999 -9999 -9999 -9999 -9999 -9999 -9999 -9999 -9999 -9999 -9999 -9999 -9999 -9999 -9999 -9999 -9999 -9999 -9999 -9999 -9999 -9999 -9999 -9999 -9999 -9999 -9999 -9999 -9999 -9999 -9999 -9999 -9999 -9999 -9999 -9999 -9999 -9999 -9999 -9999 -9999 -9999 -9999 -9999 -9999 -9999 -9999 -9999 -9999 -9999 -9999 -9999 -9999 -9999 -9999 -9999 -9999 -9999 -9999 -9999 -9999 -9999 -9999 -9999 -9999 -9999 -9999 -9999 -9999 -9999 -9999 -9999 -9999 -9999 -9999 -9999 -9999 -9999 -9999 -9999 -9999 -9999 -9999 -9999 -9999 -9999 -9999 -9999 -9999 -9999 -9999 -9999 -9999 -9999 -9999 -9999 -9999 -9999 -9999 -9999 -9999 -9999 -9999 -9999 -9999 -9999 -9999 -9999 -9999 -9999 -9999 -9999 -9999 -9999 -9999 -9999 -9999 -9999 -9999 -9999 -9999 -9999 -9999 -9999 -9999 -9999 -9999 -9999 -9999 -9999 -9999 -9999 -9999 -9999 -9999 -9999 -9999 -9999 -9999 -9999 -9999 -9999 -9999 -9999 -9999 -9999 -9999 -9999 -9999 -9999 -9999 -9999 -9999 -9999 -9999 -9999 -9999 -9999
-9999 -9999 -9999 -9999 -9999 -9999 -9999 -9999 -9999 -9999 -9999 4130 4263 4289 4025 3912 3820 3912 3817 3767 3749 3579 3683 3570 3389 3288 3320 3199 3159 2941 2743 2689 2727 2823 2824 2778 2696 2734 2769 2636 2602 2645 2745 2629 2533 2748 2682 2756 2869 2844 2769 2759 2919 3076 3228 3074 3324 3495 3122 3035 3128 3583 3399 3389 3180 2991 3116 3029 2837 3040 3361 3490 3376 3376 3490 3701 3772 3927 3845 3793 3947 4147 4484 -9999 -9999 -9999 -9999 -9999 -9999 -9999 -9999 -9999 -9999 -9999 -9999 -9999 -9999 -9999 -9999 -9999 -9999 -9999 -9999 -9999 -9999 -9999 -9999 -9999 -9999 -9999 -9999 -9999 -9999 -9999 -9999 -9999 -9999 -9999 -9999 -9999 -9999 -9999 -9999 -9999 -9999 -9999 -9999 -9999 -9999 -9999 -9999 -9999 -9999 -9999 -9999 -9999 -9999 -9999 -9999 -9999 -9999 -9999 -9999 -9999 -9999 -9999 -9999 -9999 -9999 -9999 -9999 -9999 -9999 -9999 -9999 -9999 -9999 -9999 -9999 -9999 -9999 -9999 -9999 -9999 -9999 -9999 -9999 -9999 -9999 -9999 -9999 -9999 -9999 -9999 -9999 -9999 -9999 -9999 -9999 -9999 -9999 -9999 -9999 -9999 -9999 -9999 -9999 -9999 -9999 -9999 -9999 -9999 -9999 -9999 -9999 -9999 -9999 -9999 -9999 -9999 -9999 -9999 -9999 -9999 -9999 -9999 -9999 -9999 -9999 -9999 -9999 -9999 -9999 -9999 -9999 -9999 -9999 -9999 -9999 -9999 -9999 -9999 -9999 -9999 -9999 -9999 -9999 -9999 -9999 -9999 -9999 -9999 -9999 -9999 -9999 -9999 -9999 -9999 -9999 -9999 -9999 -9999 -9999 -9999 -9999 -9999 -9999 -9999 -9999 -9999 -9999 -9999 -9999 -9999 -9999 -9999 -9999 -9999 -9999 -9999 -9999 -9999 -9999 -9999 -9999 -9999 -9999 -9999 -9999 -9999 -9999 -9999 -9999 -9999 -9999 -9999 -9999 -9999 -9999 -9999 -9999 -9999 -9999 -9999 -9999 -9999 -9999 -9999 -9999 -9999 -9999 -9999 -9999 -9999 -9999 -9999 -9999 -9999 -9999 -9999 -9999 -9999 -9999 -9999 -9999 -9999 -9999 -9999
-9999 -9999 -9999 -9999 -9999 -9999 -9999 -9999 -9999 -9999 4196 4053 4108 4107 4228 4204 4078 3883 3585 3495 3501 3360 3456 3562 3388 3040 3171 3080 3149 2983 2758 2670 2693 2771 2823 2775 2677 2742 2703 2637 2712 2716 2644 2541 2588 2794 2760 2852 2961 2909 2798 2783 3262 3474 3307 3152 3533 3702 3297 3118 2986 3210 3297 3416 3184 3146 3198 3030 2860 2944 3239 3303 3240 3192 3289 3474 3540 3796 4067 3880 3909 4073 4473 -9999 -9999 -9999 -9999 -9999 -9999 -9999 -9999 -9999 -9999 -9999 -9999 -9999 -9999 -9999 -9999 -9999 -9999 -9999 -9999 -9999 -9999 -9999 -9999 -9999 -9999 -9999 -9999 -9999 -9999 -9999 -9999 -9999 -9999 -9999 -9999 -9999 -9999 -9999 -9999 -9999 -9999 -9999 -9999 -9999 -9999 -9999 -9999 -9999 -9999 -9999 -9999 -9999 -9999 -9999 -9999 -9999 -9999 -9999 -9999 -9999 -9999 -9999 -9999 -9999 -9999 -9999 -9999 -9999 -9999 -9999 -9999 -9999 -9999 -9999 -9999 -9999 -9999 -9999 -9999 -9999 -9999 -9999 -9999 -9999 -9999 -9999 -9999 -9999 -9999 -9999 -9999 -9999 -9999 -9999 -9999 -9999 -9999 -9999 -9999 -9999 -9999 -9999 -9999 -9999 -9999 -9999 -9999 -9999 -9999 -9999 -9999 -9999 -9999 -9999 -9999 -9999 -9999 -9999 -9999 -9999 -9999 -9999 -9999 -9999 -9999 -9999 -9999 -9999 -9999 -9999 -9999 -9999 -9999 -9999 -9999 -9999 -9999 -9999 -9999 -9999 -9999 -9999 -9999 -9999 -9999 -9999 -9999 -9999 -9999 -9999 -9999 -9999 -9999 -9999 -9999 -9999 -9999 -9999 -9999 -9999 -9999 -9999 -9999 -9999 -9999 -9999 -9999 -9999 -9999 -9999 -9999 -9999 -9999 -9999 -9999 -9999 -9999 -9999 -9999 -9999 -9999 -9999 -9999 -9999 -9999 -9999 -9999 -9999 -9999 -9999 -9999 -9999 -9999 -9999 -9999 -9999 -9999 -9999 -9999 -9999 -9999 -9999 -9999 -9999 -9999 -9999 -9999 -9999 -9999 -9999 -9999 -9999 -9999 -9999 -9999 -9999 -9999 -9999 -9999 -9999 -9999 -9999 -9999 -9999
-9999 -9999 -9999 -9999 -9999 -9999 -9999 -9999 -9999 4253 4132 4021 3896 3732 3850 3928 4008 3724 3549 3374 3235 3071 3013 3106 3010 2905 3002 2978 2881 2774 2811 2742 2649 2640 2636 2705 2686 2614 2758 2668 2556 2541 2606 2570 2701 2906 2969 3016 3398 3477 3385 3049 3589 3626 3371 3438 3784 3998 3671 3555 3278 3173 3282 3346 3406 3416 3248 3263 3142 2918 3007 2993 3062 3377 3637 3711 3651 3797 4140 -9999 4033 4167 4420 -9999 -9999 -9999 -9999 -9999 -9999 -9999 -9999 -9999 -9999 -9999 -9999 -9999 -9999 -9999 -9999 -9999 -9999 -9999 -9999 -9999 -9999 -9999 -9999 -9999 -9999 -9999 -9999 -9999 -9999 -9999 -9999 -9999 -9999 -9999 -9999 -9999 -9999 -9999 -9999 -9999 -9999 -9999 -9999 -9999 -9999 -9999 -9999 -9999 -9999 -9999 -9999 -9999 -9999 -9999 -9999 -9999 -9999 -9999 -9999 -9999 -9999 -9999 -9999 -9999 -9999 -9999 -9999 -9999 -9999 -9999 -9999 -9999 -9999 -9999 -9999 -9999 -9999 -9999 -9999 -9999 -9999 -9999 -9999 -9999 -9999 -9999 -9999 -9999 -9999 -9999 -9999 -9999 -9999 -9999 -9999 -9999 -9999 -9999 -9999 -9999 -9999 -9999 -9999 -9999 -9999 -9999 -9999 -9999 -9999 -9999 -9999 -9999 -9999 -9999 -9999 -9999 -9999 -9999 -9999 -9999 -9999 -9999 -9999 -9999 -9999 -9999 -9999 -9999 -9999 -9999 -9999 -9999 -9999 -9999 -9999 -9999 -9999 -9999 -9999 -9999 -9999 -9999 -9999 -9999 -9999 -9999 -9999 -9999 -9999 -9999 -9999 -9999 -9999 -9999 -9999 -9999 -9999 -9999 -9999 -9999 -9999 -9999 -9999 -9999 -9999 -9999 -9999 -9999 -9999 -9999 -9999 -9999 -9999 -9999 -9999 -9999 -9999 -9999 -9999 -9999 -9999 -9999 -9999 -9999 -9999 -9999 -9999 -9999 -9999 -9999 -9999 -9999 -9999 -9999 -9999 -9999 -9999 -9999 -9999 -9999 -9999 -9999 -9999 -9999 -9999 -9999 -9999 -9999 -9999 -9999 -9999 -9999 -9999 -9999 -9999 -9999 -9999 -9999 -9999 -9999 -9999 -9999 -9999 -9999
-9999 -9999 -9999 -9999 -9999 -9999 -9999 -9999 4050 4036 3913 3826 3611 3466 3728 3909 3709 3358 3167 3098 3083 3064 2918 3012 2994 3060 2840 2743 2733 2716 2751 2674 2653 2645 2640 2618 2607 2623 2673 2611 2749 2790 2693 2669 2988 3332 3357 3499 3573 3316 3157 3143 3489 3669 3550 3547 3665 3792 3619 3568 3294 3040 3158 3152 3148 3353 3535 3437 3087 3048 3356 3446 3337 3346 3664 3948 4079 4063 -9999 -9999 -9999 -9999 -9999 -9999 -9999 -9999 -9999 -9999 -9999 -9999 -9999 -9999 -9999 -9999 -9999 -9999 -9999 -9999 -9999 -9999 -9999 -9999 -9999 -9999 -9999 -9999 -9999 -9999 -9999 -9999 -9999 -9999 -9999 -9999 -9999 -9999 -9999 -9999 -9999 -9999 -9999 -9999 -9999 -9999 -9999 -9999 -9999 -9999 -9999 -9999 -9999 -9999 -9999 -9999 -9999 -9999 -9999 -9999 -9999 -9999 -9999 -9999 -9999 -9999 -9999 -9999 -9999 -9999 -9999 -9999 -9999 -9999 -9999 -9999 -9999 -9999 -9999 -9999 -9999 -9999 -9999 -9999 -9999 -9999 -9999 -9999 -9999 -9999 -9999 -9999 -9999 -9999 -9999 -9999 -9999 -9999 -9999 -9999 -9999 -9999 -9999 -9999 -9999 -9999 -9999 -9999 -9999 -9999 -9999 -9999 -9999 -9999 -9999 -9999 -9999 -9999 -9999 -9999 -9999 -9999 -9999 -9999 -9999 -9999 -9999 -9999 -9999 -9999 -9999 -9999 -9999 -9999 -9999 -9999 -9999 -9999 -9999 -9999 -9999 -9999 -9999 -9999 -9999 -9999 -9999 -9999 -9999 -9999 -9999 -9999 -9999 -9999 -9999 -9999 -9999 -9999 -9999 -9999 -9999 -9999 -9999 -9999 -9999 -9999 -9999 -9999 -9999 -9999 -9999 -9999 -9999 -9999 -9999 -9999 -9999 -9999 -9999 -9999 -9999 -9999 -9999 -9999 -9999 -9999 -9999 -9999 -9999 -9999 -9999 -9999 -9999 -9999 -9999 -9999 -9999 -9999 -9999 -9999 -9999 -9999 -9999 -9999 -9999 -9999 -9999 -9999 -9999 -9999 -9999 -9999 -9999 -9999 -9999 -9999 -9999 -9999 -9999 -9999 -9999 -9999 -9999 -9999 -9999 -9999 -9999 -9999 -9999 -9999
-9999 4197 4158 4211 4035 4174 3935 3945 3977 3756 3536 3511 3450 3459 3804 3753 3673 3550 3533 3358 3358 3217 3311 3318 3298 3099 2873 2892 2868 2716 2692 2688 2727 2694 2770 2939 2862 2941 2761 2642 2760 2845 2714 2746 3119 3235 3315 3345 3474 3193 3232 3535 3536 3565 3424 3373 3535 3683 3599 3520 3335 3153 3099 3073 3299 3399 3585 3480 3295 3104 3226 3334 3457 3695 3720 3810 3962 -9999 -9999 -9999 -9999 -9999 -9999 -9999 -9999 -9999 -9999 -9999 -9999 -9999 -9999 -9999 -9999 -9999 -9999 -9999 -9999 -9999 -9999 -9999 -9999 -9999 -9999 -9999 -9999 -9999 -9999 -9999 -9999 -9999 -9999 -9999 -9999 -9999 -9999 -9999 -9999 -9999 -9999 -9999 -9999 -9999 -9999 -9999 -9999 -9999 -9999 -9999 -9999 -9999 -9999 -9999 -9999 -9999 -9999 -9999 -9999 -9999 -9999 -9999 -9999 -9999 -9999 -9999 -9999 -9999 -9999 -9999 -9999 -9999 -9999 -9999 -9999 -9999 -9999 -9999 -9999 -9999 -9999 -9999 -9999 -9999 -9999 -9999 -9999 -9999 -9999 -9999 -9999 -9999 -9999 -9999 -9999 -9999 -9999 -9999 -9999 -9999 -9999 -9999 -9999 -9999 -9999 -9999 -9999 -9999 -9999 -9999 -9999 -9999 -9999 -9999 -9999 -9999 -9999 -9999 -9999 -9999 -9999 -9999 -9999 -9999 -9999 -9999 -9999 -9999 -9999 -9999 -9999 -9999 -9999 -9999 -9999 -9999 -9999 -9999 -9999 -9999 -9999 -9999 -9999 -9999 -9999 -9999 -9999 -9999 -9999 -9999 -9999 -9999 -9999 -9999 -9999 -9999 -9999 -9999 -9999 -9999 -9999 -9999 -9999 -9999 -9999 -9999 -9999 -9999 -9999 -9999 -9999 -9999 -9999 -9999 -9999 -9999 -9999 -9999 -9999 -9999 -9999 -9999 -9999 -9999 -9999 -9999 -9999 -9999 -9999 -9999 -9999 -9999 -9999 -9999 -9999 -9999 -9999 -9999 -9999 -9999 -9999 -9999 -9999 -9999 -9999 -9999 -9999 -9999 -9999 -9999 -9999 -9999 -9999 -9999 -9999 -9999 -9999 -9999 -9999 -9999 -9999 -9999 -9999 -9999 -9999 -9999 -9999 -9999 -9999 -9999
4331 4240 4039 4126 3929 4153 3811 3736 3876 3930 3590 3425 3295 3527 3725 3556 3456 3474 3523 3412 3326 3402 3335 3134 3128 3020 2984 2851 2814 2711 2700 2768 2847 2778 2851 3134 3050 3006 2783 2645 2797 2884 2768 2966 3275 3201 3233 3345 3486 3219 3277 3538 3569 3434 3344 3284 3502 3685 3538 3411 3273 3091 3149 3105 3277 3532 3686 3607 3434 3304 3210 3284 3514 3645 3922 4034 -9999 -9999 -9999 -9999 -9999 -9999 -9999 -9999 -9999 -9999 -9999 -9999 -9999 -9999 -9999 -9999 -9999 -9999 -9999 -9999 -9999 -9999 -9999 -9999 -9999 -9999 -9999 -9999 -9999 -9999 -9999 -9999 -9999 -9999 -9999 -9999 -9999 -9999 -9999 -9999 -9999 -9999 -9999 -9999 -9999 -9999 -9999 -9999 -9999 -9999 -9999 -9999 -9999 -9999 -9999 -9999 -9999 -9999 -9999 -9999 -9999 -9999 -9999 -9999 -9999 -9999 -9999 -9999 -9999 -9999 -9999 -9999 -9999 -9999 -9999 -9999 -9999 -9999 -9999 -9999 -9999 -9999 -9999 -9999 -9999 -9999 -9999 -9999 -9999 -9999 -9999 -9999 -9999 -9999 -9999 -9999 -9999 -9999 -9999 -9999 -9999 -9999 -9999 -9999 -9999 -9999 -9999 -9999 -9999 -9999 -9999 -9999 -9999 -9999 -9999 -9999 -9999 -9999 -9999 -9999 -9999 -9999 -9999 -9999 -9999 -9999 -9999 -9999 -9999 -9999 -9999 -9999 -9999 -9999 -9999 -9999 -9999 -9999 -9999 -9999 -9999 -9999 -9999 -9999 -9999 -9999 -9999 -9999 -9999 -9999 -9999 -9999 -9999 -9999 -9999 -9999 -9999 -9999 -9999 -9999 -9999 -9999 -9999 -9999 -9999 -9999 -9999 -9999 -9999 -9999 -9999 -9999 -9999 -9999 -9999 -9999 -9999 -9999 -9999 -9999 -9999 -9999 -9999 -9999 -9999 -9999 -9999 -9999 -9999 -9999 -9999 -9999 -9999 -9999 -9999 -9999 -9999 -9999 -9999 -9999 -9999 -9999 -9999 -9999 -9999 -9999 -9999 -9999 -9999 -9999 -9999 -9999 -9999 -9999 -9999 -9999 -9999 -9999 -9999 -9999 -9999 -9999 -9999 -9999 -9999 -9999 -9999 -9999 -9999 -9999 -9999 -9999
4208 4080 3874 3829 3723 3775 3761 3641 3545 3735 3556 3469 3205 3472 3563 3558 3275 3124 3273 3021 3004 3076 3146 2916 2866 3016 2875 2765 2738 2725 2819 3035 3085 2930 2852 3083 3040 2954 2750 2711 2776 2880 3145 3306 3483 3460 3526 3586 3616 3358 3288 3398 3630 3444 3360 3282 3452 3642 3467 3325 3147 3193 3440 3436 3216 3346 3614 3768 3683 3592 3385 3423 3630 3936 4083 -9999 -9999 -9999 -9999 -9999 -9999 -9999 -9999 -9999 -9999 -9999 -9999 -9999 -9999 -9999 -9999 -9999 -9999 -9999 -9999 -9999 -9999 -9999 -9999 -9999 -9999 -9999 -9999 -9999 -9999 -9999 -9999 -9999 -9999 -9999 -9999 -9999 -9999 -9999 -9999 -9999 -9999 -9999 -9999 -9999 -9999 -9999 -9999 -9999 -9999 -9999 -9999 -9999 -9999 -9999 -9999 -9999 -9999 -9999 -9999 -9999 -9999 -9999 -9999 -9999 -9999 -9999 -9999 -9999 -9999 -9999 -9999 -9999 -9999 -9999 -9999 -9999 -9999 -9999 -9999 -9999 -9999 -9999 -9999 -9999 -9999 -9999 -9999 -9999 -9999 -9999 -9999 -9999 -9999 -9999 -9999 -9999 -9999 -9999 -9999 -9999 -9999 -9999 -9999 -9999 -9999 -9999 -9999 -9999 -9999 -9999 -9999 -9999 -9999 -9999 -9999 -9999 -9999 -9999 -9999 -9999 -9999 -9999 -9999 -9999 -9999 -9999 -9999 -9999 -9999 -9999 -9999 -9999 -9999 -9999 -9999 -9999 -9999 -9999 -9999 -9999 -9999 -9999 -9999 -9999 -9999 -9999 -9999 -9999 -9999 -9999 -9999 -9999 -9999 -9999 -9999 -9999 -9999 -9999 -9999 -9999 -9999 -9999 -9999 -9999 -9999 -9999 -9999 -9999 -9999 -9999 -9999 -9999 -9999 -9999 -9999 -9999 -9999 -9999 -9999 -9999 -9999 -9999 -9999 -9999 -9999 -9999 -9999 -9999 -9999 -9999 -9999 -9999 -9999 -9999 -9999 -9999 -9999 -9999 -9999 -9999 -9999 -9999 -9999 -9999 -9999 -9999 -9999 -9999 -9999 -9999 -9999 -9999 -9999 -9999 -9999 -9999 -9999 -9999 -9999 -9999 -9999 -9999 -9999 -9999 -9999 -9999 -9999 -9999 -9999 -9999 -9999 -9999
4225 4170 4152 4055 3842 3627 3511 3471 3337 3327 3176 3190 3121 3507 3412 3244 3216 3110 2924 2876 2866 2853 2835 2820 2813 2805 2774 2757 2751 2806 3126 3171 2954 2988 3029 3149 2855 2753 2772 2924 3174 3224 3384 3361 3594 3582 3621 3567 3443 3254 3345 3420 3607 3638 3515 3281 3434 3707 3455 3344 3155 3370 3634 3689 3359 3503 3764 -9999 -9999 3809 3654 3754 3694 3863 4053 4276 -9999 -9999 -9999 -9999 -9999 -9999 -9999 -9999 -9999 -9999 -9999 -9999 -9999 -9999 -9999 -9999 -9999 -9999 -9999 -9999 -9999 -9999 -9999 -9999 -9999 -9999 -9999 -9999 -9999 -9999 -9999 -9999 -9999 -9999 -9999 -9999 -9999 -9999 -9999 -9999 -9999 -9999 -9999 -9999 -9999 -9999 -9999 -9999 -9999 -9999 -9999 -9999 -9999 -9999 -9999 -9999 -9999 -9999 -9999 -9999 -9999 -9999 -9999 -9999 -9999 -9999 -9999 -9999 -9999 -9999 -9999 -9999 -9999 -9999 -9999 -9999 -9999 -9999 -9999 -9999 -9999 -9999 -9999 -9999 -9999 -9999 -9999 -9999 -9999 -9999 -9999 -9999 -9999 -9999 -9999 -9999 -9999 -9999 -9999 -9999 -9999 -9999 -9999 -9999 -9999 -9999 -9999 -9999 -9999 -9999 -9999 -9999 -9999 -9999 -9999 -9999 -9999 -9999 -9999 -9999 -9999 -9999 -9999 -9999 -9999 -9999 -9999 -9999 -9999 -9999 -9999 -9999 -9999 -9999 -9999 -9999 -9999 -9999 -9999 -9999 -9999 -9999 -9999 -9999 -9999 -9999 -9999 -9999 -9999 -9999 -9999 -9999 -9999 -9999 -9999 -9999 -9999 -9999 -9999 -9999 -9999 -9999 -9999 -9999 -9999 -9999 -9999 -9999 -9999 -9999 -9999 -9999 -9999 -9999 -9999 -9999 -9999 -9999 -9999 -9999 -9999 -9999 -9999 -9999 -9999 -9999 -9999 -9999 -9999 -9999 -9999 -9999 -9999 -9999 -9999 -9999 -9999 -9999 -9999 -9999 -9999 -9999 -9999 -9999 -9999 -9999 -9999 -9999 -9999 -9999 -9999 -9999 -9999 -9999 -9999 -9999 -9999 -9999 -9999 -9999 -9999 -9999 -9999 -9999 -9999 -9999 -9999 -9999 -9999 -9999 -9999 -9999
-9999 -9999 4064 3919 3585 3499 3290 3303 3503 3494 3378 3203 3154 3520 3345 3210 3076 2921 2950 2987 3021 2953 2910 2824 2807 2793 2783 2802 2896 3083 3135 3123 3214 3311 3172 2973 2830 2786 3084 3309 3566 3588 3492 3270 3448 3580 3589 3411 3396 3278 3352 3493 3741 3607 3564 3348 3505 3528 3532 3460 3211 3370 3698 3817 3618 3713 -9999 -9999 -9999 -9999 -9999 4072 4062 4093 4199 -9999 -9999 -9999 -9999 -9999 -9999 -9999 -9999 -9999 -9999 -9999 -9999 -9999 -9999 -9999 -9999 -9999 -9999 -9999 -9999 -9999 -9999 -9999 -9999 -9999 -9999 -9999 -9999 -9999 -9999 -9999 -9999 -9999 -9999 -9999 -9999 -9999 -9999 -9999 -9999 -9999 -9999 -9999 -9999 -9999 -9999 -9999 -9999 -9999 -9999 -9999 -9999 -9999 -9999 -9999 -9999 -9999 -9999 -9999 -9999 -9999 -9999 -9999 -9999 -9999 -9999 -9999 -9999 -9999 -9999 -9999 -9999 -9999 -9999 -9999 -9999 -9999 -9999 -9999 -9999 -9999 -9999 -9999 -9999 -9999 -9999 -9999 -9999 -9999 -9999 -9999 -9999 -9999 -9999 -9999 -9999 -9999 -9999 -9999 -9999 -9999 -9999 -9999 -9999 -9999 -9999 -9999 -9999 -9999 -9999 -9999 -9999 -9999 -9999 -9999 -9999 -9999 -9999 -9999 -9999 -9999 -9999 -9999 -9999 -9999 -9999 -9999 -9999 -9999 -9999 -9999 -9999 -9999 -9999 -9999 -9999 -9999 -9999 -9999 -9999 -9999 -9999 -9999 -9999 -9999 -9999 -9999 -9999 -9999 -9999 -9999 -9999 -9999 -9999 -9999 -9999 -9999 -9999 -9999 -9999 -9999 -9999 -9999 -9999 -9999 -9999 -9999 -9999 -9999 -9999 -9999 -9999 -9999 -9999 -9999 -9999 -9999 -9999 -9999 -9999 -9999 -9999 -9999 -9999 -9999 -9999 -9999 -9999 -9999 -9999 -9999 -9999 -9999 -9999 -9999 -9999 -9999 -9999 -9999 -9999 -9999 -9999 -9999 -9999 -9999 -9999 -9999 -9999 -9999 -9999 -9999 -9999 -9999 -9999 -9999 -9999 -9999 -9999 -9999 -9999 -9999 -9999 -9999 -9999 -9999 -9999 -9999 -9999 -9999 -9999 -9999 -9999 -9999
-9999 -9999 3962 3832 3636 3644 3360 3209 3260 3361 3328 3156 3130 3345 3286 3170 2959 2928 3093 2988 2932 2867 2882 2817 2816 2840 2942 2851 2930 3152 3297 3184 3378 3352 3132 3118 2848 2838 3106 3262 3454 3643 3503 3327 3398 3479 3546 3443 3565 3407 3321 3491 3693 3726 3652 3432 3491 3556 3619 3485 3305 3349 3681 3836 -9999 -9999 -9999 -9999 -9999 -9999 -9999 -9999 -9999 -9999 -9999 -9999 -9999 -9999 -9999 -9999 -9999 -9999 -9999 -9999 -9999 -9999 -9999 -9999 -9999 -9999 -9999 -9999 -9999 -9999 -9999 -9999 -9999 -9999 -9999 -9999 -9999 -9999 -9999 -9999 -9999 -9999 -9999 -9999 -9999 -9999 -9999 -9999 -9999 -9999 -9999 -9999 -9999 -9999 -9999 -9999 -9999 -9999 -9999 -9999 -9999 -9999 -9999 -9999 -9999 -9999 -9999 -9999 -9999 -9999 -9999 -9999 -9999 -9999 -9999 -9999 -9999 -9999 -9999 -9999 -9999 -9999 -9999 -9999 -9999 -9999 -9999 -9999 -9999 -9999 -9999 -9999 -9999 -9999 -9999 -9999 -9999 -9999 -9999 -9999 -9999 -9999 -9999 -9999 -9999 -9999 -9999 -9999 -9999 -9999 -9999 -9999 -9999 -9999 -9999 -9999 -9999 -9999 -9999 -9999 -9999 -9999 -9999 -9999 -9999 -9999 -9999 -9999 -9999 -9999 -9999 -9999 -9999 -9999 -9999 -9999 -9999 -9999 -9999 -9999 -9999 -9999 -9999 -9999 -9999 -9999 -9999 -9999 -9999 -9999 -9999 -9999 -9999 -9999 -9999 -9999 -9999 -9999 -9999 -9999 -9999 -9999 -9999 -9999 -9999 -9999 -9999 -9999 -9999 -9999 -9999 -9999 -9999 -9999 -9999 -9999 -9999 -9999 -9999 -9999 -9999 -9999 -9999 -9999 -9999 -9999 -9999 -9999 -9999 -9999 -9999 -9999 -9999 -9999 -9999 -9999 -9999 -9999 -9999 -9999 -9999 -9999 -9999 -9999 -9999 -9999 -9999 -9999 -9999 -9999 -9999 -9999 -9999 -9999 -9999 -9999 -9999 -9999 -9999 -9999 -9999 -9999 -9999 -9999 -9999 -9999 -9999 -9999 -9999 -9999 -9999 -9999 -9999 -9999 -9999 -9999 -9999 -9999 -9999 -9999 -9999 -9999 -9999 -9999
-9999 -9999 4128 4029 3922 3732 3464 3471 3409 3143 3053 3038 3036 2980 2962 2956 3034 3194 3105 3030 3015 2943 2867 2847 2875 3031 3149 2945 3021 3278 3454 3505 3586 3598 3473 3150 2901 2852 3208 3318 3521 3623 3457 3335 3381 3476 3602 3762 3799 3521 3367 3508 3561 3605 3534 3433 3500 3702 3759 3613 3442 3426 3698 -9999 -9999 -9999 -9999 -9999 -9999 -9999 -9999 -9999 -9999 -9999 -9999 -9999 -9999 -9999 -9999 -9999 -9999 -9999 -9999 -9999 -9999 -9999 -9999 -9999 -9999 -9999 -9999 -9999 -9999 -9999 -9999 -9999 -9999 -9999 -9999 -9999 -9999 -9999 -9999 -9999 -9999 -9999 -9999 -9999 -9999 -9999 -9999 -9999 -9999 -9999 -9999 -9999 -9999 -9999 -9999 -9999 -9999 -9999 -9999 -9999 -9999 -9999 -9999 -9999 -9999 -9999 -9999 -9999 -9999 -9999 -9999 -9999 -9999 -9999 -9999 -9999 -9999 -9999 -9999 -9999 -9999 -9999 -9999 -9999 -9999 -9999 -9999 -9999 -9999 -9999 -9999 -9999 -9999 -9999 -9999 -9999 -9999 -9999 -9999 -9999 -9999 -9999 -9999 -9999 -9999 -9999 -9999 -9999 -9999 -9999 -9999 -9999 -9999 -9999 -9999 -9999 -9999 -9999 -9999 -9999 -9999 -9999 -9999 -9999 -9999 -9999 -9999 -9999 -9999 -9999 -9999 -9999 -9999 -9999 -9999 -9999 -9999 -9999 -9999 -9999 -9999 -9999 -9999 -9999 -9999 -9999 -9999 -9999 -9999 -9999 -9999 -9999 -9999 -9999 -9999 -9999 -9999 -9999 -9999 -9999 -9999 -9999 -9999 -9999 -9999 -9999 -9999 -9999 -9999 -9999 -9999 -9999 -9999 -9999 -9999 -9999 -9999 -9999 -9999 -9999 -9999 -9999 -9999 -9999 -9999 -9999 -9999 -9999 -9999 -9999 -9999 -9999 -9999 -9999 -9999 -9999 -9999 -9999 -9999 -9999 -9999 -9999 -9999 -9999 -9999 -9999 -9999 -9999 -9999 -9999 -9999 -9999 -9999 -9999 -9999 -9999 -9999 -9999 -9999 -9999 -9999 -9999 -9999 -9999 -9999 -9999 -9999 -9999 -9999 -9999 -9999 -9999 -9999 -9999 -9999 -9999 -9999 -9999 -9999 -9999 -9999 -9999 -9999 -9999
-9999 -9999 4122 4016 3773 3649 3460 3404 3540 3478 3251 3122 3027 3021 3058 3107 3190 3208 3234 3329 3300 3273 3024 2964 2958 3189 3381 3135 3200 3392 3545 3762 3451 3382 3293 3211 2907 2925 3080 3213 3425 3548 3563 3551 3519 3687 3700 3848 3638 3525 3586 3501 3683 3681 3671 3527 3675 3695 3701 3541 3519 3444 3683 -9999 -9999 -9999 -9999 -9999 -9999 -9999 -9999 -9999 -9999 -9999 -9999 -9999 -9999 -9999 -9999 -9999 -9999 -9999 -9999 -9999 -9999 -9999 -9999 -9999 -9999 -9999 -9999 -9999 -9999 -9999 -9999 -9999 -9999 -9999 -9999 -9999 -9999 -9999 -9999 -9999 -9999 -9999 -9999 -9999 -9999 -9999 -9999 -9999 -9999 -9999 -9999 -9999 -9999 -9999 -9999 -9999 -9999 -9999 -9999 -9999 -9999 -9999 -9999 -9999 -9999 -9999 -9999 -9999 -9999 -9999 -9999 -9999 -9999 -9999 -9999 -9999 -9999 -9999 -9999 -9999 -9999 -9999 -9999 -9999 -9999 -9999 -9999 -9999 -9999 -9999 -9999 -9999 -9999 -9999 -9999 -9999 -9999 -9999 -9999 -9999 -9999 -9999 -9999 -9999 -9999 -9999 -9999 -9999 -9999 -9999 -9999 -9999 -9999 -9999 -9999 -9999 -9999 -9999 -9999 -9999 -9999 -9999 -9999 -9999 -9999 -9999 -9999 -9999 -9999 -9999 -9999 -9999 -9999 -9999 -9999 -9999 -9999 -9999 -9999 -9999 -9999 -9999 -9999 -9999 -9999 -9999 -9999 -9999 -9999 -9999 -9999 -9999 -9999 -9999 -9999 -9999 -9999 -9999 -9999 -9999 -9999 -9999 -9999 -9999 -9999 -9999 -9999 -9999 -9999 -9999 -9999 -9999 -9999 -9999 -9999 -9999 -9999 -9999 -9999 -9999 -9999 -9999 -9999 -9999 -9999 -9999 -9999 -9999 -9999 -9999 -9999 -9999 -9999 -9999 -9999 -9999 -9999 -9999 -9999 -9999 -9999 -9999 -9999 -9999 -9999 -9999 -9999 -9999 -9999 -9999 -9999 -9999 -9999 -9999 -9999 -9999 -9999 -9999 -9999 -9999 -9999 -9999 -9999 -9999 -9999 -9999 -9999 -9999 -9999 -9999 -9999 -9999 -9999 -9999 -9999 -9999 -9999 -9999 -9999 -9999 -9999 -9999 -9999 -9999
-9999 -9999 -9999 -9999 3888 3839 3703 3595 3301 3181 3217 3272 3268 3209 3224 3233 3375 3493 3444 3438 3353 3116 2913 3097 3261 3247 3341 3480 3370 3483 3754 3809 3632 3530 3383 3197 2952 3074 3392 3524 3628 3807 3731 3731 3561 3682 3851 3748 3629 3710 3547 3507 3634 3834 3895 3770 3627 3748 3849 3725 3619 3730 -9999 -9999 -9999 -9999 -9999 -9999 -9999 -9999 -9999 -9999 -9999 -9999 -9999 -9999 -9999 -9999 -9999 -9999 -9999 -9999 -9999 -9999 -9999 -9999 -9999 -9999 -9999 -9999 -9999 -9999 -9999 -9999 -9999 -9999 -9999 -9999 -9999 -9999 -9999 -9999 -9999 -9999 -9999 -9999 -9999 -9999 -9999 -9999 -9999 -9999 -9999 -9999 -9999 -9999 -9999 -9999 -9999 -9999 -9999 -9999 -9999 -9999 -9999 -9999 -9999 -9999 -9999 -9999 -9999 -9999 -9999 -9999 -9999 -9999 -9999 -9999 -9999 -9999 -9999 -9999 -9999 -9999 -9999 -9999 -9999 -9999 -9999 -9999 -9999 -9999 -9999 -9999 -9999 -9999 -9999 -9999 -9999 -9999 -9999 -9999 -9999 -9999 -9999 -9999 -9999 -9999 -9999 -9999 -9999 -9999 -9999 -9999 -9999 -9999 -9999 -9999 -9999 -9999 -9999 -9999 -9999 -9999 -9999 -9999 -9999 -9999 -9999 -9999 -9999 -9999 -9999 -9999 -9999 -9999 -9999 -9999 -9999 -9999 -9999 -9999 -9999 -9999 -9999 -9999 -9999 -9999 -9999 -9999 -9999 -9999 -9999 -9999 -9999 -9999 -9999 -9999 -9999 -9999 -9999 -9999 -9999 -9999 -9999 -9999 -9999 -9999 -9999 -9999 -9999 -9999 -9999 -9999 -9999 -9999 -9999 -9999 -9999 -9999 -9999 -9999 -9999 -9999 -9999 -9999 -9999 -9999 -9999 -9999 -9999 -9999 -9999 -9999 -9999 -9999 -9999 -9999 -9999 -9999 -9999 -9999 -9999 -9999 -9999 -9999 -9999 -9999 -9999 -9999 -9999 -9999 -9999 -9999 -9999 -9999 -9999 -9999 -9999 -9999 -9999 -9999 -9999 -9999 -9999 -9999 -9999 -9999 -9999 -9999 -9999 -9999 -9999 -9999 -9999 -9999 -9999 -9999 -9999 -9999 -9999 -9999 -9999 -9999 -9999 -9999 -9999 -9999
-9999 -9999 -9999 -9999 -9999 -9999 -9999 3607 3658 3394 3438 3530 3477 3409 3573 3541 3390 3259 3131 3143 3180 3017 3077 3116 3225 3265 3533 3720 3773 3800 3956 3892 3660 3506 3362 3121 3228 3183 3192 3436 3685 3862 3902 3934 3772 3826 3914 3885 3827 3754 3710 3667 3760 -9999 -9999 -9999 3735 3900 -9999 -9999 3857 -9999 -9999 -9999 -9999 -9999 -9999 -9999 -9999 -9999 -9999 -9999 -9999 -9999 -9999 -9999 -9999 -9999 -9999 -9999 -9999 -9999 -9999 -9999 -9999 -9999 -9999 -9999 -9999 -9999 -9999 -9999 -9999 -9999 -9999 -9999 -9999 -9999 -9999 -9999 -9999 -9999 -9999 -9999 -9999 -9999 -9999 -9999 -9999 -9999 -9999 -9999 -9999 -9999 -9999 -9999 -9999 -9999 -9999 -9999 -9999 -9999 -9999 -9999 -9999 -9999 -9999 -9999 -9999 -9999 -9999 -9999 -9999 -9999 -9999 -9999 -9999 -9999 -9999 -9999 -9999 -9999 -9999 -9999 -9999 -9999 -9999 -9999 -9999 -9999 -9999 -9999 -9999 -9999 -9999 -9999 -9999 -9999 -9999 -9999 -9999 -9999 -9999 -9999 -9999 -9999 -9999 -9999 -9999 -9999 -9999 -9999 -9999 -9999 -9999 -9999 -9999 -9999 -9999 -9999 -9999 -9999 -9999 -9999 -9999 -9999 -9999 -9999 -9999 -9999 -9999 -9999 -9999 -9999 -9999 -9999 -9999 -9999 -9999 -9999 -9999 -9999 -9999 -9999 -9999 -9999 -9999 -9999 -9999 -9999 -9999 -9999 -9999 -9999 -9999 -9999 -9999 -9999 -9999 -9999 -9999 -9999 -9999 -9999 -9999 -9999 -9999 -9999 -9999 -9999 -9999 -9999 -9999 -9999 -9999 -9999 -9999 -9999 -9999 -9999 -9999 -9999 -9999 -9999 -9999 -9999 -9999 -9999 -9999 -9999 -9999 -9999 -9999 -9999 -9999 -9999 -9999 -9999 -9999 -9999 -9999 -9999 -9999 -9999 -9999 -9999 -9999 -9999 -9999 -9999 -9999 -9999 -9999 -9999 -9999 -9999 -9999 -9999 -9999 -9999 -9999 -9999 -9999 -9999 -9999 -9999 -9999 -9999 -9999 -9999 -9999 -9999 -9999 -9999 -9999 -9999 -9999 -9999 -9999 -9999 -9999 -9999 -9999 -9999 -9999 -9999 -9999 -9999
-9999 -9999 -9999 -9999 -9999 -9999 -9999 -9999 3784 3445 3582 3590 3607 3640 3570 3494 3459 3438 3263 3039 3040 2963 3172 3191 3311 3409 3600 3893 -9999 -9999 -9999 3897 3615 3482 3327 3187 3329 3401 3348 3619 3821 -9999 -9999 -9999 -9999 -9999 -9999 -9999 -9999 -9999 -9999 3786 -9999 -9999 -9999 -9999 -9999 -9999 -9999 -9999 -9999 -9999 -9999 -9999 -9999 -9999 -9999 -9999 -9999 -9999 -9999 -9999 -9999 -9999 -9999 -9999 -9999 -9999 -9999 -9999 -9999 -9999 -9999 -9999 -9999 -9999 -9999 -9999 -9999 -9999 -9999 -9999 -9999 -9999 -9999 -9999 -9999 -9999 -9999 -9999 -9999 -9999 -9999 -9999 -9999 -9999 -9999 -9999 -9999 -9999 -9999 -9999 -9999 -9999 -9999 -9999 -9999 -9999 -9999 -9999 -9999 -9999 -9999 -9999 -9999 -9999 -9999 -9999 -9999 -9999 -9999 -9999 -9999 -9999 -9999 -9999 -9999 -9999 -9999 -9999 -9999 -9999 -9999 -9999 -9999 -9999 -9999 -9999 -9999 -9999 -9999 -9999 -9999 -9999 -9999 -9999 -9999 -9999 -9999 -9999 -9999 -9999 -9999 -9999 -9999 -9999 -9999 -9999 -9999 -9999 -9999 -9999 -9999 -9999 -9999 -9999 -9999 -9999 -9999 -9999 -9999 -9999 -9999 -9999 -9999 -9999 -9999 -9999 -9999 -9999 -9999 -9999 -9999 -9999 -9999 -9999 -9999 -9999 -9999 -9999 -9999 -9999 -9999 -9999 -9999 -9999 -9999 -9999 -9999 -9999 -9999 -9999 -9999 -9999 -9999 -9999 -9999 -9999 -9999 -9999 -9999 -9999 -9999 -9999 -9999 -9999 -9999 -9999 -9999 -9999 -9999 -9999 -9999 -9999 -9999 -9999 -9999 -9999 -9999 -9999 -9999 -9999 -9999 -9999 -9999 -9999 -9999 -9999 -9999 -9999 -9999 -9999 -9999 -9999 -9999 -9999 -9999 -9999 -9999 -9999 -9999 -9999 -9999 -9999 -9999 -9999 -9999 -9999 -9999 -9999 -9999 -9999 -9999 -9999 -9999 -9999 -9999 -9999 -9999 -9999 -9999 -9999 -9999 -9999 -9999 -9999 -9999 -9999 -9999 -9999 -9999 -9999 -9999 -9999 -9999 -9999 -9999 -9999 -9999 -9999 -9999 -9999 -9999 -9999 -9999 -9999 -9999 -9999
-9999 -9999 -9999 -9999 -9999 -9999 -9999 -9999 3732 3614 3825 -9999 -9999 3624 3491 3426 3361 3334 3130 3072 3188 3128 3179 3439 3439 3684 3836 -9999 -9999 -9999 -9999 -9999 -9999 3664 3413 3347 3529 3613 3643 3710 -9999 -9999 -9999 -9999 -9999 -9999 -9999 -9999 -9999 -9999 -9999 -9999 -9999 -9999 -9999 -9999 -9999 -9999 -9999 -9999 -9999 -9999 -9999 -9999 -9999 -9999 -9999 -9999 -9999 -9999 -9999 -9999 -9999 -9999 -9999 -9999 -9999 -9999 -9999 -9999 -9999 -9999 -9999 -9999 -9999 -9999 -9999 -9999 -9999 -9999 -9999 -9999 -9999 -9999 -9999 -9999 -9999 -9999 -9999 -9999 -9999 -9999 -9999 -9999 -9999 -9999 -9999 -9999 -9999 -9999 -9999 -9999 -9999 -9999 -9999 -9999 -9999 -9999 -9999 -9999 -9999 -9999 -9999 -9999 -9999 -9999 -9999 -9999 -9999 -9999 -9999 -9999 -9999 -9999 -9999 -9999 -9999 -9999 -9999 -9999 -9999 -9999 -9999 -9999 -9999 -9999 -9999 -9999 -9999 -9999 -9999 -9999 -9999 -9999 -9999 -9999 -9999 -9999 -9999 -9999 -9999 -9999 -9999 -9999 -9999 -9999 -9999 -9999 -9999 -9999 -9999 -9999 -9999 -9999 -9999 -9999 -9999 -9999 -9999 -9999 -9999 -9999 -9999 -9999 -9999 -9999 -9999 -9999 -9999 -9999 -9999 -9999 -9999 -9999 -9999 -9999 -9999 -9999 -9999 -9999 -9999 -9999 -9999 -9999 -9999 -9999 -9999 -9999 -9999 -9999 -9999 -9999 -9999 -9999 -9999 -9999 -9999 -9999 -9999 -9999 -9999 -9999 -9999 -9999 -9999 -9999 -9999 -9999 -9999 -9999 -9999 -9999 -9999 -9999 -9999 -9999 -9999 -9999 -9999 -9999 -9999 -9999 -9999 -9999 -9999 -9999 -9999 -9999 -9999 -9999 -9999 -9999 -9999 -9999 -9999 -9999 -9999 -9999 -9999 -9999 -9999 -9999 -9999 -9999 -9999 -9999 -9999 -9999 -9999 -9999 -9999 -9999 -9999 -9999 -9999 -9999 -9999 -9999 -9999 -9999 -9999 -9999 -9999 -9999 -9999 -9999 -9999 -9999 -9999 -9999 -9999 -9999 -9999 -9999 -9999 -9999 -9999 -9999 -9999 -9999 -9999 -9999 -9999 -9999 -9999 -9999 -9999 -9999
-9999 -9999 -9999 -9999 -9999 -9999 -9999 -9999 3998 -9999 -9999 -9999 -9999 3440 3298 3299 3158 3127 3109 3320 3353 3308 3399 3557 3709 -9999 -9999 -9999 -9999 -9999 -9999 -9999 -9999 -9999 3611 3518 3669 -9999 -9999 -9999 -9999 -9999 -9999 -9999 -9999 -9999 -9999 -9999 -9999 -9999 -9999 -9999 -9999 -9999 -9999 -9999 -9999 -9999 -9999 -9999 -9999 -9999 -9999 -9999 -9999 -9999 -9999 -9999 -9999 -9999 -9999 -9999 -9999 -9999 -9999 -9999 -9999 -9999 -9999 -9999 -9999 -9999 -9999 -9999 -9999 -9999 -9999 -9999 -9999 -9999 -9999 -9999 -9999 -9999 -9999 -9999 -9999 -9999 -9999 -9999 -9999 -9999 -9999 -9999 -9999 -9999 -9999 -9999 -9999 -9999 -9999 -9999 -9999 -9999 -9999 -9999 -9999 -9999 -9999 -9999 -9999 -9999 -9999 -9999 -9999 -9999 -9999 -9999 -9999 -9999 -9999 -9999 -9999 -9999 -9999 -9999 -9999 -9999 -9999 -9999 -9999 -9999 -9999 -9999 -9999 -9999 -9999 -9999 -9999 -9999 -9999 -9999 -9999 -9999 -9999 -9999 -9999 -9999 -9999 -9999 -9999 -9999 -9999 -9999 -9999 -9999 -9999 -9999 -9999 -9999 -9999 -9999 -9999 -9999 -9999 -9999 -9999 -9999 -9999 -9999 -9999 -9999 -9999 -9999 -9999 -9999 -9999 -9999 -9999 -9999 -9999 -9999 -9999 -9999 -9999 -9999 -9999 -9999 -9999 -9999 -9999 -9999 -9999 -9999 -9999 -9999 -9999 -9999 -9999 -9999 -9999 -9999 -9999 -9999 -9999 -9999 -9999 -9999 -9999 -9999 -9999 -9999 -9999 -9999 -9999 -9999 -9999 -9999 -9999 -9999 -9999 -9999 -9999 -9999 -9999 -9999 -9999 -9999 -9999 -9999 -9999 -9999 -9999 -9999 -9999 -9999 -9999 -9999 -9999 -9999 -9999 -9999 -9999 -9999 -9999 -9999 -9999 -9999 -9999 -9999 -9999 -9999 -9999 -9999 -9999 -9999 -9999 -9999 -9999 -9999 -9999 -9999 -9999 -9999 -9999 -9999 -9999 -9999 -9999 -9999 -9999 -9999 -9999 -9999 -9999 -9999 -9999 -9999 -9999 -9999 -9999 -9999 -9999 -9999 -9999 -9999 -9999 -9999 -9999 -9999 -9999 -9999 -9999 -9999 -9999 -9999 -9999 -9999
-9999 -9999 -9999 -9999 -9999 -9999 -9999 -9999 -9999 -9999 -9999 -9999 -9999 3552 3294 3306 3363 3266 3225 3467 3656 3503 3687 3581 -9999 -9999 -9999 -9999 -9999 -9999 -9999 -9999 -9999 -9999 -9999 3718 -9999 -9999 -9999 -9999 -9999 -9999 -9999 -9999 -9999 -9999 -9999 -9999 -9999 -9999 -9999 -9999 -9999 -9999 -9999 -9999 -9999 -9999 -9999 -9999 -9999 -9999 -9999 -9999 -9999 -9999 -9999 -9999 -9999 -9999 -9999 -9999 -9999 -9999 -9999 -9999 -9999 -9999 -9999 -9999 -9999 -9999 -9999 -9999 -9999 -9999 -9999 -9999 -9999 -9999 -9999 -9999 -9999 -9999 -9999 -9999 -9999 -9999 -9999 -9999 -9999 -9999 -9999 -9999 -9999 -9999 -9999 -9999 -9999 -9999 -9999 -9999 -9999 -9999 -9999 -9999 -9999 -9999 -9999 -9999 -9999 -9999 -9999 -9999 -9999 -9999 -9999 -9999 -9999 -9999 -9999 -9999 -9999 -9999 -9999 -9999 -9999 -9999 -9999 -9999 -9999 -9999 -9999 -9999 -9999 -9999 -9999 -9999 -9999 -9999 -9999 -9999 -9999 -9999 -9999 -9999 -9999 -9999 -9999 -9999 -9999 -9999 -9999 -9999 -9999 -9999 -9999 -9999 -9999 -9999 -9999 -9999 -9999 -9999 -9999 -9999 -9999 -9999 -9999 -9999 -9999 -9999 -9999 -9999 -9999 -9999 -9999 -9999 -9999 -9999 -9999 -9999 -9999 -9999 -9999 -9999 -9999 -9999 -9999 -9999 -9999 -9999 -9999 -9999 -9999 -9999 -9999 -9999 -9999 -9999 -9999 -9999 -9999 -9999 -9999 -9999 -9999 -9999 -9999 -9999 -9999 -9999 -9999 -9999 -9999 -9999 -9999 -9999 -9999 -9999 -9999 -9999 -9999 -9999 -9999 -9999 -9999 -9999 -9999 -9999 -9999 -9999 -9999 -9999 -9999 -9999 -9999 -9999 -9999 -9999 -9999 -9999 -9999 -9999 -9999 -9999 -9999 -9999 -9999 -9999 -9999 -9999 -9999 -9999 -9999 -9999 -9999 -9999 -9999 -9999 -9999 -9999 -9999 -9999 -9999 -9999 -9999 -9999 -9999 -9999 -9999 -9999 -9999 -9999 -9999 -9999 -9999 -9999 -9999 -9999 -9999 -9999 -9999 -9999 -9999 -9999 -9999 -9999 -9999 -9999 -9999 -9999 -9999 -9999 -9999 -9999 -9999 -9999
-9999 -9999 -9999 -9999 -9999 -9999 -9999 -9999 -9999 -9999 -9999 -9999 -9999 3508 3325 3372 3403 3432 3330 3630 3738 3675 -9999 -9999 -9999 -9999 -9999 -9999 -9999 -9999 -9999 -9999 -9999 -9999 -9999 -9999 -9999 -9999 -9999 -9999 -9999 -9999 -9999 -9999 -9999 -9999 -9999 -9999 -9999 -9999 -9999 -9999 -9999 -9999 -9999 -9999 -9999 -9999 -9999 -9999 -9999 -9999 -9999 -9999 -9999 -9999 -9999 -9999 -9999 -9999 -9999 -9999 -9999 -9999 -9999 -9999 -9999 -9999 -9999 -9999 -9999 -9999 -9999 -9999 -9999 -9999 -9999 -9999 -9999 -9999 -9999 -9999 -9999 -9999 -9999 -9999 -9999 -9999 -9999 -9999 -9999 -9999 -9999 -9999 -9999 -9999 -9999 -9999 -9999 -9999 -9999 -9999 -9999 -9999 -9999 -9999 -9999 -9999 -9999 -9999 -9999 -9999 -9999 -9999 -9999 -9999 -9999 -9999 -9999 -9999 -9999 -9999 -9999 -9999 -9999 -9999 -9999 -9999 -9999 -9999 -9999 -9999 -9999 -9999 -9999 -9999 -9999 -9999 -9999 -9999 -9999 -9999 -9999 -9999 -9999 -9999 -9999 -9999 -9999 -9999 -9999 -9999 -9999 -9999 -9999 -9999 -9999 -9999 -9999 -9999 -9999 -9999 -9999 -9999 -9999 -9999 -9999 -9999 -9999 -9999 -9999 -9999 -9999 -9999 -9999 -9999 -9999 -9999 -9999 -9999 -9999 -9999 -9999 -9999 -9999 -9999 -9999 -9999 -9999 -9999 -9999 -9999 -9999 -9999 -9999 -9999 -9999 -9999 -9999 -9999 -9999 -9999 -9999 -9999 -9999 -9999 -9999 -9999 -9999 -9999 -9999 -9999 -9999 -9999 -9999 -9999 -9999 -9999 -9999 -9999 -9999 -9999 -9999 -9999 -9999 -9999 -9999 -9999 -9999 -9999 -9999 -9999 -9999 -9999 -9999 -9999 -9999 -9999 -9999 -9999 -9999 -9999 -9999 -9999 -9999 -9999 -9999 -9999 -9999 -9999 -9999 -9999 -9999 -9999 -9999 -9999 -9999 -9999 -9999 -9999 -9999 -9999 -9999 -9999 -9999 -9999 -9999 -9999 -9999 -9999 -9999 -9999 -9999 -9999 -9999 -9999 -9999 -9999 -9999 -9999 -9999 -9999 -9999 -9999 -9999 -9999 -9999 -9999 -9999 -9999 -9999 -9999 -9999 -9999 -9999 -9999 -9999 -9999
-9999 -9999 -9999 -9999 -9999 -9999 -9999 -9999 -9999 -9999 -9999 -9999 -9999 -9999 3640 3566 3741 3738 3630 -9999 -9999 -9999 -9999 -9999 -9999 -9999 -9999 -9999 -9999 -9999 -9999 -9999 -9999 -9999 -9999 -9999 -9999 -9999 -9999 -9999 -9999 -9999 -9999 -9999 -9999 -9999 -9999 -9999 -9999 -9999 -9999 -9999 -9999 -9999 -9999 -9999 -9999 -9999 -9999 -9999 -9999 -9999 -9999 -9999 -9999 -9999 -9999 -9999 -9999 -9999 -9999 -9999 -9999 -9999 -9999 -9999 -9999 -9999 -9999 -9999 -9999 -9999 -9999 -9999 -9999 -9999 -9999 -9999 -9999 -9999 -9999 -9999 -9999 -9999 -9999 -9999 -9999 -9999 -9999 -9999 -9999 -9999 -9999 -9999 -9999 -9999 -9999 -9999 -9999 -9999 -9999 -9999 -9999 -9999 -9999 -9999 -9999 -9999 -9999 -9999 -9999 -9999 -9999 -9999 -9999 -9999 -9999 -9999 -9999 -9999 -9999 -9999 -9999 -9999 -9999 -9999 -9999 -9999 -9999 -9999 -9999 -9999 -9999 -9999 -9999 -9999 -9999 -9999 -9999 -9999 -9999 -9999 -9999 -9999 -9999 -9999 -9999 -9999 -9999 -9999 -9999 -9999 -9999 -9999 -9999 -9999 -9999 -9999 -9999 -9999 -9999 -9999 -9999 -9999 -9999 -9999 -9999 -9999 -9999 -9999 -9999 -9999 -9999 -9999 -9999 -9999 -9999 -9999 -9999 -9999 -9999 -9999 -9999 -9999 -9999 -9999 -9999 -9999 -9999 -9999 -9999 -9999 -9999 -9999 -9999 -9999 -9999 -9999 -9999 -9999 -9999 -9999 -9999 -9999 -9999 -9999 -9999 -9999 -9999 -9999 -9999 -9999 -9999 -9999 -9999 -9999 -9999 -9999 -9999 -9999 -9999 -9999 -9999 -9999 -9999 -9999 -9999 -9999 -9999 -9999 -9999 -9999 -9999 -9999 -9999 -9999 -9999 -9999 -9999 -9999 -9999 -9999 -9999 -9999 -9999 -9999 -9999 -9999 -9999 -9999 -9999 -9999 -9999 -9999 -9999 -9999 -9999 -9999 -9999 -9999 -9999 -9999 -9999 -9999 -9999 -9999 -9999 -9999 -9999 -9999 -9999 -9999 -9999 -9999 -9999 -9999 -9999 -9999 -9999 -9999 -9999 -9999 -9999 -9999 -9999 -9999 -9999 -9999 -9999 -9999 -9999 -9999 -9999 -9999 -9999 -9999 -9999 -9999
