NCOLS 187 
NROWS 102 
XLLCORNER 70.1672961111005 
YLLCORNER 41.7035827966547 
CELLSIZE 0.005892565925393 
NODATA_value -9999 
-9999.000000000000000 -9999 -9999 -9999 -9999 -9999 -9999 -9999 -9999 -9999 -9999 -9999 -9999 -9999 -9999 -9999 -9999 -9999 -9999 -9999 -9999 -9999 -9999 -9999 -9999 -9999 -9999 -9999 -9999 -9999 -9999 -9999 -9999 -9999 -9999 -9999 -9999 -9999 -9999 -9999 -9999 -9999 -9999 -9999 -9999 -9999 -9999 -9999 -9999 -9999 -9999 -9999 -9999 -9999 -9999 -9999 -9999 -9999 -9999 -9999 -9999 -9999 -9999 -9999 -9999 -9999 -9999 -9999 -9999 -9999 -9999 -9999 -9999 -9999 -9999 -9999 -9999 -9999 -9999 -9999 -9999 -9999 -9999 -9999 -9999 -9999 -9999 -9999 -9999 -9999 -9999 -9999 -9999 -9999 -9999 -9999 -9999 -9999 -9999 -9999 -9999 -9999 -9999 -9999 -9999 -9999 -9999 -9999 -9999 -9999 -9999 -9999 3377 3553 3508 3494 3388 3376 -9999 -9999 -9999 -9999 -9999 -9999 -9999 -9999 -9999 -9999 -9999 -9999 -9999 -9999 -9999 -9999 -9999 -9999 -9999 -9999 -9999 -9999 -9999 -9999 -9999 -9999 -9999 -9999 -9999 -9999 -9999 -9999 -9999 -9999 -9999 -9999 -9999 -9999 -9999 -9999 -9999 -9999 -9999 -9999 -9999 -9999 -9999 -9999 -9999 -9999 -9999 -9999 -9999 -9999 -9999 -9999 -9999 -9999 -9999 -9999 -9999 -9999 -9999 -9999 -9999 -9999 -9999 -9999 -9999
-9999 -9999 -9999 -9999 -9999 -9999 -9999 -9999 -9999 -9999 -9999 -9999 -9999 -9999 -9999 -9999 -9999 -9999 -9999 -9999 -9999 -9999 -9999 -9999 -9999 -9999 -9999 -9999 -9999 -9999 -9999 -9999 -9999 -9999 -9999 -9999 -9999 -9999 -9999 -9999 -9999 -9999 -9999 -9999 -9999 -9999 -9999 -9999 -9999 -9999 -9999 -9999 -9999 -9999 -9999 -9999 -9999 -9999 -9999 -9999 -9999 -9999 -9999 -9999 -9999 -9999 -9999 -9999 -9999 -9999 -9999 -9999 -9999 -9999 -9999 -9999 -9999 -9999 -9999 -9999 -9999 -9999 -9999 -9999 -9999 -9999 -9999 -9999 -9999 -9999 -9999 -9999 -9999 -9999 -9999 -9999 -9999 -9999 -9999 -9999 -9999 -9999 -9999 -9999 -9999 -9999 -9999 -9999 -9999 -9999 3451 3302 3288 3158 3111 3131 3111 3151 3354 -9999 -9999 -9999 -9999 -9999 -9999 -9999 -9999 -9999 -9999 -9999 -9999 -9999 -9999 -9999 -9999 -9999 -9999 -9999 -9999 -9999 -9999 -9999 -9999 -9999 -9999 -9999 -9999 -9999 -9999 -9999 -9999 -9999 -9999 -9999 -9999 -9999 -9999 -9999 -9999 -9999 -9999 -9999 -9999 -9999 -9999 -9999 -9999 -9999 -9999 -9999 -9999 -9999 -9999 -9999 -9999 -9999 -9999 -9999 -9999 -9999 -9999 -9999 -9999 -9999 -9999 -9999 -9999
-9999 -9999 -9999 -9999 -9999 -9999 -9999 -9999 -9999 -9999 -9999 -9999 -9999 -9999 -9999 -9999 -9999 -9999 -9999 -9999 -9999 -9999 -9999 -9999 -9999 -9999 -9999 -9999 -9999 -9999 -9999 -9999 -9999 -9999 -9999 -9999 -9999 -9999 -9999 -9999 -9999 -9999 -9999 -9999 -9999 -9999 -9999 -9999 -9999 -9999 -9999 -9999 -9999 -9999 -9999 -9999 -9999 -9999 -9999 -9999 -9999 -9999 -9999 -9999 -9999 -9999 -9999 -9999 -9999 -9999 -9999 -9999 -9999 -9999 -9999 -9999 -9999 -9999 -9999 -9999 -9999 -9999 -9999 -9999 -9999 -9999 -9999 -9999 -9999 -9999 -9999 -9999 -9999 -9999 -9999 -9999 -9999 -9999 -9999 -9999 -9999 -9999 -9999 -9999 -9999 -9999 -9999 -9999 3251 3449 3337 3120 3095 3026 3037 3077 3111 3132 3293 3671 -9999 -9999 -9999 -9999 -9999 -9999 -9999 -9999 -9999 -9999 -9999 -9999 -9999 -9999 -9999 -9999 -9999 -9999 -9999 -9999 -9999 -9999 -9999 -9999 -9999 4086 4230 4232 3918 3849 3767 3793 3924 -9999 -9999 -9999 -9999 -9999 -9999 -9999 -9999 -9999 -9999 -9999 -9999 -9999 -9999 -9999 -9999 -9999 -9999 -9999 -9999 -9999 -9999 -9999 -9999 -9999 -9999 -9999 -9999 -9999 -9999 -9999 -9999 -9999 -9999
-9999 -9999 -9999 -9999 -9999 -9999 -9999 -9999 -9999 -9999 -9999 -9999 -9999 -9999 -9999 -9999 -9999 -9999 -9999 -9999 -9999 -9999 -9999 -9999 -9999 -9999 -9999 -9999 -9999 -9999 -9999 -9999 -9999 -9999 -9999 -9999 -9999 -9999 -9999 -9999 -9999 -9999 -9999 -9999 -9999 -9999 -9999 -9999 -9999 -9999 -9999 -9999 -9999 -9999 -9999 -9999 -9999 -9999 -9999 -9999 -9999 -9999 -9999 -9999 -9999 -9999 -9999 -9999 -9999 -9999 -9999 -9999 -9999 -9999 -9999 -9999 -9999 -9999 -9999 -9999 -9999 -9999 -9999 -9999 -9999 -9999 -9999 -9999 -9999 -9999 -9999 -9999 -9999 -9999 -9999 -9999 -9999 -9999 -9999 -9999 -9999 -9999 -9999 -9999 -9999 -9999 3556 3432 3404 3237 3117 2951 2957 3128 3099 3177 3325 3243 3249 3353 3436 3512 -9999 -9999 -9999 -9999 -9999 -9999 -9999 -9999 -9999 -9999 -9999 -9999 -9999 -9999 -9999 -9999 -9999 -9999 -9999 -9999 -9999 -9999 -9999 3768 3809 3822 3832 3689 3790 3730 3561 3668 -9999 -9999 -9999 -9999 -9999 -9999 -9999 -9999 -9999 -9999 -9999 -9999 -9999 -9999 -9999 -9999 -9999 -9999 -9999 -9999 -9999 -9999 -9999 -9999 -9999 -9999 -9999 -9999 -9999 -9999 -9999 -9999 -9999
-9999 -9999 -9999 -9999 -9999 -9999 -9999 -9999 -9999 -9999 -9999 -9999 -9999 -9999 -9999 -9999 -9999 -9999 -9999 -9999 -9999 -9999 -9999 -9999 -9999 -9999 -9999 -9999 -9999 -9999 -9999 -9999 -9999 -9999 -9999 -9999 -9999 -9999 -9999 -9999 -9999 -9999 -9999 -9999 -9999 -9999 -9999 -9999 -9999 -9999 -9999 -9999 -9999 -9999 -9999 -9999 -9999 -9999 -9999 -9999 -9999 -9999 -9999 -9999 -9999 -9999 -9999 -9999 -9999 -9999 -9999 -9999 -9999 -9999 -9999 -9999 -9999 -9999 -9999 -9999 -9999 -9999 -9999 -9999 -9999 -9999 -9999 -9999 -9999 -9999 -9999 -9999 -9999 -9999 -9999 -9999 -9999 -9999 -9999 -9999 -9999 -9999 -9999 3611 3484 3497 3446 3232 3139 2970 2856 3014 3092 3359 3205 3252 3571 3414 3319 3347 3436 3455 3526 -9999 -9999 -9999 -9999 -9999 -9999 -9999 -9999 -9999 -9999 -9999 -9999 -9999 -9999 -9999 -9999 -9999 -9999 -9999 -9999 3900 3969 3738 3643 3563 3579 3619 3565 3582 3443 3475 3612 3563 3533 3652 -9999 -9999 -9999 -9999 3799 3705 3692 -9999 -9999 -9999 -9999 -9999 -9999 -9999 -9999 -9999 -9999 -9999 -9999 -9999 -9999 -9999 -9999 -9999 -9999 -9999 -9999 -9999 -9999
-9999 -9999 -9999 -9999 -9999 -9999 -9999 -9999 -9999 -9999 -9999 -9999 -9999 -9999 -9999 -9999 -9999 -9999 -9999 -9999 -9999 -9999 -9999 -9999 -9999 -9999 -9999 -9999 -9999 -9999 -9999 -9999 -9999 -9999 -9999 -9999 -9999 -9999 -9999 -9999 -9999 -9999 -9999 -9999 -9999 -9999 -9999 -9999 -9999 -9999 -9999 -9999 -9999 -9999 -9999 -9999 -9999 -9999 -9999 -9999 -9999 -9999 -9999 -9999 -9999 -9999 -9999 -9999 -9999 -9999 -9999 -9999 -9999 -9999 -9999 -9999 -9999 -9999 -9999 -9999 -9999 -9999 -9999 -9999 -9999 -9999 -9999 -9999 -9999 -9999 -9999 -9999 -9999 -9999 -9999 -9999 -9999 -9999 -9999 -9999 -9999 -9999 3533 3218 3190 3221 3527 3322 3168 2898 2877 3075 3178 3328 3333 3300 3381 3505 3511 3716 3730 3585 3560 3725 -9999 -9999 -9999 -9999 -9999 -9999 -9999 -9999 -9999 -9999 -9999 -9999 -9999 -9999 -9999 -9999 -9999 -9999 -9999 3884 3696 3584 3640 3528 3308 3269 3430 3454 3334 3275 3339 3412 3589 3629 3720 3942 3971 3643 3549 3576 3560 -9999 -9999 -9999 -9999 -9999 -9999 -9999 -9999 -9999 -9999 -9999 -9999 -9999 -9999 -9999 -9999 -9999 -9999 -9999 -9999 -9999 -9999
-9999 -9999 -9999 -9999 -9999 -9999 -9999 -9999 -9999 -9999 -9999 -9999 -9999 -9999 -9999 -9999 -9999 -9999 -9999 -9999 -9999 -9999 -9999 -9999 -9999 -9999 -9999 -9999 -9999 -9999 -9999 -9999 -9999 -9999 -9999 -9999 -9999 -9999 -9999 -9999 -9999 -9999 -9999 -9999 -9999 -9999 -9999 -9999 -9999 -9999 -9999 -9999 -9999 -9999 -9999 -9999 -9999 -9999 -9999 -9999 -9999 -9999 -9999 -9999 -9999 -9999 -9999 -9999 -9999 -9999 -9999 -9999 -9999 -9999 -9999 -9999 -9999 -9999 -9999 -9999 -9999 -9999 -9999 -9999 -9999 -9999 -9999 -9999 -9999 -9999 -9999 -9999 -9999 -9999 -9999 -9999 -9999 -9999 -9999 -9999 3484 3366 3258 3021 2989 3194 3416 3270 3254 2953 2806 3115 3238 3332 3570 3381 3396 3412 3694 3711 3696 3640 3644 -9999 -9999 -9999 -9999 -9999 3676 3611 3817 -9999 -9999 -9999 -9999 -9999 -9999 -9999 -9999 -9999 -9999 -9999 3981 3757 3601 3541 3463 3373 3218 3295 3408 3336 3216 3250 3436 3510 3663 3673 3753 3691 3791 3844 3520 3507 3511 3642 3727 -9999 -9999 -9999 -9999 -9999 -9999 -9999 -9999 -9999 -9999 -9999 -9999 -9999 -9999 -9999 -9999 -9999 -9999 -9999 -9999
-9999 -9999 -9999 -9999 -9999 -9999 -9999 -9999 -9999 -9999 -9999 -9999 -9999 -9999 -9999 -9999 -9999 -9999 -9999 -9999 -9999 -9999 -9999 -9999 -9999 -9999 -9999 -9999 -9999 -9999 -9999 -9999 -9999 -9999 -9999 -9999 -9999 -9999 -9999 -9999 -9999 -9999 -9999 -9999 -9999 -9999 -9999 -9999 -9999 -9999 -9999 -9999 -9999 -9999 -9999 -9999 -9999 -9999 -9999 -9999 -9999 -9999 -9999 -9999 -9999 -9999 -9999 -9999 -9999 -9999 -9999 -9999 -9999 -9999 -9999 -9999 -9999 -9999 -9999 -9999 -9999 -9999 -9999 -9999 -9999 -9999 -9999 -9999 -9999 -9999 -9999 -9999 -9999 -9999 -9999 3510 3584 3464 3539 3411 3159 2999 2900 2817 2943 2993 2999 2893 3002 2853 2764 3092 3222 3544 3571 3762 3484 3487 3553 3771 3797 3874 3760 3910 3729 3628 3749 3768 3684 3625 3747 3903 4092 -9999 -9999 -9999 -9999 -9999 -9999 -9999 -9999 -9999 3691 3643 3579 3544 3443 3489 3246 3022 3135 3110 3176 3258 3431 3558 3539 3527 3620 3496 3382 3418 3350 3243 3303 3403 3508 3676 3685 -9999 -9999 -9999 -9999 -9999 -9999 -9999 -9999 -9999 -9999 -9999 -9999 -9999 -9999 -9999 -9999 -9999 -9999
-9999 -9999 -9999 -9999 -9999 -9999 -9999 -9999 -9999 -9999 -9999 -9999 -9999 -9999 -9999 -9999 -9999 -9999 -9999 -9999 -9999 -9999 -9999 -9999 -9999 -9999 -9999 -9999 -9999 -9999 -9999 -9999 -9999 -9999 -9999 -9999 -9999 -9999 -9999 -9999 -9999 -9999 -9999 -9999 -9999 -9999 -9999 -9999 -9999 -9999 -9999 -9999 -9999 -9999 -9999 -9999 -9999 -9999 -9999 -9999 -9999 -9999 -9999 -9999 -9999 -9999 -9999 -9999 -9999 -9999 -9999 -9999 -9999 -9999 -9999 -9999 -9999 -9999 -9999 -9999 -9999 -9999 -9999 -9999 -9999 -9999 -9999 -9999 -9999 -9999 -9999 -9999 -9999 3479 3396 3256 3550 3310 3069 3002 2817 2678 2665 2624 2625 2647 2667 2687 2670 2713 2976 3044 3064 3194 3393 3548 3617 3690 3772 3739 3762 3730 3607 3491 3486 3489 3516 3514 3541 3556 3711 3871 3692 3699 3668 3754 3644 3597 -9999 -9999 3598 3664 3609 3607 3485 3294 3194 3253 3169 2874 3127 3243 3307 3521 3369 3325 3113 3097 3189 3070 3048 2918 2847 2845 2851 2952 3045 3260 3384 3621 -9999 -9999 -9999 -9999 -9999 -9999 -9999 -9999 -9999 -9999 -9999 -9999 -9999 -9999 -9999 -9999 -9999
-9999 -9999 -9999 -9999 -9999 -9999 -9999 -9999 -9999 -9999 -9999 -9999 -9999 -9999 -9999 -9999 -9999 -9999 -9999 -9999 -9999 -9999 -9999 -9999 -9999 -9999 -9999 -9999 -9999 -9999 -9999 -9999 -9999 -9999 -9999 -9999 -9999 -9999 -9999 -9999 -9999 -9999 -9999 -9999 -9999 -9999 -9999 -9999 -9999 -9999 -9999 -9999 -9999 -9999 -9999 -9999 -9999 -9999 -9999 -9999 -9999 -9999 -9999 -9999 -9999 -9999 -9999 -9999 -9999 -9999 -9999 -9999 -9999 -9999 -9999 -9999 -9999 -9999 -9999 -9999 -9999 -9999 -9999 -9999 -9999 -9999 -9999 -9999 -9999 -9999 -9999 -9999 3240 3305 2983 2889 2952 2806 2703 2616 2555 2587 2636 2667 2694 2745 2754 2701 2715 2734 2702 2706 2751 2849 3009 3339 3416 3383 3419 3472 3402 3346 3278 3304 3368 3386 3381 3435 3415 3411 3478 3367 3495 3586 3584 3449 3369 3350 3394 3584 3453 3291 3341 3222 3339 3417 3090 2946 2813 2854 3216 3208 3173 3186 3022 2953 2812 2785 2729 2699 2683 2713 2898 2964 2987 2854 2845 2867 2963 3220 3567 3768 -9999 -9999 -9999 -9999 -9999 -9999 -9999 -9999 -9999 -9999 -9999 -9999 -9999 -9999 -9999
-9999 -9999 -9999 -9999 -9999 -9999 -9999 -9999 -9999 -9999 -9999 -9999 -9999 -9999 -9999 -9999 -9999 -9999 -9999 -9999 -9999 -9999 -9999 -9999 -9999 -9999 -9999 -9999 -9999 -9999 -9999 -9999 -9999 -9999 -9999 -9999 -9999 -9999 -9999 -9999 -9999 -9999 -9999 -9999 -9999 -9999 -9999 -9999 -9999 -9999 -9999 -9999 -9999 -9999 -9999 -9999 -9999 -9999 -9999 -9999 -9999 -9999 -9999 -9999 -9999 -9999 -9999 -9999 -9999 -9999 -9999 -9999 -9999 -9999 -9999 -9999 -9999 -9999 -9999 -9999 -9999 -9999 -9999 -9999 -9999 -9999 -9999 -9999 3197 3358 3367 3482 3223 2906 2671 2685 2592 2503 2534 2587 2699 2777 2906 2814 2836 3068 3166 2977 3060 3147 2982 2769 2825 2848 2749 2912 2971 2983 3022 3075 3144 3189 3294 3311 3516 3671 3556 3511 3578 3621 3451 3088 3090 3174 3270 3462 3166 2971 2998 3298 3084 2927 2893 3056 3288 3311 2975 2860 2643 2759 2742 2724 2647 2603 2583 2585 2618 2668 2768 3002 3153 3092 3402 3385 3584 3291 3246 2896 2850 2958 3205 3568 3789 -9999 -9999 -9999 -9999 -9999 -9999 -9999 -9999 -9999 -9999 -9999 -9999 -9999 -9999
-9999 -9999 -9999 -9999 -9999 -9999 -9999 -9999 -9999 -9999 -9999 -9999 -9999 -9999 -9999 -9999 -9999 -9999 -9999 -9999 -9999 -9999 -9999 -9999 -9999 -9999 -9999 -9999 -9999 -9999 -9999 -9999 -9999 -9999 -9999 -9999 -9999 -9999 -9999 -9999 -9999 -9999 -9999 -9999 -9999 -9999 -9999 -9999 -9999 -9999 -9999 -9999 -9999 -9999 -9999 -9999 -9999 -9999 -9999 -9999 -9999 -9999 -9999 -9999 -9999 -9999 -9999 -9999 -9999 -9999 -9999 -9999 -9999 -9999 -9999 -9999 -9999 -9999 -9999 -9999 -9999 -9999 -9999 -9999 -9999 -9999 -9999 3162 3223 3122 3156 3140 3102 2865 2687 2552 2476 2531 2606 2776 2856 2950 2933 2851 2863 3187 3339 3125 3160 3377 3119 2816 2913 3042 2799 2826 2902 2916 2967 3044 3225 3335 3539 3400 3451 3615 3662 3604 3640 3723 3552 3148 2907 3048 3163 3428 3178 2852 2857 3050 2924 2763 2887 3082 3116 3033 2792 2680 2528 2534 2539 2539 2546 2577 2626 2683 2765 2751 3019 3112 3321 3353 3383 3417 3500 3373 3379 2985 2887 2909 3125 3518 3752 3866 4174 3971 4039 -9999 -9999 -9999 -9999 -9999 -9999 -9999 -9999 -9999 -9999
-9999 -9999 -9999 -9999 -9999 -9999 -9999 -9999 -9999 -9999 -9999 -9999 -9999 -9999 -9999 -9999 -9999 -9999 -9999 -9999 -9999 -9999 -9999 -9999 -9999 -9999 -9999 -9999 -9999 -9999 -9999 -9999 -9999 -9999 -9999 -9999 -9999 -9999 -9999 -9999 -9999 -9999 -9999 -9999 -9999 -9999 -9999 -9999 -9999 -9999 -9999 -9999 -9999 -9999 -9999 -9999 -9999 -9999 -9999 -9999 -9999 -9999 -9999 -9999 -9999 -9999 -9999 -9999 -9999 -9999 -9999 -9999 -9999 -9999 -9999 -9999 -9999 -9999 -9999 -9999 -9999 -9999 -9999 -9999 -9999 3239 3117 3192 2957 2774 2845 2755 2894 2837 2512 2457 2580 2791 2712 2653 2834 3076 3258 3033 2950 3117 3496 3471 3368 3408 3133 2885 3004 3105 2968 3152 3147 3186 3357 3190 3201 3257 3474 3601 3593 3620 3722 3533 3473 3443 3402 3219 2892 2815 2897 3161 3258 2858 2667 2709 2607 2549 2569 2609 2568 2501 2463 2493 2521 2607 2779 2795 2888 2872 2972 2952 3144 3009 3137 3488 3504 3522 3448 3660 3613 3532 3295 3242 3339 2978 2938 3212 3461 3663 3821 3882 -9999 -9999 -9999 -9999 -9999 -9999 -9999 -9999 -9999 -9999 -9999
-9999 -9999 -9999 -9999 -9999 -9999 -9999 -9999 -9999 -9999 -9999 -9999 -9999 -9999 -9999 -9999 -9999 -9999 -9999 -9999 -9999 -9999 -9999 -9999 -9999 -9999 -9999 -9999 -9999 -9999 -9999 -9999 -9999 -9999 -9999 -9999 -9999 -9999 -9999 -9999 -9999 -9999 -9999 -9999 -9999 -9999 -9999 -9999 -9999 -9999 -9999 -9999 -9999 -9999 -9999 -9999 -9999 -9999 -9999 -9999 -9999 -9999 -9999 -9999 -9999 -9999 -9999 -9999 -9999 -9999 -9999 -9999 -9999 -9999 -9999 -9999 -9999 -9999 -9999 -9999 -9999 -9999 -9999 -9999 3450 3195 3105 2976 3129 2932 2638 2531 2560 2450 2530 2636 2758 3100 2865 2796 2935 3287 3567 3366 3172 3034 3355 3683 3638 3302 3078 3020 3130 3249 3248 3437 3362 3534 3630 3415 3390 3429 3429 3631 3840 3928 3866 3608 3372 3222 3027 2899 2804 2605 2741 2794 2788 2676 2607 2430 2363 2406 2417 2437 2488 2544 2682 2740 2770 2581 2788 2910 3214 3195 3353 3237 3357 3302 3249 3412 3492 3786 3797 3828 3653 3576 3372 3369 3601 3254 2933 2982 3273 3448 3698 3935 4081 -9999 -9999 -9999 4117 4051 4052 -9999 -9999 -9999 -9999
-9999 -9999 -9999 -9999 -9999 -9999 -9999 -9999 -9999 -9999 -9999 -9999 -9999 -9999 -9999 -9999 -9999 -9999 -9999 -9999 -9999 -9999 -9999 -9999 -9999 -9999 -9999 -9999 -9999 -9999 -9999 -9999 -9999 -9999 -9999 -9999 -9999 -9999 -9999 -9999 -9999 -9999 -9999 -9999 -9999 -9999 -9999 -9999 -9999 -9999 -9999 -9999 -9999 -9999 -9999 -9999 -9999 -9999 -9999 -9999 -9999 -9999 -9999 -9999 -9999 -9999 -9999 -9999 -9999 -9999 -9999 -9999 -9999 -9999 -9999 -9999 -9999 -9999 -9999 -9999 -9999 -9999 -9999 3399 3404 3152 3095 2906 2657 2789 2483 2425 2480 2718 2825 2924 3066 3105 3102 2992 2993 3213 3692 3586 3426 3227 3479 3887 3926 3357 3320 3634 3898 3665 3392 3603 3537 3530 3912 3624 3534 3524 3792 3695 3556 3471 3280 3143 2944 2861 2638 2595 2513 2448 2527 2452 2385 2331 2335 2379 2404 2485 2464 2439 2662 2992 3200 3286 3235 2915 2759 2715 2753 2984 3252 3365 3522 3674 3547 3423 3501 3569 3699 4095 4028 3796 3393 3423 3569 3501 3136 2937 3103 3225 3461 3633 3817 3861 3968 4020 3947 3910 4046 -9999 -9999 -9999 -9999
-9999 -9999 -9999 -9999 -9999 -9999 -9999 -9999 -9999 -9999 -9999 -9999 -9999 -9999 -9999 -9999 -9999 -9999 -9999 -9999 -9999 -9999 -9999 -9999 -9999 -9999 -9999 -9999 -9999 -9999 -9999 -9999 -9999 -9999 -9999 -9999 -9999 -9999 -9999 -9999 -9999 -9999 -9999 -9999 -9999 -9999 -9999 -9999 -9999 -9999 -9999 -9999 -9999 -9999 -9999 -9999 -9999 -9999 -9999 -9999 -9999 -9999 -9999 -9999 -9999 -9999 -9999 -9999 -9999 -9999 -9999 -9999 -9999 -9999 -9999 -9999 -9999 -9999 -9999 -9999 -9999 -9999 -9999 3496 3213 2931 2834 2787 2638 2594 2409 2427 2648 2590 2859 3018 3195 3190 3183 3118 3059 3285 3719 3471 3394 3312 3407 4012 4095 3529 3389 3666 3755 3529 3448 3700 3582 3604 3722 3656 3574 3557 3780 3603 3486 3349 3039 2936 2797 2727 2554 2462 2395 2378 2350 2317 2333 2361 2372 2440 2558 2723 2710 2542 2502 2777 3075 3192 3268 3221 2982 2886 2825 2786 3005 3165 3288 3543 3705 3506 3569 3617 3663 3987 3930 3727 3439 3435 3537 3795 3360 2990 3002 3104 3242 3410 3646 3692 3773 3835 3815 3880 3971 4166 -9999 -9999 -9999
-9999 -9999 -9999 -9999 -9999 -9999 -9999 -9999 -9999 -9999 -9999 -9999 -9999 -9999 -9999 -9999 -9999 -9999 -9999 -9999 -9999 -9999 -9999 -9999 -9999 -9999 -9999 -9999 -9999 -9999 -9999 -9999 -9999 -9999 -9999 -9999 -9999 -9999 -9999 -9999 -9999 -9999 -9999 -9999 -9999 -9999 -9999 -9999 -9999 -9999 -9999 -9999 -9999 -9999 -9999 -9999 -9999 -9999 -9999 -9999 -9999 -9999 -9999 -9999 -9999 -9999 -9999 -9999 -9999 -9999 -9999 -9999 -9999 -9999 -9999 -9999 -9999 -9999 -9999 -9999 -9999 -9999 3371 3266 3056 2857 2841 2485 2389 2402 2495 2611 2806 2898 2950 3063 3142 3418 3522 3450 3431 3398 3624 4095 3897 3643 4075 3791 3735 3605 3507 3695 3673 3596 3532 3577 3738 3902 3897 3766 3778 3790 3631 3337 3123 2954 2748 2623 2544 2460 2339 2305 2314 2317 2333 2394 2434 2518 2585 2661 2777 2818 3030 2950 2810 2613 2677 2715 2935 3146 3428 3305 3250 3035 2880 2902 3165 3374 3627 3821 3808 3857 3758 3812 3714 3606 3511 3485 3535 3896 3508 3191 2978 2996 3368 3563 3496 3495 3602 3694 3779 3826 3921 4245 4262 -9999 -9999
-9999 -9999 -9999 -9999 -9999 -9999 -9999 -9999 -9999 -9999 -9999 -9999 -9999 -9999 -9999 -9999 -9999 -9999 -9999 -9999 -9999 -9999 -9999 -9999 -9999 -9999 -9999 -9999 -9999 -9999 -9999 -9999 -9999 -9999 -9999 -9999 -9999 -9999 -9999 -9999 -9999 -9999 -9999 -9999 -9999 -9999 -9999 -9999 -9999 -9999 -9999 -9999 -9999 -9999 -9999 -9999 -9999 -9999 -9999 -9999 -9999 -9999 -9999 -9999 -9999 -9999 -9999 -9999 -9999 -9999 -9999 -9999 -9999 3486 3409 3494 -9999 -9999 -9999 3417 3466 3531 3479 3170 3004 2733 2573 2397 2446 2595 2650 2832 3065 3166 3099 3233 3340 3640 3934 3866 3910 3752 3921 3913 4059 3724 3600 3500 3490 3536 3893 3855 3772 3682 3605 3637 3810 3677 3514 3462 3339 3369 3421 3031 2797 2699 2532 2398 2277 2249 2298 2434 2415 2448 2419 2505 2561 2624 2739 2824 2949 2929 2951 3155 3314 3083 2985 2893 2713 3016 3337 3560 3596 3469 3279 3177 3079 3110 3424 3763 3867 4129 4137 3891 3917 3638 3777 3618 3609 3835 3688 3379 3016 2995 3280 3598 3729 3862 3791 3787 4027 4110 4136 3991 4030 3998 -9999
-9999 -9999 -9999 -9999 -9999 -9999 -9999 -9999 -9999 -9999 -9999 -9999 -9999 -9999 -9999 -9999 -9999 -9999 -9999 -9999 -9999 -9999 -9999 -9999 -9999 -9999 -9999 -9999 -9999 -9999 -9999 -9999 -9999 -9999 -9999 -9999 -9999 -9999 -9999 -9999 -9999 -9999 -9999 -9999 -9999 -9999 -9999 -9999 -9999 -9999 -9999 -9999 -9999 -9999 -9999 -9999 -9999 -9999 -9999 -9999 -9999 -9999 -9999 -9999 -9999 -9999 -9999 -9999 -9999 3510 3391 3234 3167 3165 3075 3142 3174 3258 3267 3284 3381 3245 3229 3103 2781 2490 2410 2552 2769 2726 2696 2851 3141 3327 3277 3319 3555 3665 3780 4017 3921 3934 4039 3637 3566 3450 3308 3188 3036 3071 3473 3616 3788 3734 3693 3712 3628 3554 3517 3277 3060 3232 3101 2785 2517 2469 2257 2231 2382 2501 2607 2590 2562 2566 2547 2630 2697 2840 2857 2920 3117 3180 3120 3261 3366 3593 3331 3201 2891 2768 3007 3183 3402 3667 3475 3345 3226 3126 3128 3402 3563 3764 4127 3929 3786 3748 3787 3726 3734 3909 3654 3461 3097 3022 3177 3435 3557 3641 3818 3726 3687 3683 3723 3782 3867 3872 3976
-9999 -9999 -9999 -9999 -9999 -9999 -9999 -9999 -9999 -9999 -9999 -9999 -9999 -9999 -9999 -9999 -9999 -9999 -9999 -9999 -9999 -9999 -9999 -9999 -9999 -9999 -9999 -9999 -9999 -9999 -9999 -9999 -9999 -9999 -9999 -9999 -9999 -9999 -9999 -9999 -9999 -9999 -9999 -9999 -9999 -9999 -9999 -9999 -9999 -9999 -9999 -9999 -9999 -9999 -9999 -9999 -9999 -9999 -9999 -9999 -9999 -9999 -9999 -9999 -9999 -9999 3498 3492 3455 3406 3290 3215 3103 3058 2991 2960 3034 3191 3246 3359 3214 3003 2997 3054 2713 2442 2370 2622 2718 2815 2814 2785 3008 3320 3346 3380 3468 3628 3958 4121 3980 4069 3908 3730 3589 3506 3542 3335 3052 2913 3187 3344 3518 3789 3696 3552 3610 3496 3278 3241 2900 2928 2887 2585 2375 2319 2220 2305 2531 2615 2694 2662 2642 2613 2608 2737 2823 2934 2944 2972 3159 3238 3240 3317 3549 3678 3417 3277 3145 2842 2867 3012 3313 3584 3445 3376 3445 3262 3101 3223 3407 3675 4051 4059 3906 3815 3813 3779 3775 3820 3736 3438 3112 3041 3135 3294 3410 3453 3636 3567 3546 3570 3672 3736 3869 -9999 -9999
-9999 -9999 -9999 -9999 -9999 -9999 -9999 -9999 -9999 -9999 -9999 -9999 -9999 -9999 -9999 -9999 -9999 -9999 -9999 -9999 -9999 -9999 -9999 -9999 -9999 -9999 -9999 -9999 -9999 -9999 -9999 -9999 -9999 -9999 -9999 -9999 -9999 -9999 -9999 -9999 -9999 -9999 -9999 -9999 -9999 -9999 -9999 -9999 -9999 -9999 -9999 -9999 -9999 -9999 -9999 -9999 -9999 -9999 -9999 -9999 -9999 -9999 -9999 -9999 -9999 3733 3804 3559 3441 3409 3309 3297 3176 3167 2962 2945 3255 3311 3418 3139 2915 2780 2654 2633 2684 2341 2403 2482 2586 2626 2784 2949 2988 3208 3558 3591 3590 3974 3931 3909 3759 3697 3854 3705 3654 3604 3650 3559 3324 2726 2773 2923 3049 3455 3544 3200 3312 3473 3287 2823 2582 2458 2578 2270 2221 2253 2376 2555 2632 2705 2824 2831 2753 2766 2763 2829 2980 3141 3172 3243 3138 3436 3334 3600 3502 3793 3498 3664 3366 2999 2837 2933 3307 3501 3744 3881 3520 3598 3298 3125 3176 3455 3654 3974 4100 4195 4182 3877 3658 3474 3428 3180 3127 3180 3293 3307 3291 3267 3317 3595 3750 3779 3896 3991 4018 -9999 -9999
-9999 -9999 -9999 -9999 -9999 -9999 -9999 -9999 -9999 -9999 -9999 -9999 -9999 -9999 -9999 -9999 -9999 -9999 -9999 -9999 -9999 -9999 -9999 -9999 -9999 -9999 -9999 -9999 -9999 -9999 -9999 -9999 -9999 -9999 -9999 -9999 -9999 -9999 -9999 -9999 -9999 -9999 -9999 -9999 -9999 -9999 -9999 -9999 -9999 -9999 -9999 -9999 -9999 -9999 -9999 -9999 -9999 -9999 -9999 -9999 -9999 -9999 -9999 -9999 -9999 3869 3749 3709 3669 3627 3452 3446 3382 3294 2971 2830 3017 3133 3235 3302 3036 2880 2752 2505 2320 2320 2369 2700 2949 2857 2749 2816 2948 3136 3361 3496 3781 4015 3785 3767 3623 3431 3456 3594 3735 3658 3576 3259 3106 2936 2622 2560 2568 2724 2951 2875 3122 3325 3135 2873 2643 2451 2233 2225 2288 2401 2355 2633 2684 2702 2820 2903 2908 2901 2885 3061 3206 3341 3436 3447 3555 3480 3692 3751 3854 3998 3740 3627 3364 3276 2980 2899 3158 3366 3619 3760 3804 3552 3584 3282 3184 3321 3648 4155 4081 4054 3743 3492 3402 3368 3304 3173 3318 3419 3599 3801 3641 3447 3343 3466 3730 3834 4118 4158 -9999 -9999 -9999
-9999 -9999 -9999 -9999 -9999 -9999 -9999 -9999 -9999 -9999 -9999 -9999 -9999 -9999 -9999 -9999 -9999 -9999 -9999 -9999 -9999 -9999 -9999 -9999 -9999 -9999 -9999 -9999 -9999 -9999 -9999 -9999 -9999 -9999 -9999 -9999 -9999 -9999 -9999 -9999 -9999 -9999 -9999 -9999 -9999 -9999 -9999 -9999 -9999 -9999 -9999 -9999 -9999 -9999 -9999 -9999 -9999 -9999 -9999 -9999 -9999 -9999 -9999 -9999 3902 3879 3838 3669 3435 3419 3419 3455 3109 3000 2728 2584 2635 2759 2823 3150 3061 2891 2712 2376 2295 2451 2562 2693 3040 3279 3035 3034 3214 3382 3372 3394 3520 3700 3746 3902 3905 3845 3232 3086 3130 3350 3366 3581 3439 3137 2801 2687 2550 2365 2503 2745 3095 2990 2689 2441 2244 2165 2203 2343 2534 2609 2496 2397 2478 2532 2609 2698 2837 3091 3188 3233 3348 3462 3513 3627 3699 3547 3577 3801 4099 3799 3667 3619 3536 3487 3179 3039 3010 3343 3660 3805 4066 3819 3695 3381 3352 3264 3727 4106 4086 3732 3593 3388 3437 3544 3387 3245 3515 3673 3876 3770 3651 3653 3657 3396 3587 3618 3749 3742 3816 -9999 -9999
-9999 -9999 -9999 -9999 -9999 -9999 -9999 -9999 -9999 -9999 -9999 -9999 -9999 -9999 -9999 -9999 -9999 -9999 -9999 -9999 -9999 -9999 -9999 -9999 -9999 -9999 -9999 -9999 -9999 -9999 -9999 -9999 -9999 -9999 -9999 -9999 -9999 -9999 -9999 -9999 -9999 -9999 -9999 -9999 -9999 -9999 -9999 -9999 -9999 -9999 -9999 -9999 -9999 -9999 -9999 -9999 -9999 -9999 -9999 -9999 -9999 -9999 -9999 -9999 3755 3670 3687 3575 3441 3347 3183 3035 2952 3054 3048 2743 2476 2500 2633 2941 2791 2491 2395 2246 2465 2764 2996 3112 3055 3266 3147 3185 3431 3587 3566 3617 3931 4062 4035 4146 3879 3562 3185 2921 2843 2884 3123 3261 3340 3269 3082 2961 2903 2555 2219 2423 2530 2468 2292 2157 2189 2201 2332 2492 2576 2620 2747 2782 2813 2766 3016 3100 3069 2901 2861 3000 3220 3576 3652 3685 3867 3638 3655 3727 3884 4043 3878 3755 3682 3562 3255 3093 2997 3296 3555 3665 3993 3685 3553 3698 3475 3267 3528 3687 3710 3893 3596 3428 3498 3853 3532 3255 3441 3605 3777 4021 4152 4069 3793 3603 3544 3582 3837 -9999 3993 -9999 -9999
-9999 -9999 -9999 -9999 -9999 -9999 -9999 -9999 -9999 -9999 -9999 -9999 -9999 -9999 -9999 -9999 -9999 -9999 -9999 -9999 -9999 -9999 -9999 -9999 -9999 -9999 -9999 -9999 -9999 -9999 -9999 -9999 -9999 -9999 -9999 -9999 -9999 -9999 -9999 -9999 -9999 -9999 -9999 -9999 -9999 -9999 -9999 -9999 -9999 -9999 -9999 -9999 -9999 -9999 -9999 -9999 -9999 -9999 -9999 -9999 -9999 -9999 -9999 -9999 3725 3690 3480 3432 3343 3286 3188 3111 3119 3177 3051 2754 2520 2390 2484 2785 2657 2397 2301 2280 2517 2732 2833 3015 3316 3209 3197 3261 3489 3793 3812 3783 4000 3895 3816 3958 3851 3573 3278 2922 2827 2806 3054 3175 3353 3330 3075 3054 3048 2727 2430 2217 2308 2259 2147 2178 2224 2399 2404 2597 2699 2731 2835 2899 2974 2925 3069 3162 3410 3112 2991 2921 3123 3429 3477 3557 3852 4025 3984 3985 3846 4028 3781 3706 3636 3544 3226 3085 3066 3318 3499 3678 3991 3656 3638 3653 3497 3284 3437 3582 3703 3861 3660 3455 3507 3832 3606 3296 3343 3532 3700 4052 4016 3864 3807 3699 3628 3648 3696 -9999 -9999 -9999 -9999
-9999 -9999 -9999 -9999 -9999 -9999 -9999 -9999 -9999 -9999 -9999 -9999 -9999 -9999 -9999 -9999 -9999 -9999 -9999 -9999 -9999 -9999 -9999 -9999 -9999 -9999 -9999 -9999 -9999 -9999 -9999 -9999 -9999 -9999 -9999 -9999 -9999 -9999 -9999 -9999 -9999 -9999 -9999 -9999 -9999 -9999 -9999 -9999 -9999 -9999 -9999 -9999 -9999 -9999 -9999 -9999 -9999 -9999 -9999 -9999 -9999 3917 3906 3862 3679 3585 3469 3357 3337 3471 3340 3340 3194 3159 2943 2807 2589 2288 2258 2354 2385 2200 2217 2354 2531 2682 2706 2842 3204 3388 3293 3321 3407 3567 3748 3914 3703 3636 3635 3678 3502 3444 3135 2883 2775 2644 2808 2893 3063 3027 2806 2643 2583 2427 2217 2145 2134 2156 2198 2167 2343 2482 2624 2601 2698 2794 2979 3095 3091 3028 3299 3194 3186 3644 3565 3173 3066 3311 3434 3587 3826 4098 4176 4129 4191 4054 3745 3705 3508 3400 3195 3090 3206 3451 3562 3791 3820 3777 4160 3852 3694 3340 3375 3608 3745 4027 3781 3499 3496 3766 3721 3506 3310 3364 3546 3705 3894 4070 4129 3913 3748 3732 -9999 -9999 -9999 -9999 -9999
-9999 -9999 -9999 -9999 -9999 -9999 -9999 -9999 -9999 -9999 -9999 -9999 -9999 -9999 -9999 -9999 -9999 -9999 -9999 -9999 -9999 -9999 -9999 -9999 -9999 -9999 -9999 -9999 -9999 -9999 -9999 -9999 -9999 -9999 -9999 -9999 -9999 -9999 -9999 -9999 -9999 -9999 -9999 -9999 -9999 -9999 -9999 -9999 -9999 -9999 -9999 -9999 -9999 -9999 -9999 -9999 -9999 -9999 -9999 -9999 3857 3770 3789 3866 3652 3613 3511 3549 3428 3337 3216 2960 2769 2703 2548 2425 2307 2339 2381 2160 2200 2287 2376 2536 2722 2996 3073 3234 3372 3485 3469 3591 3576 3562 3781 3904 3819 3625 3327 3306 3475 3201 3322 2964 2827 2507 2435 2530 2660 2553 2464 2348 2290 2139 2126 2133 2183 2249 2361 2364 2360 2501 2725 2941 3017 3088 3154 3401 3337 3246 3461 3571 3267 3379 3571 3407 3137 3194 3247 3498 3573 3696 3788 3976 4030 3890 3875 3747 3634 3600 3303 3155 3160 3524 3857 4120 4209 4023 3729 3541 3462 3332 3416 3761 3964 4088 3855 3613 3619 3668 3710 3561 3413 3388 3487 3569 3626 3673 3945 -9999 -9999 -9999 -9999 -9999 -9999 -9999 -9999
-9999 -9999 -9999 -9999 -9999 -9999 -9999 -9999 -9999 -9999 -9999 -9999 -9999 -9999 -9999 -9999 -9999 -9999 -9999 -9999 -9999 -9999 -9999 -9999 -9999 -9999 -9999 -9999 -9999 -9999 -9999 -9999 -9999 -9999 -9999 -9999 -9999 -9999 -9999 -9999 -9999 -9999 -9999 -9999 -9999 -9999 -9999 -9999 -9999 -9999 -9999 -9999 -9999 -9999 -9999 3768 3774 3788 3806 3946 3839 3663 3550 3509 3637 3457 3191 3172 2974 2919 2764 2590 2500 2451 2408 2397 2428 2157 2147 2219 2521 2600 2702 2837 3012 2971 3071 3197 3309 3421 3585 3713 3776 3749 3865 3749 3679 3653 3496 3335 2975 2896 2843 2865 2724 2623 2400 2189 2184 2144 2118 2120 2133 2245 2377 2418 2391 2446 2586 2245 2367 2519 2776 2960 3139 3236 3359 3440 3431 3494 3548 3682 3424 3407 3447 3690 3400 3230 3260 3311 3448 3476 3574 3692 3703 3764 3995 3866 3666 3574 3329 3230 3150 3374 3755 3995 3893 3684 3607 3581 3528 3389 3536 3842 3985 3845 3782 3679 3684 3782 3737 -9999 3692 -9999 -9999 3798 3697 3702 3749 3894 -9999 -9999 -9999 -9999 -9999 -9999 -9999
-9999 -9999 -9999 -9999 -9999 -9999 -9999 -9999 -9999 -9999 -9999 -9999 -9999 -9999 -9999 -9999 -9999 -9999 -9999 -9999 -9999 -9999 -9999 -9999 -9999 -9999 -9999 -9999 -9999 -9999 -9999 -9999 -9999 -9999 -9999 -9999 -9999 -9999 -9999 -9999 -9999 -9999 -9999 -9999 -9999 -9999 -9999 -9999 -9999 -9999 -9999 -9999 -9999 -9999 3945 3749 3715 3707 3784 3798 3661 3604 3414 3334 3434 3315 3125 2976 2817 2740 2606 2510 2479 2512 2570 2619 2631 2185 2142 2361 2617 2740 2871 2976 3025 2912 3001 3081 3187 3375 3515 3571 3606 3701 3567 3536 3592 3668 3546 3377 3056 2715 2645 2807 2645 2447 2270 2168 2123 2104 2184 2263 2320 2390 2570 2590 2568 2612 2423 2209 2278 2403 2702 2949 3179 3261 3373 3435 3562 3603 3763 3771 3520 3446 3456 3728 3462 3288 3283 3331 3506 3528 3529 3627 3681 3813 3906 3783 3559 3446 3351 3297 3143 3315 3658 3720 3871 3826 3663 3588 3545 3428 3547 3905 4088 3960 3871 3721 3716 -9999 -9999 -9999 -9999 -9999 -9999 -9999 3820 3784 -9999 -9999 -9999 -9999 -9999 -9999 -9999 -9999 -9999
-9999 -9999 -9999 -9999 -9999 -9999 -9999 -9999 -9999 -9999 -9999 -9999 -9999 -9999 -9999 -9999 -9999 -9999 -9999 -9999 -9999 -9999 -9999 -9999 -9999 -9999 -9999 -9999 -9999 -9999 -9999 -9999 -9999 -9999 -9999 -9999 -9999 -9999 -9999 -9999 -9999 -9999 -9999 -9999 -9999 -9999 -9999 -9999 -9999 -9999 -9999 3959 4002 3927 3929 3663 3596 3522 3420 3446 3537 3455 3271 3046 2996 2935 2818 2724 2671 2639 2698 2783 2896 2969 3145 2939 2494 2266 2176 2201 2739 2833 2931 2803 2798 2709 2805 2991 3205 3261 3376 3415 3518 3511 3324 3138 3127 3151 3011 3121 2997 2685 2416 2545 2409 2220 2097 2107 2176 2360 2658 2682 2800 2967 2848 2767 2457 2362 2230 2430 2636 2702 2501 2499 2814 2924 3066 3143 3183 3322 3450 3718 3786 3649 3640 3950 3684 3374 3386 3383 3435 3816 3733 3929 4045 3918 4055 4145 4128 3940 3626 3522 3243 3217 3594 3610 3936 3826 3807 3882 3995 3536 3515 3769 3895 -9999 -9999 3839 -9999 -9999 -9999 -9999 -9999 -9999 -9999 -9999 -9999 -9999 -9999 -9999 -9999 -9999 -9999 -9999 -9999 -9999 -9999
-9999 -9999 -9999 -9999 -9999 -9999 -9999 -9999 -9999 -9999 -9999 -9999 -9999 -9999 -9999 -9999 -9999 -9999 -9999 -9999 -9999 -9999 -9999 -9999 -9999 -9999 -9999 -9999 -9999 -9999 -9999 -9999 -9999 -9999 -9999 -9999 -9999 -9999 -9999 -9999 -9999 -9999 -9999 -9999 -9999 -9999 -9999 -9999 -9999 -9999 3871 3697 3651 3632 3527 3535 3478 3397 3226 3092 3069 3077 2948 2851 2830 2828 2804 2792 3088 3068 3033 3261 3272 3357 3232 2914 2793 2314 2195 2088 2329 2634 2699 2607 2510 2757 2888 3247 3281 3479 3408 3435 3318 3027 3051 3017 2830 2711 2769 2568 2685 2487 2269 2251 2159 2087 2148 2415 2577 2694 3284 3367 3226 2885 2648 2485 2335 2277 2498 2720 2890 2991 2849 2587 2378 2362 2667 2736 2963 3001 3272 3339 3498 3871 3758 3838 4004 3667 3574 3683 3475 3532 3575 3789 4016 3948 4008 3885 3770 3747 3700 3617 3319 3236 3520 3669 4144 4031 4090 3880 3821 3710 3582 3609 -9999 -9999 -9999 -9999 -9999 -9999 -9999 -9999 -9999 -9999 -9999 -9999 -9999 -9999 -9999 -9999 -9999 -9999 -9999 -9999 -9999 -9999 -9999
-9999 -9999 -9999 -9999 -9999 -9999 -9999 -9999 -9999 -9999 -9999 -9999 -9999 -9999 -9999 -9999 -9999 -9999 -9999 -9999 -9999 -9999 -9999 -9999 -9999 -9999 -9999 -9999 -9999 -9999 -9999 -9999 -9999 -9999 -9999 -9999 -9999 -9999 -9999 -9999 -9999 -9999 -9999 -9999 -9999 -9999 -9999 -9999 -9999 -9999 3763 3659 3560 3465 3296 3230 3200 3097 3062 3099 3051 2958 2890 3015 3175 3039 3140 3034 3413 3355 3387 3431 3602 3525 3296 3162 2851 2518 2310 2051 2431 2527 2355 2404 2740 2782 2892 3204 3431 3140 2933 2951 2840 2827 2500 2549 2757 2487 2370 2392 2226 2165 2143 2095 2080 2275 2396 2802 2968 3354 3493 3307 3144 2750 2488 2299 2538 2514 2302 2471 2675 2780 3032 2960 2894 2687 2626 2597 2491 2625 2861 3249 3415 3770 3970 4008 4032 3877 3749 3677 3681 3675 3690 3992 4144 3837 3768 3767 3872 3760 3496 3397 3255 3273 3434 3600 3770 3748 3837 3989 4007 3749 3662 3770 -9999 -9999 -9999 -9999 -9999 -9999 -9999 -9999 -9999 -9999 -9999 -9999 -9999 -9999 -9999 -9999 -9999 -9999 -9999 -9999 -9999 -9999 -9999
-9999 -9999 -9999 -9999 -9999 -9999 -9999 -9999 -9999 -9999 -9999 -9999 -9999 -9999 -9999 -9999 -9999 -9999 -9999 -9999 -9999 -9999 -9999 -9999 -9999 -9999 -9999 -9999 -9999 -9999 -9999 -9999 -9999 -9999 -9999 -9999 -9999 -9999 -9999 -9999 -9999 -9999 -9999 -9999 -9999 -9999 -9999 -9999 -9999 -9999 3939 3733 3560 3462 3312 3254 3209 3126 3143 3177 3240 3014 2945 3150 3243 3218 3250 3178 3530 3500 3456 3474 3703 3679 3431 3072 2772 2364 2204 2097 2582 2424 2254 2365 2696 2927 2948 3088 3415 3075 2722 2754 2762 2602 2454 2295 2513 2595 2270 2183 2126 2054 2087 2111 2198 2423 2693 2795 3067 3484 3360 3188 3058 2658 2501 2391 2737 2667 2497 2366 2642 2778 2966 3148 3008 2856 2934 2808 2531 2481 2966 3360 3598 3697 3735 3795 3787 3901 3794 3772 3838 3720 3733 4123 3936 3784 3705 3710 3624 3607 3448 3339 3333 3353 3360 3429 3629 3614 3733 -9999 3980 3803 -9999 -9999 -9999 -9999 -9999 -9999 -9999 -9999 -9999 -9999 -9999 -9999 -9999 -9999 -9999 -9999 -9999 -9999 -9999 -9999 -9999 -9999 -9999 -9999 -9999
-9999 -9999 -9999 -9999 -9999 -9999 -9999 -9999 -9999 -9999 -9999 -9999 -9999 -9999 -9999 -9999 -9999 -9999 -9999 -9999 -9999 -9999 -9999 -9999 -9999 -9999 -9999 -9999 -9999 -9999 -9999 -9999 -9999 -9999 -9999 -9999 -9999 -9999 -9999 -9999 -9999 -9999 -9999 -9999 -9999 -9999 -9999 -9999 -9999 -9999 -9999 -9999 3883 3731 3370 3405 3446 3449 3288 3319 3380 3171 3028 3398 3612 3479 3322 3286 3343 3605 3685 3637 3462 3438 3253 3055 2620 2186 2075 2063 2199 2092 2151 2368 2451 2713 2801 3136 3234 2840 2694 2563 2214 2135 2156 2122 2092 2136 2044 2009 2009 2278 2327 2294 2271 2593 3079 3138 3227 3347 3249 3059 2917 2674 2391 2585 2918 2945 2715 2529 2455 2605 2863 3164 3337 3224 3268 3149 2976 2639 2646 2972 3285 3264 3323 3528 3681 3816 3827 3815 3704 3724 3686 3887 3659 3855 3834 3667 3566 3488 3406 3413 3496 3612 3527 3480 3456 3554 3882 -9999 -9999 -9999 -9999 -9999 -9999 -9999 -9999 -9999 -9999 -9999 -9999 -9999 -9999 -9999 -9999 -9999 -9999 -9999 -9999 -9999 -9999 -9999 -9999 -9999 -9999 -9999 -9999
-9999 -9999 -9999 -9999 -9999 -9999 -9999 -9999 -9999 -9999 -9999 -9999 -9999 -9999 -9999 -9999 -9999 -9999 -9999 -9999 -9999 -9999 -9999 -9999 -9999 -9999 -9999 -9999 -9999 -9999 -9999 -9999 -9999 -9999 -9999 -9999 -9999 -9999 -9999 -9999 -9999 -9999 -9999 -9999 -9999 -9999 -9999 -9999 -9999 -9999 -9999 -9999 3649 3604 3652 3680 3580 3552 3455 3435 3394 3183 3099 3465 3529 3527 3552 3423 3375 3477 3452 3358 3342 3305 3202 2877 2505 2453 2390 2112 1958 2060 2206 2422 2588 2783 2966 3284 3037 2638 2292 2169 1959 1951 2038 2084 2139 2103 2184 2097 2375 2322 2710 2571 2543 2556 2872 3299 3377 3266 2954 2719 2593 2440 2448 2881 3239 3358 3086 2733 2468 2575 2821 3134 3446 3545 3380 3221 3188 3133 2654 2991 3085 3224 3411 3271 3281 3439 3353 3455 3329 3326 3427 3434 3521 3438 3519 3663 3956 3880 3563 3487 3584 3708 3896 3811 3628 3512 3811 -9999 -9999 -9999 -9999 -9999 -9999 -9999 -9999 -9999 -9999 -9999 -9999 -9999 -9999 -9999 -9999 -9999 -9999 -9999 -9999 -9999 -9999 -9999 -9999 -9999 -9999 -9999 -9999
-9999 -9999 -9999 -9999 -9999 -9999 -9999 -9999 -9999 -9999 -9999 -9999 -9999 -9999 -9999 -9999 -9999 -9999 -9999 -9999 -9999 -9999 -9999 -9999 -9999 -9999 -9999 -9999 -9999 -9999 -9999 -9999 -9999 -9999 -9999 -9999 -9999 -9999 -9999 -9999 -9999 -9999 -9999 -9999 -9999 -9999 -9999 -9999 -9999 -9999 -9999 3632 3526 3380 3445 3654 3636 3742 3618 3589 3444 3335 3342 3483 3636 3529 3583 3513 3451 3430 3423 3233 2964 2906 2886 2845 2516 2236 2097 1922 1934 2077 2155 2352 2614 2952 3123 3358 3066 2852 2534 2356 1983 1935 2226 2428 2516 2377 2529 2487 2460 2771 2830 2967 2968 2752 2926 3436 3419 3041 2680 2703 2820 2779 2476 2718 2999 3144 3372 2940 2679 2547 2871 3193 3529 3606 3539 3452 3137 3095 2725 2714 2946 3059 2990 3030 3005 2980 3051 3029 3126 2950 2997 3102 3205 3282 3398 3490 3826 3737 3627 3518 3646 3949 3793 3773 3713 3683 -9999 -9999 -9999 -9999 -9999 -9999 -9999 -9999 -9999 -9999 -9999 -9999 -9999 -9999 -9999 -9999 -9999 -9999 -9999 -9999 -9999 -9999 -9999 -9999 -9999 -9999 -9999 -9999 -9999
-9999 -9999 -9999 -9999 -9999 -9999 -9999 -9999 -9999 -9999 -9999 -9999 -9999 -9999 -9999 -9999 -9999 -9999 -9999 -9999 -9999 -9999 -9999 -9999 -9999 -9999 -9999 -9999 -9999 -9999 -9999 -9999 -9999 -9999 -9999 -9999 -9999 -9999 -9999 -9999 -9999 -9999 -9999 -9999 -9999 3541 3461 -9999 -9999 -9999 3542 3429 3401 3346 3255 3442 3569 3706 3735 3552 3504 3470 3439 3494 3389 3346 3293 3342 3331 3190 3150 3088 2868 2764 2590 2410 2348 2204 2083 1905 1879 2020 2094 2268 2502 2835 3030 3317 2954 2583 2433 2410 2072 1809 2157 2436 2686 2733 2963 2842 2785 2828 3140 3177 3081 3063 3212 3255 3111 2849 2954 3114 3213 2883 2527 2632 2678 2817 3125 3420 2916 2753 2830 3304 3664 3834 3674 3388 3278 3075 2799 2610 2684 2783 2708 2817 2762 2759 2820 2882 2930 3188 3202 3479 3389 3320 3531 3488 3681 3991 3779 3694 3657 3757 -9999 -9999 -9999 -9999 -9999 -9999 -9999 -9999 -9999 -9999 -9999 -9999 -9999 -9999 -9999 -9999 -9999 -9999 -9999 -9999 -9999 -9999 -9999 -9999 -9999 -9999 -9999 -9999 -9999 -9999 -9999 -9999 -9999
-9999 -9999 -9999 -9999 -9999 -9999 -9999 -9999 -9999 -9999 -9999 -9999 -9999 -9999 -9999 -9999 -9999 -9999 -9999 -9999 -9999 -9999 -9999 -9999 -9999 -9999 -9999 -9999 -9999 -9999 -9999 -9999 -9999 -9999 -9999 -9999 -9999 -9999 -9999 -9999 -9999 -9999 -9999 3407 3660 3670 3402 3304 3400 3491 3526 3349 3356 3214 3204 3381 3513 3607 3681 3605 3525 3548 3465 3386 3202 3163 3165 3129 3079 3023 2973 2942 2700 2622 2511 2403 2264 2205 2234 2012 1886 1904 1989 2193 2474 2862 3167 3240 2961 2669 2272 2150 2003 1807 2141 2276 2525 2868 3064 3073 2983 2955 3225 3177 3186 3168 3440 3182 3144 3224 3005 3177 3003 2798 2616 2890 2776 2765 2970 3324 3110 2971 2742 3272 3579 3746 3846 3852 3391 3154 2957 2805 2666 2655 2651 2661 2721 2846 2915 2965 3109 3137 3241 3536 3538 3365 3556 3564 3642 4031 -9999 -9999 -9999 -9999 -9999 -9999 -9999 -9999 -9999 -9999 -9999 -9999 -9999 -9999 -9999 -9999 -9999 -9999 -9999 -9999 -9999 -9999 -9999 -9999 -9999 -9999 -9999 -9999 -9999 -9999 -9999 -9999 -9999 -9999 -9999 -9999 -9999
-9999 -9999 -9999 -9999 -9999 -9999 -9999 -9999 -9999 -9999 -9999 -9999 -9999 -9999 -9999 -9999 -9999 -9999 -9999 -9999 -9999 -9999 -9999 -9999 -9999 -9999 -9999 -9999 -9999 -9999 -9999 -9999 -9999 -9999 -9999 -9999 -9999 -9999 -9999 -9999 -9999 -9999 3422 3648 3524 3357 3389 3209 3264 3535 3567 3415 3375 3070 3162 3305 3323 3621 3487 3699 3531 3436 3361 3445 3213 3158 3035 2963 2826 2796 2743 2643 2525 2523 2473 2448 2500 2293 2261 2266 2050 1837 1872 2222 2680 2825 2810 3011 2857 2756 2409 2225 1847 1842 2170 2380 2630 2962 3108 3052 3214 3199 3347 3383 3371 3310 3402 3375 3603 3235 3124 3093 3074 2704 2898 3112 3298 3061 2976 3254 3495 3319 3187 2814 3090 3263 3655 3885 3644 3455 3121 3143 2977 2707 2666 2721 2708 2957 3024 3132 3208 3298 3402 3652 3837 3506 3493 3548 3695 -9999 -9999 -9999 -9999 -9999 -9999 -9999 -9999 -9999 -9999 -9999 -9999 -9999 -9999 -9999 -9999 -9999 -9999 -9999 -9999 -9999 -9999 -9999 -9999 -9999 -9999 -9999 -9999 -9999 -9999 -9999 -9999 -9999 -9999 -9999 -9999 -9999 -9999
-9999 -9999 -9999 -9999 -9999 -9999 -9999 -9999 -9999 -9999 -9999 -9999 -9999 -9999 -9999 -9999 -9999 -9999 -9999 -9999 -9999 -9999 -9999 -9999 -9999 -9999 -9999 -9999 -9999 -9999 -9999 -9999 -9999 -9999 -9999 -9999 -9999 -9999 -9999 -9999 -9999 3496 3313 3327 3287 3104 2997 3098 3222 3588 3646 3641 3446 3082 2960 3139 3261 3532 3321 3494 3546 3474 3193 3147 3371 3266 3138 3171 3067 3032 2844 2758 2782 2832 2894 2911 3069 2812 2759 2304 1974 1828 1923 2332 2939 2615 2462 2507 2676 2459 2067 1942 1735 2074 2300 2458 2683 2770 2766 2947 2955 3133 3017 2982 2994 3229 3459 3457 3314 3291 3238 3254 3167 2801 3033 3266 3466 3455 3135 3214 3640 3917 3539 3192 2927 3018 3361 3754 3523 3482 3403 3294 2951 2763 2857 2851 2842 2949 3102 3322 3531 3359 3379 3612 4020 3682 3570 3589 3726 -9999 -9999 -9999 -9999 -9999 -9999 -9999 -9999 -9999 -9999 -9999 -9999 -9999 -9999 -9999 -9999 -9999 -9999 -9999 -9999 -9999 -9999 -9999 -9999 -9999 -9999 -9999 -9999 -9999 -9999 -9999 -9999 -9999 -9999 -9999 -9999 -9999 -9999
-9999 -9999 -9999 -9999 -9999 -9999 -9999 -9999 -9999 -9999 -9999 -9999 -9999 -9999 -9999 -9999 -9999 -9999 -9999 -9999 -9999 -9999 -9999 -9999 -9999 -9999 -9999 -9999 -9999 -9999 -9999 -9999 -9999 -9999 -9999 3673 3405 3360 3343 3268 3191 3474 3311 3376 3526 3184 2759 2958 3099 3300 3494 3569 3458 3301 2919 2809 2890 3332 3180 3224 3294 3236 3173 2996 3204 3338 3153 3051 2933 2900 2971 2968 3104 3234 3288 3201 3116 2540 2407 1999 1780 1975 2116 2381 2728 2621 2491 2099 2249 2075 1831 1745 1728 1866 2066 2162 2458 2385 2591 2713 2641 2806 2834 3077 3250 3332 3216 3032 2970 3051 3312 3341 3168 2913 3165 3403 3527 3671 3528 3398 3755 3875 3951 3545 3300 3312 3417 3647 3872 3617 3421 3215 2936 2942 3038 3061 3101 3012 3137 3318 3574 3663 3464 3526 3668 3789 -9999 3874 -9999 -9999 -9999 -9999 -9999 -9999 -9999 -9999 -9999 -9999 -9999 -9999 -9999 -9999 -9999 -9999 -9999 -9999 -9999 -9999 -9999 -9999 -9999 -9999 -9999 -9999 -9999 -9999 -9999 -9999 -9999 -9999 -9999 -9999 -9999 -9999 -9999 -9999 -9999
-9999 -9999 -9999 -9999 -9999 -9999 -9999 -9999 -9999 -9999 -9999 -9999 -9999 -9999 -9999 -9999 -9999 -9999 -9999 -9999 -9999 -9999 -9999 -9999 -9999 -9999 -9999 -9999 -9999 -9999 -9999 -9999 -9999 -9999 3772 3790 3441 3326 3223 3148 3044 3278 3155 3181 3306 3142 2704 2917 3053 3339 3687 3456 3403 3161 2935 2767 2746 2981 3079 3093 3067 3007 2942 2973 3120 3268 3190 3143 3065 3103 3174 3093 3207 3264 3062 2915 2656 2563 2334 1963 1800 2142 2261 2552 2284 2405 2486 2121 2007 1942 1704 1702 1801 1856 2029 2176 2507 2266 2443 2515 2593 2624 2824 3104 3222 3114 3015 2835 2828 3089 3235 3439 3261 2950 3178 3300 3561 3671 3449 3410 3529 3650 3937 3484 3512 3538 3275 3686 3970 3769 3455 3160 2961 3057 3171 3125 3109 3083 3109 3379 3496 3682 3601 -9999 -9999 -9999 -9999 -9999 -9999 -9999 -9999 -9999 -9999 -9999 -9999 -9999 -9999 -9999 -9999 -9999 -9999 -9999 -9999 -9999 -9999 -9999 -9999 -9999 -9999 -9999 -9999 -9999 -9999 -9999 -9999 -9999 -9999 -9999 -9999 -9999 -9999 -9999 -9999 -9999 -9999 -9999 -9999
-9999 -9999 -9999 -9999 -9999 -9999 -9999 -9999 -9999 -9999 -9999 -9999 -9999 -9999 -9999 -9999 -9999 -9999 -9999 -9999 -9999 -9999 -9999 -9999 -9999 -9999 -9999 -9999 -9999 -9999 -9999 -9999 3366 3382 3397 3567 3527 3447 3400 3469 3089 2798 2722 2769 2968 2864 2648 2927 3066 3272 3376 3531 3416 3328 3132 2909 2674 2558 2673 2661 2736 2811 2922 3100 3352 3390 3329 3240 3207 3267 3349 3293 3128 3019 2914 2787 2482 2169 2081 1861 1771 2146 2234 2437 2045 2077 1964 1869 1752 1663 1801 1862 2075 1789 1953 2119 2051 2313 2441 2492 2736 2875 2934 2748 2723 2644 2516 2595 2962 3200 3618 3350 3259 3160 3226 3457 3817 3968 4119 3725 3578 3577 3904 3770 3636 3658 3392 3618 3597 3506 3280 3131 3081 3326 3478 3266 3176 3427 3261 3274 3548 3833 3944 -9999 -9999 -9999 -9999 -9999 -9999 -9999 -9999 -9999 -9999 -9999 -9999 -9999 -9999 -9999 -9999 -9999 -9999 -9999 -9999 -9999 -9999 -9999 -9999 -9999 -9999 -9999 -9999 -9999 -9999 -9999 -9999 -9999 -9999 -9999 -9999 -9999 -9999 -9999 -9999 -9999 -9999 -9999 -9999
-9999 -9999 -9999 -9999 -9999 -9999 -9999 -9999 -9999 -9999 -9999 -9999 -9999 -9999 -9999 -9999 -9999 -9999 -9999 -9999 -9999 -9999 -9999 -9999 -9999 -9999 -9999 -9999 -9999 -9999 3396 3312 3058 2954 2911 3034 2916 3035 2879 2942 2928 2937 2616 2500 2548 2607 2529 2852 3022 3299 3240 3346 3318 3214 3034 2771 2639 2398 2455 2602 2699 2738 2870 3105 3226 3256 3521 3370 3421 3328 3099 2900 2707 2640 2513 2442 2314 2156 2031 1969 1715 2028 2256 2169 1840 1701 1687 1742 1874 1921 2175 2248 2390 2027 1850 1887 1952 2156 2330 2541 2838 2601 2529 2314 2282 2224 2513 2837 2974 3272 3225 3506 3426 3268 3455 3364 3594 3684 -9999 -9999 3685 3674 -9999 -9999 3675 3643 3502 3618 3668 3564 3355 3393 3198 3371 3520 3298 3278 3605 3497 3326 3462 3691 3761 -9999 -9999 -9999 -9999 -9999 -9999 -9999 -9999 -9999 -9999 -9999 -9999 -9999 -9999 -9999 -9999 -9999 -9999 -9999 -9999 -9999 -9999 -9999 -9999 -9999 -9999 -9999 -9999 -9999 -9999 -9999 -9999 -9999 -9999 -9999 -9999 -9999 -9999 -9999 -9999 -9999 -9999 -9999 -9999
-9999 -9999 -9999 -9999 -9999 -9999 -9999 -9999 -9999 -9999 -9999 -9999 -9999 -9999 -9999 -9999 -9999 -9999 -9999 -9999 -9999 -9999 -9999 -9999 -9999 -9999 -9999 -9999 3388 3085 2964 2810 2674 2560 2495 2491 2412 2547 2400 2521 2516 2546 2590 2482 2319 2443 2271 2625 2729 2879 2888 3151 3247 3122 2840 2669 2528 2325 2605 2862 3031 3013 3043 3404 3390 3412 3491 3446 3260 3121 2857 2760 2878 2937 2659 2438 2274 2221 2218 1844 1699 1988 2235 1949 1697 1661 1871 2195 2255 2063 2304 2465 2414 2359 2178 2077 2215 1918 2168 2402 2442 2291 2136 2148 2252 2252 2454 2719 2869 2898 3137 3400 3474 3386 3455 3528 3556 3662 -9999 -9999 -9999 -9999 -9999 -9999 3792 3729 3659 3729 3616 3587 3507 3404 3351 3545 3586 3424 3363 3609 3604 3460 3485 3870 -9999 -9999 -9999 -9999 -9999 -9999 -9999 -9999 -9999 -9999 -9999 -9999 -9999 -9999 -9999 -9999 -9999 -9999 -9999 -9999 -9999 -9999 -9999 -9999 -9999 -9999 -9999 -9999 -9999 -9999 -9999 -9999 -9999 -9999 -9999 -9999 -9999 -9999 -9999 -9999 -9999 -9999 -9999 -9999 -9999
-9999 -9999 -9999 -9999 -9999 -9999 -9999 -9999 -9999 -9999 -9999 -9999 -9999 -9999 -9999 -9999 -9999 -9999 -9999 -9999 -9999 -9999 -9999 -9999 -9999 -9999 3335 3359 3284 2956 2826 2676 2453 2367 2301 2309 2283 2247 2167 2242 2302 2427 2348 2303 2176 2289 2223 2448 2527 2730 2805 3022 3036 3107 2938 2613 2421 2299 2559 2925 3098 3227 3067 3223 3384 3536 3511 3459 3240 3144 2822 2878 3087 3022 2883 2674 2526 2080 1969 1683 1769 2160 2264 1969 1665 1717 1928 2326 2395 2186 2457 2601 2713 2622 2264 2346 2390 2093 2100 2288 2287 2034 2034 2307 2416 2593 2470 2448 2637 3002 3086 3135 3196 3264 3401 3538 3794 -9999 -9999 -9999 -9999 -9999 -9999 -9999 -9999 -9999 -9999 -9999 -9999 3574 3548 3492 3402 3559 3674 3459 3399 3551 3637 3529 3556 -9999 -9999 -9999 -9999 -9999 -9999 -9999 -9999 -9999 -9999 -9999 -9999 -9999 -9999 -9999 -9999 -9999 -9999 -9999 -9999 -9999 -9999 -9999 -9999 -9999 -9999 -9999 -9999 -9999 -9999 -9999 -9999 -9999 -9999 -9999 -9999 -9999 -9999 -9999 -9999 -9999 -9999 -9999 -9999 -9999 -9999
-9999 -9999 -9999 -9999 -9999 -9999 -9999 -9999 -9999 -9999 -9999 -9999 -9999 -9999 -9999 -9999 -9999 -9999 -9999 -9999 -9999 -9999 -9999 -9999 -9999 -9999 3291 3260 2993 2725 2625 2581 2489 2396 2286 2205 2153 2087 2008 1933 1888 1898 1864 1859 1922 2007 2289 2486 2574 2709 2824 2942 3009 3223 2887 2528 2333 2230 2543 2833 3004 3081 3229 3490 3490 3483 3248 3143 3034 2908 2920 3063 3222 3296 3023 2702 2518 2173 1940 1668 1895 2036 1903 1687 1567 1829 1998 2354 2558 2495 2660 2752 2993 2888 2739 2764 2509 2114 1968 2155 2130 2158 2345 2320 2464 2887 2786 2525 2404 2620 2639 2730 2790 3053 3157 3373 3722 -9999 -9999 -9999 -9999 -9999 -9999 -9999 -9999 -9999 -9999 -9999 -9999 -9999 -9999 -9999 -9999 -9999 3622 -9999 -9999 -9999 -9999 3657 -9999 -9999 -9999 -9999 -9999 -9999 -9999 -9999 -9999 -9999 -9999 -9999 -9999 -9999 -9999 -9999 -9999 -9999 -9999 -9999 -9999 -9999 -9999 -9999 -9999 -9999 -9999 -9999 -9999 -9999 -9999 -9999 -9999 -9999 -9999 -9999 -9999 -9999 -9999 -9999 -9999 -9999 -9999 -9999 -9999 -9999 -9999
-9999 -9999 -9999 -9999 -9999 -9999 -9999 -9999 -9999 -9999 -9999 -9999 -9999 -9999 -9999 -9999 -9999 -9999 -9999 -9999 -9999 -9999 -9999 -9999 -9999 -9999 -9999 3306 3174 3073 2978 2896 2676 2389 2146 2225 2139 2121 2107 2170 2230 2370 2138 1933 1776 1848 1982 2191 2240 2486 2888 3216 3121 2762 2673 2441 2229 2148 2404 2740 2878 2800 2981 3150 2916 2973 3262 3135 3016 3012 3177 3410 3217 3026 2611 2407 2031 1880 1811 1697 1748 1678 1648 1570 1820 2022 2188 2437 2625 2930 3095 3159 2953 2768 2576 2504 2346 2133 1958 2004 2135 2317 2520 2825 2692 2659 2963 2921 2781 2556 2637 3001 3070 3363 3333 3422 3611 -9999 -9999 -9999 -9999 -9999 -9999 -9999 -9999 -9999 -9999 -9999 -9999 -9999 -9999 -9999 -9999 -9999 -9999 -9999 -9999 -9999 -9999 -9999 -9999 -9999 -9999 -9999 -9999 -9999 -9999 -9999 -9999 -9999 -9999 -9999 -9999 -9999 -9999 -9999 -9999 -9999 -9999 -9999 -9999 -9999 -9999 -9999 -9999 -9999 -9999 -9999 -9999 -9999 -9999 -9999 -9999 -9999 -9999 -9999 -9999 -9999 -9999 -9999 -9999 -9999 -9999 -9999 -9999 -9999 -9999
-9999 -9999 -9999 -9999 -9999 -9999 -9999 -9999 -9999 -9999 -9999 -9999 -9999 -9999 -9999 -9999 -9999 -9999 -9999 -9999 -9999 -9999 -9999 -9999 -9999 -9999 -9999 -9999 3317 3044 2888 2606 2407 2303 2440 2499 2559 2422 2606 2609 2728 2444 2133 2135 1942 1641 1897 2174 2323 2703 3020 3054 2832 2526 2282 2234 2091 2094 2412 2723 2581 2389 2510 2841 2498 2613 2941 3113 3221 3265 3248 3421 3114 3011 2750 2517 2238 2020 1921 1716 1653 1643 1529 1689 2023 2235 2337 2612 2931 3065 3079 2909 2652 2376 2183 2153 2021 1990 2037 2146 2296 2347 2515 2772 2971 3296 3090 3116 3140 3015 2780 2916 2987 3274 3578 3744 -9999 -9999 -9999 -9999 -9999 -9999 -9999 -9999 -9999 -9999 -9999 -9999 -9999 -9999 -9999 -9999 -9999 -9999 -9999 -9999 -9999 -9999 -9999 -9999 -9999 -9999 -9999 -9999 -9999 -9999 -9999 -9999 -9999 -9999 -9999 -9999 -9999 -9999 -9999 -9999 -9999 -9999 -9999 -9999 -9999 -9999 -9999 -9999 -9999 -9999 -9999 -9999 -9999 -9999 -9999 -9999 -9999 -9999 -9999 -9999 -9999 -9999 -9999 -9999 -9999 -9999 -9999 -9999 -9999 -9999 -9999
-9999 -9999 -9999 -9999 -9999 -9999 -9999 -9999 -9999 -9999 -9999 -9999 -9999 -9999 -9999 -9999 -9999 -9999 -9999 -9999 -9999 -9999 -9999 -9999 -9999 -9999 -9999 -9999 3321 3065 2927 2594 2386 2519 2560 2626 2779 2602 2851 2785 2910 2591 2392 2372 1996 1608 1870 2188 2289 2639 3026 3035 2818 2463 2209 2044 1971 2119 2462 2472 2379 2246 2409 2628 2187 2538 2760 2797 2913 3075 3346 3226 3000 2825 2505 2266 2070 1978 1846 1672 1593 1623 1503 1748 1915 2150 2283 2629 2967 3012 2990 2835 2567 2298 2115 2129 2142 2076 2130 2291 2463 2498 2657 2874 3024 3436 3321 3250 3301 3103 2942 2999 3197 3358 3504 -9999 -9999 -9999 -9999 -9999 -9999 -9999 -9999 -9999 -9999 -9999 -9999 -9999 -9999 -9999 -9999 -9999 -9999 -9999 -9999 -9999 -9999 -9999 -9999 -9999 -9999 -9999 -9999 -9999 -9999 -9999 -9999 -9999 -9999 -9999 -9999 -9999 -9999 -9999 -9999 -9999 -9999 -9999 -9999 -9999 -9999 -9999 -9999 -9999 -9999 -9999 -9999 -9999 -9999 -9999 -9999 -9999 -9999 -9999 -9999 -9999 -9999 -9999 -9999 -9999 -9999 -9999 -9999 -9999 -9999 -9999 -9999
-9999 -9999 -9999 -9999 -9999 -9999 -9999 -9999 -9999 -9999 -9999 -9999 -9999 -9999 -9999 -9999 -9999 -9999 -9999 -9999 -9999 -9999 -9999 -9999 -9999 -9999 -9999 -9999 3112 2816 2694 2729 2682 3056 2883 3012 3108 2973 3155 3043 3165 2808 2467 2330 1942 1638 1663 2017 2241 2611 2797 2501 2560 2452 2117 1853 1869 2239 2459 2246 2005 1956 2217 2402 2078 2096 2351 2272 2603 2741 3053 3325 3133 3029 2766 2662 2379 2218 2063 1748 1533 1617 1522 1754 2056 2368 2539 2599 2603 2615 2645 2659 2631 2380 2324 2476 2484 2276 1986 2081 2214 2417 2696 3022 3087 3349 3647 3459 3477 3291 3108 3125 3259 3425 3665 -9999 -9999 -9999 -9999 -9999 -9999 -9999 -9999 -9999 -9999 -9999 -9999 -9999 -9999 -9999 -9999 -9999 -9999 -9999 -9999 -9999 -9999 -9999 -9999 -9999 -9999 -9999 -9999 -9999 -9999 -9999 -9999 -9999 -9999 -9999 -9999 -9999 -9999 -9999 -9999 -9999 -9999 -9999 -9999 -9999 -9999 -9999 -9999 -9999 -9999 -9999 -9999 -9999 -9999 -9999 -9999 -9999 -9999 -9999 -9999 -9999 -9999 -9999 -9999 -9999 -9999 -9999 -9999 -9999 -9999 -9999 -9999
-9999 -9999 -9999 -9999 -9999 -9999 -9999 -9999 -9999 -9999 -9999 -9999 -9999 -9999 -9999 -9999 -9999 -9999 -9999 -9999 -9999 -9999 -9999 -9999 -9999 -9999 -9999 -9999 3186 2936 2884 3120 3033 3126 3199 3256 3262 3217 3172 3006 2678 2642 2213 2013 1770 1519 1713 2210 2440 2489 2289 2091 2032 1922 1787 1801 1937 2302 2503 2180 1866 1754 2044 2310 2067 1894 1898 2195 2499 2547 2845 3061 2759 2607 2652 2818 2643 2227 1968 1639 1513 1581 1508 1911 2340 2324 2338 2258 2209 2371 2402 2400 2657 2671 2596 2652 2825 2463 2295 2159 2140 2507 2718 2903 3096 3310 3514 3663 3693 3569 3420 3327 3514 3549 -9999 -9999 -9999 -9999 -9999 -9999 -9999 -9999 -9999 -9999 -9999 -9999 -9999 -9999 -9999 -9999 -9999 -9999 -9999 -9999 -9999 -9999 -9999 -9999 -9999 -9999 -9999 -9999 -9999 -9999 -9999 -9999 -9999 -9999 -9999 -9999 -9999 -9999 -9999 -9999 -9999 -9999 -9999 -9999 -9999 -9999 -9999 -9999 -9999 -9999 -9999 -9999 -9999 -9999 -9999 -9999 -9999 -9999 -9999 -9999 -9999 -9999 -9999 -9999 -9999 -9999 -9999 -9999 -9999 -9999 -9999 -9999 -9999
-9999 -9999 -9999 -9999 -9999 -9999 -9999 -9999 -9999 -9999 -9999 -9999 -9999 -9999 -9999 -9999 -9999 -9999 -9999 -9999 -9999 -9999 -9999 -9999 -9999 -9999 -9999 -9999 3313 3154 3269 3255 3371 3316 3315 3249 3188 3287 2969 2708 2312 2067 1898 1739 1489 1657 1919 2131 2279 2208 1852 1722 1704 1628 1823 2127 2243 2408 2261 1980 1816 1660 1929 2183 1999 1786 2015 2273 2491 2584 2940 2768 2819 2675 2216 2145 2104 1943 1689 1528 1490 1531 1694 2042 2282 2029 2024 1993 2066 2156 2391 2488 2740 3067 2888 2996 2811 2745 2866 2660 2309 2220 2520 2923 2933 2944 3211 3430 3360 3475 3641 3607 3541 3704 3705 -9999 -9999 -9999 -9999 -9999 -9999 -9999 -9999 -9999 -9999 -9999 -9999 -9999 -9999 -9999 -9999 -9999 -9999 -9999 -9999 -9999 -9999 -9999 -9999 -9999 -9999 -9999 -9999 -9999 -9999 -9999 -9999 -9999 -9999 -9999 -9999 -9999 -9999 -9999 -9999 -9999 -9999 -9999 -9999 -9999 -9999 -9999 -9999 -9999 -9999 -9999 -9999 -9999 -9999 -9999 -9999 -9999 -9999 -9999 -9999 -9999 -9999 -9999 -9999 -9999 -9999 -9999 -9999 -9999 -9999 -9999 -9999
-9999 -9999 -9999 -9999 -9999 -9999 -9999 -9999 -9999 -9999 -9999 -9999 -9999 -9999 -9999 -9999 -9999 -9999 -9999 -9999 -9999 -9999 -9999 -9999 -9999 -9999 -9999 -9999 3556 3264 3355 3400 3275 3079 2937 2832 2779 2741 2774 2725 2312 1972 1761 1696 1426 1694 2172 2444 2340 1915 1724 1558 1556 1970 2017 1851 1840 1972 2010 1868 1593 1636 1914 1956 1567 1581 1846 2161 2388 2395 2417 2238 2159 2107 1948 1810 1684 1510 1485 1733 1765 1582 1692 2008 1935 1844 1875 2148 2312 2290 2469 2578 2819 2940 3256 3204 3179 3115 2829 2695 2453 2185 2443 2580 2628 2946 3071 3047 3012 3237 3244 3401 3317 3299 3421 3650 -9999 -9999 -9999 -9999 -9999 -9999 -9999 -9999 -9999 -9999 -9999 -9999 -9999 -9999 -9999 -9999 -9999 -9999 -9999 -9999 -9999 -9999 -9999 -9999 -9999 -9999 -9999 -9999 -9999 -9999 -9999 -9999 -9999 -9999 -9999 -9999 -9999 -9999 -9999 -9999 -9999 -9999 -9999 -9999 -9999 -9999 -9999 -9999 -9999 -9999 -9999 -9999 -9999 -9999 -9999 -9999 -9999 -9999 -9999 -9999 -9999 -9999 -9999 -9999 -9999 -9999 -9999 -9999 -9999 -9999 -9999
-9999 -9999 -9999 -9999 -9999 -9999 -9999 -9999 -9999 -9999 -9999 -9999 -9999 -9999 -9999 -9999 -9999 -9999 -9999 -9999 -9999 -9999 -9999 -9999 -9999 -9999 -9999 -9999 -9999 3398 3376 3377 3101 2847 2586 2459 2622 2522 2531 2534 2415 2189 1877 1685 1451 1623 2103 2316 2354 2060 1755 1478 1585 1915 1785 1648 1721 1784 1911 1792 1516 1705 1666 1668 1500 1517 1650 1838 1957 2006 1995 1839 1813 1803 1816 1766 1506 1491 1580 1933 1969 1594 1635 1892 1796 1882 1974 2199 2367 2510 2465 2491 2631 2890 3091 3214 3366 3148 2829 2727 2637 2353 2329 2424 2599 2705 2906 2820 2956 3156 3045 3199 3108 3249 3357 3531 -9999 -9999 -9999 -9999 -9999 -9999 -9999 -9999 -9999 -9999 -9999 -9999 -9999 -9999 -9999 -9999 -9999 -9999 -9999 -9999 -9999 -9999 -9999 -9999 -9999 -9999 -9999 -9999 -9999 -9999 -9999 -9999 -9999 -9999 -9999 -9999 -9999 -9999 -9999 -9999 -9999 -9999 -9999 -9999 -9999 -9999 -9999 -9999 -9999 -9999 -9999 -9999 -9999 -9999 -9999 -9999 -9999 -9999 -9999 -9999 -9999 -9999 -9999 -9999 -9999 -9999 -9999 -9999 -9999 -9999 -9999
-9999 -9999 -9999 -9999 -9999 -9999 -9999 -9999 -9999 -9999 -9999 -9999 -9999 -9999 -9999 -9999 -9999 -9999 -9999 -9999 -9999 -9999 -9999 -9999 -9999 -9999 -9999 -9999 -9999 3327 3247 2983 2678 2488 2320 2207 2089 2199 2147 2135 2177 1949 1817 1603 1503 1894 2055 1940 2053 1784 1517 1465 1523 1466 1416 1314 1323 1394 1383 1459 1481 1432 1446 1409 1458 1491 1444 1695 1614 1617 1687 1619 1469 1486 1466 1586 1807 1899 2087 2154 2356 1943 1717 1728 1875 2101 2244 2270 2541 2900 2819 2833 2927 2967 3198 3365 3342 3248 3028 3084 2977 2760 2420 2379 2433 2399 2543 2725 2707 2723 2869 2980 3060 3177 3484 3676 -9999 -9999 -9999 -9999 -9999 -9999 -9999 -9999 -9999 -9999 -9999 -9999 -9999 -9999 -9999 -9999 -9999 -9999 -9999 -9999 -9999 -9999 -9999 -9999 -9999 -9999 -9999 -9999 -9999 -9999 -9999 -9999 -9999 -9999 -9999 -9999 -9999 -9999 -9999 -9999 -9999 -9999 -9999 -9999 -9999 -9999 -9999 -9999 -9999 -9999 -9999 -9999 -9999 -9999 -9999 -9999 -9999 -9999 -9999 -9999 -9999 -9999 -9999 -9999 -9999 -9999 -9999 -9999 -9999 -9999 -9999
-9999 -9999 -9999 -9999 -9999 -9999 -9999 -9999 -9999 -9999 -9999 -9999 -9999 -9999 -9999 -9999 -9999 -9999 -9999 -9999 -9999 -9999 -9999 -9999 -9999 -9999 -9999 3371 3387 3358 3281 3092 2822 2741 2477 2343 1914 1865 1891 2047 2099 1867 1549 1500 1478 1847 1642 1598 1612 1462 1416 1405 1345 1338 1422 1547 1634 1633 1674 1667 1775 1824 1865 1862 1942 1860 1732 1519 1499 1606 1547 1596 1878 1899 1822 1878 2167 2278 2213 2357 2483 2052 2013 1760 1741 2129 2354 2552 2653 2833 2964 3104 3320 3250 3356 3519 3470 3379 3192 3152 3098 2798 2446 2565 2785 2816 2640 2644 2710 2963 2958 3015 2991 3035 3317 3737 -9999 -9999 -9999 -9999 -9999 -9999 -9999 -9999 -9999 -9999 -9999 -9999 -9999 -9999 -9999 -9999 -9999 -9999 -9999 -9999 -9999 -9999 -9999 -9999 -9999 -9999 -9999 -9999 -9999 -9999 -9999 -9999 -9999 -9999 -9999 -9999 -9999 -9999 -9999 -9999 -9999 -9999 -9999 -9999 -9999 -9999 -9999 -9999 -9999 -9999 -9999 -9999 -9999 -9999 -9999 -9999 -9999 -9999 -9999 -9999 -9999 -9999 -9999 -9999 -9999 -9999 -9999 -9999 -9999 -9999 -9999
-9999 -9999 -9999 -9999 -9999 -9999 -9999 -9999 -9999 -9999 -9999 -9999 -9999 -9999 -9999 -9999 -9999 -9999 -9999 -9999 -9999 -9999 -9999 -9999 3245 3356 3421 3218 3164 2951 2975 2885 2568 2337 2190 2086 1926 1606 1658 1717 1739 1685 1532 1360 1613 1602 1432 1383 1387 1327 1259 1337 1281 1542 1735 1824 1876 2055 2146 2160 2327 2389 2361 2188 2418 2398 2111 1994 1818 1970 1762 2093 2032 1776 1962 2214 2245 2483 2586 2705 2684 2370 2171 1843 1805 1969 2023 2323 2385 2650 2969 3147 3097 3275 3450 3549 3448 3208 2989 2882 2721 2536 2638 2865 3005 3148 2952 2703 2758 2862 2961 3153 3327 3148 3263 3596 -9999 -9999 -9999 -9999 -9999 -9999 -9999 -9999 -9999 -9999 -9999 -9999 -9999 -9999 -9999 -9999 -9999 -9999 -9999 -9999 -9999 -9999 -9999 -9999 -9999 -9999 -9999 -9999 -9999 -9999 -9999 -9999 -9999 -9999 -9999 -9999 -9999 -9999 -9999 -9999 -9999 -9999 -9999 -9999 -9999 -9999 -9999 -9999 -9999 -9999 -9999 -9999 -9999 -9999 -9999 -9999 -9999 -9999 -9999 -9999 -9999 -9999 -9999 -9999 -9999 -9999 -9999 -9999 -9999 -9999 -9999
-9999 -9999 -9999 -9999 -9999 -9999 -9999 -9999 -9999 -9999 -9999 -9999 -9999 -9999 -9999 -9999 -9999 -9999 -9999 -9999 -9999 3358 3335 3218 3041 3192 3350 3194 2936 2740 2766 2791 2597 2267 2044 1995 1872 1591 1558 1616 1684 1719 1605 1320 1494 1538 1385 1349 1341 1274 1286 1282 1365 1723 1809 1878 1988 2254 2296 2385 2514 2513 2631 2460 2708 2631 2390 2041 2012 2106 1878 2185 2012 1843 2025 2234 2454 2611 2813 2997 2614 2265 2101 1804 1800 1958 2103 2167 2341 2647 2969 3018 2946 3119 3273 3411 3542 3245 3105 2942 2754 2632 2852 3074 3208 3236 2946 2814 2857 2851 2944 3132 3332 3369 3278 3560 -9999 -9999 -9999 -9999 -9999 -9999 -9999 -9999 -9999 -9999 -9999 -9999 -9999 -9999 -9999 -9999 -9999 -9999 -9999 -9999 -9999 -9999 -9999 -9999 -9999 -9999 -9999 -9999 -9999 -9999 -9999 -9999 -9999 -9999 -9999 -9999 -9999 -9999 -9999 -9999 -9999 -9999 -9999 -9999 -9999 -9999 -9999 -9999 -9999 -9999 -9999 -9999 -9999 -9999 -9999 -9999 -9999 -9999 -9999 -9999 -9999 -9999 -9999 -9999 -9999 -9999 -9999 -9999 -9999 -9999 -9999
-9999 -9999 -9999 -9999 -9999 -9999 -9999 -9999 -9999 -9999 -9999 -9999 -9999 -9999 -9999 -9999 -9999 -9999 3211 3370 3288 3106 2965 2829 2724 3046 3177 3183 2812 2499 2388 2473 2489 2262 2030 1939 1800 1527 1452 1503 1604 1676 1556 1450 1264 1433 1263 1280 1345 1371 1392 1526 1550 1727 1947 2029 2096 2394 2705 2751 2878 2892 2942 2940 3062 2917 2660 2422 2392 2373 2065 2431 2122 2012 1963 2145 2406 2797 3013 3023 2761 2486 2275 1848 1829 1908 1947 1997 2144 2451 2525 2517 2767 3040 3299 3377 3624 3483 3250 3138 2905 2714 2982 3223 3299 3239 2937 3095 3246 3207 2987 3143 3298 3665 3427 3689 3948 -9999 -9999 -9999 -9999 -9999 -9999 -9999 -9999 -9999 -9999 -9999 -9999 -9999 -9999 -9999 -9999 -9999 -9999 -9999 -9999 -9999 -9999 -9999 -9999 -9999 -9999 -9999 -9999 -9999 -9999 -9999 -9999 -9999 -9999 -9999 -9999 -9999 -9999 -9999 -9999 -9999 -9999 -9999 -9999 -9999 -9999 -9999 -9999 -9999 -9999 -9999 -9999 -9999 -9999 -9999 -9999 -9999 -9999 -9999 -9999 -9999 -9999 -9999 -9999 -9999 -9999 -9999 -9999 -9999 -9999
-9999 -9999 -9999 -9999 -9999 -9999 -9999 -9999 -9999 -9999 -9999 -9999 -9999 -9999 -9999 3342 3337 3242 3177 3039 2834 2769 2648 2548 2460 2860 2906 2905 2799 2654 2478 2040 2093 1976 1855 1815 1793 1633 1323 1416 1541 1579 1533 1436 1260 1300 1410 1457 1428 1517 1529 1565 1563 1706 1447 1776 2019 2313 2527 2790 3061 3030 3153 3287 3274 3139 3161 2803 2643 2542 2387 2626 2569 2603 2296 2124 2495 3016 3215 2819 2481 2186 2079 1885 1955 2227 2329 2369 2324 2273 2384 2443 2711 2783 3085 3145 3212 3322 3526 3433 3182 3204 3092 3099 3303 3391 3136 3138 3246 3574 3292 3155 3262 3633 3790 3680 -9999 -9999 -9999 -9999 -9999 -9999 -9999 -9999 -9999 -9999 -9999 -9999 -9999 -9999 -9999 -9999 -9999 -9999 -9999 -9999 -9999 -9999 -9999 -9999 -9999 -9999 -9999 -9999 -9999 -9999 -9999 -9999 -9999 -9999 -9999 -9999 -9999 -9999 -9999 -9999 -9999 -9999 -9999 -9999 -9999 -9999 -9999 -9999 -9999 -9999 -9999 -9999 -9999 -9999 -9999 -9999 -9999 -9999 -9999 -9999 -9999 -9999 -9999 -9999 -9999 -9999 -9999 -9999 -9999 -9999 -9999
-9999 -9999 -9999 -9999 -9999 -9999 -9999 -9999 -9999 -9999 -9999 -9999 -9999 3418 3262 3042 2753 2813 2785 2791 2549 2661 2580 2247 2156 2454 2505 2379 2656 2383 2261 2271 1946 1715 1775 1700 1519 1444 1302 1277 1388 1289 1216 1215 1304 1356 1472 1589 1593 1679 1657 1819 1935 2017 1746 1562 1736 2069 2013 2233 2139 2342 2701 2621 2870 3068 3363 3156 2959 2958 2790 2856 3090 2914 2532 2278 2640 3182 3073 2846 2474 2255 2127 1950 2067 2320 2381 2638 2424 2412 2617 2678 2536 2774 2651 2733 2953 3226 3434 3483 3638 3440 3491 3245 3262 3517 3264 3248 3394 3753 3649 3305 3391 3473 3594 3756 3861 -9999 -9999 -9999 -9999 -9999 -9999 -9999 -9999 -9999 -9999 -9999 -9999 -9999 -9999 -9999 -9999 -9999 -9999 -9999 -9999 -9999 -9999 -9999 -9999 -9999 -9999 -9999 -9999 -9999 -9999 -9999 -9999 -9999 -9999 -9999 -9999 -9999 -9999 -9999 -9999 -9999 -9999 -9999 -9999 -9999 -9999 -9999 -9999 -9999 -9999 -9999 -9999 -9999 -9999 -9999 -9999 -9999 -9999 -9999 -9999 -9999 -9999 -9999 -9999 -9999 -9999 -9999 -9999 -9999 -9999
-9999 -9999 -9999 -9999 -9999 -9999 -9999 -9999 -9999 -9999 -9999 3405 3438 3302 3123 2569 2536 2470 2501 2674 2440 2586 2502 2291 1962 2254 2176 2241 2473 2367 2118 2161 2004 1663 1573 1515 1411 1370 1285 1265 1276 1197 1275 1311 1345 1394 1432 1557 1640 1790 1747 1931 1959 2183 1870 1571 1560 1772 1985 1932 2156 2409 2480 2519 2815 2980 3056 3241 3190 3136 3034 2981 3061 2812 2627 2442 2802 3152 2994 2737 2548 2317 2194 1971 2129 2282 2457 2745 2599 2560 2676 2845 2701 2948 2874 2821 2827 3090 3278 3445 -9999 3438 3455 3297 3306 3632 3423 3309 3423 3858 3775 3415 3398 3694 3619 -9999 -9999 -9999 -9999 -9999 -9999 -9999 -9999 -9999 -9999 -9999 -9999 -9999 -9999 -9999 -9999 -9999 -9999 -9999 -9999 -9999 -9999 -9999 -9999 -9999 -9999 -9999 -9999 -9999 -9999 -9999 -9999 -9999 -9999 -9999 -9999 -9999 -9999 -9999 -9999 -9999 -9999 -9999 -9999 -9999 -9999 -9999 -9999 -9999 -9999 -9999 -9999 -9999 -9999 -9999 -9999 -9999 -9999 -9999 -9999 -9999 -9999 -9999 -9999 -9999 -9999 -9999 -9999 -9999 -9999 -9999 -9999
-9999 -9999 -9999 -9999 -9999 -9999 -9999 -9999 -9999 -9999 3469 3383 2999 2867 2726 2679 2327 2239 1938 2119 2211 2062 1931 2128 1931 1701 1917 1922 2108 2282 2150 1706 1682 1541 1440 1412 1353 1203 1206 1233 1261 1292 1327 1337 1377 1489 1684 1660 1757 1794 1879 2046 2164 2331 2233 1933 1787 1783 1685 1821 1951 1934 2136 2475 2625 2567 2583 2873 3111 3317 3497 3282 3163 3088 2735 2711 3146 2942 2783 2498 2329 2196 2150 2175 2334 2648 2631 2875 2875 2710 2994 3118 3099 3057 3234 3157 3148 3028 3243 3386 -9999 -9999 -9999 3460 3570 3595 3670 3413 3495 3833 3680 3559 3538 3617 -9999 -9999 -9999 -9999 -9999 -9999 -9999 -9999 -9999 -9999 -9999 -9999 -9999 -9999 -9999 -9999 -9999 -9999 -9999 -9999 -9999 -9999 -9999 -9999 -9999 -9999 -9999 -9999 -9999 -9999 -9999 -9999 -9999 -9999 -9999 -9999 -9999 -9999 -9999 -9999 -9999 -9999 -9999 -9999 -9999 -9999 -9999 -9999 -9999 -9999 -9999 -9999 -9999 -9999 -9999 -9999 -9999 -9999 -9999 -9999 -9999 -9999 -9999 -9999 -9999 -9999 -9999 -9999 -9999 -9999 -9999 -9999 -9999
-9999 -9999 -9999 -9999 -9999 -9999 -9999 -9999 -9999 -9999 3360 3201 3168 3132 3078 2700 2202 2060 1873 1750 1720 1784 1743 1599 1726 1580 1493 1822 1950 1835 1726 1610 1432 1375 1337 1313 1175 1239 1295 1306 1359 1358 1365 1389 1579 1741 1892 1724 1714 1854 2025 2162 2175 2438 2214 2065 2005 2098 1789 1799 1902 1936 1945 2205 2202 2434 2749 3069 3324 3452 3475 3353 3104 3067 2809 2900 3126 2913 2822 2739 2461 2234 2384 2391 2581 2913 3046 2926 3217 3030 3128 3272 3372 3277 3356 3371 3525 3358 3316 3359 -9999 -9999 -9999 -9999 -9999 -9999 -9999 -9999 3607 -9999 -9999 -9999 -9999 -9999 -9999 -9999 -9999 -9999 -9999 -9999 -9999 -9999 -9999 -9999 -9999 -9999 -9999 -9999 -9999 -9999 -9999 -9999 -9999 -9999 -9999 -9999 -9999 -9999 -9999 -9999 -9999 -9999 -9999 -9999 -9999 -9999 -9999 -9999 -9999 -9999 -9999 -9999 -9999 -9999 -9999 -9999 -9999 -9999 -9999 -9999 -9999 -9999 -9999 -9999 -9999 -9999 -9999 -9999 -9999 -9999 -9999 -9999 -9999 -9999 -9999 -9999 -9999 -9999 -9999 -9999 -9999 -9999 -9999 -9999 -9999 -9999 -9999
-9999 -9999 -9999 -9999 -9999 -9999 -9999 -9999 -9999 -9999 3459 3352 3149 3260 2981 2627 2530 2331 2204 2153 2011 1741 1814 1782 1742 1605 1405 1494 1524 1420 1484 1398 1390 1312 1244 1204 1199 1263 1352 1461 1421 1349 1473 1536 1671 1870 1943 1842 1858 1939 2187 2268 2356 2564 2521 2304 2404 2136 1986 2137 2016 1953 2118 1962 2319 2454 2746 2841 3229 3400 3309 3122 3229 3079 2943 3069 3358 3175 3119 2950 2566 2420 2507 2830 2851 3015 3190 3266 3263 3223 3275 -9999 -9999 -9999 -9999 -9999 3649 3436 3552 3444 -9999 -9999 -9999 -9999 -9999 -9999 -9999 -9999 -9999 -9999 -9999 -9999 -9999 -9999 -9999 -9999 -9999 -9999 -9999 -9999 -9999 -9999 -9999 -9999 -9999 -9999 -9999 -9999 -9999 -9999 -9999 -9999 -9999 -9999 -9999 -9999 -9999 -9999 -9999 -9999 -9999 -9999 -9999 -9999 -9999 -9999 -9999 -9999 -9999 -9999 -9999 -9999 -9999 -9999 -9999 -9999 -9999 -9999 -9999 -9999 -9999 -9999 -9999 -9999 -9999 -9999 -9999 -9999 -9999 -9999 -9999 -9999 -9999 -9999 -9999 -9999 -9999 -9999 -9999 -9999 -9999 -9999 -9999 -9999 -9999 -9999 -9999
-9999 -9999 -9999 -9999 -9999 -9999 -9999 -9999 3466 3394 3244 2918 2670 2646 2788 2916 2803 2868 2660 2381 2107 2191 2102 2086 2144 1712 1676 1427 1331 1280 1250 1231 1276 1268 1148 1160 1234 1278 1417 1466 1576 1509 1517 1656 1836 2093 1985 1945 2010 2185 2269 2328 2426 2682 2843 2732 2520 2350 2278 2144 2329 2293 2404 2143 2097 2167 2466 2843 3203 3257 3001 3003 3228 3321 3336 3302 3498 3396 3211 2914 2569 2702 2872 3021 3361 3338 3362 -9999 -9999 -9999 -9999 -9999 -9999 -9999 -9999 -9999 -9999 -9999 -9999 -9999 -9999 -9999 -9999 -9999 -9999 -9999 -9999 -9999 -9999 -9999 -9999 -9999 -9999 -9999 -9999 -9999 -9999 -9999 -9999 -9999 -9999 -9999 -9999 -9999 -9999 -9999 -9999 -9999 -9999 -9999 -9999 -9999 -9999 -9999 -9999 -9999 -9999 -9999 -9999 -9999 -9999 -9999 -9999 -9999 -9999 -9999 -9999 -9999 -9999 -9999 -9999 -9999 -9999 -9999 -9999 -9999 -9999 -9999 -9999 -9999 -9999 -9999 -9999 -9999 -9999 -9999 -9999 -9999 -9999 -9999 -9999 -9999 -9999 -9999 -9999 -9999 -9999 -9999 -9999 -9999 -9999 -9999 -9999 -9999 -9999 -9999 -9999
-9999 -9999 -9999 -9999 -9999 -9999 -9999 -9999 3277 3194 3028 2698 2475 2480 2562 2851 2678 2733 2711 2545 2342 2356 2308 2280 2158 1894 1829 1665 1447 1395 1380 1300 1185 1239 1196 1203 1246 1288 1363 1427 1536 1578 1507 1562 1748 1935 1991 2017 2109 2260 2424 2451 2530 2685 2955 2758 2588 2552 2361 2326 2281 2446 2569 2272 2137 2213 2445 2811 3096 3039 2845 3022 3182 3191 3406 3413 3444 3421 3230 2927 2624 2730 2903 3227 -9999 -9999 -9999 -9999 -9999 -9999 -9999 -9999 -9999 -9999 -9999 -9999 -9999 -9999 -9999 -9999 -9999 -9999 -9999 -9999 -9999 -9999 -9999 -9999 -9999 -9999 -9999 -9999 -9999 -9999 -9999 -9999 -9999 -9999 -9999 -9999 -9999 -9999 -9999 -9999 -9999 -9999 -9999 -9999 -9999 -9999 -9999 -9999 -9999 -9999 -9999 -9999 -9999 -9999 -9999 -9999 -9999 -9999 -9999 -9999 -9999 -9999 -9999 -9999 -9999 -9999 -9999 -9999 -9999 -9999 -9999 -9999 -9999 -9999 -9999 -9999 -9999 -9999 -9999 -9999 -9999 -9999 -9999 -9999 -9999 -9999 -9999 -9999 -9999 -9999 -9999 -9999 -9999 -9999 -9999 -9999 -9999 -9999 -9999 -9999 -9999 -9999 -9999
-9999 -9999 -9999 -9999 -9999 3295 3278 3228 3050 2816 2514 2407 2204 2134 2479 2677 2513 2322 2271 2502 2542 2363 2169 1906 2066 1831 1795 1763 1584 1433 1400 1310 1250 1241 1178 1210 1265 1313 1425 1489 1578 1639 1811 1862 1675 1684 1890 2069 2175 2542 2740 2756 2796 2973 3078 3005 2900 2908 2663 2528 2510 2580 2808 2538 2288 2288 2444 2457 2609 2616 2684 2845 2874 2955 3206 3494 3538 3440 3249 2968 2740 2919 3098 3299 -9999 -9999 -9999 -9999 -9999 -9999 -9999 -9999 -9999 -9999 -9999 -9999 -9999 -9999 -9999 -9999 -9999 -9999 -9999 -9999 -9999 -9999 -9999 -9999 -9999 -9999 -9999 -9999 -9999 -9999 -9999 -9999 -9999 -9999 -9999 -9999 -9999 -9999 -9999 -9999 -9999 -9999 -9999 -9999 -9999 -9999 -9999 -9999 -9999 -9999 -9999 -9999 -9999 -9999 -9999 -9999 -9999 -9999 -9999 -9999 -9999 -9999 -9999 -9999 -9999 -9999 -9999 -9999 -9999 -9999 -9999 -9999 -9999 -9999 -9999 -9999 -9999 -9999 -9999 -9999 -9999 -9999 -9999 -9999 -9999 -9999 -9999 -9999 -9999 -9999 -9999 -9999 -9999 -9999 -9999 -9999 -9999 -9999 -9999 -9999 -9999 -9999 -9999
-9999 -9999 -9999 -9999 -9999 3401 3115 2732 2593 2516 2476 2147 1959 1953 2324 2476 2497 2399 2000 2306 2423 2087 1952 1754 1709 1698 1682 1637 1495 1456 1427 1262 1222 1170 1168 1246 1294 1361 1463 1544 1689 1807 2033 2085 2128 1826 1838 1855 2035 2260 2491 2553 2607 2514 2789 3051 3176 3110 2978 2709 2654 2741 2936 2624 2485 2395 2380 2652 2420 2471 2527 2704 2957 3055 3202 3434 3696 3341 3192 3088 2931 2960 3047 3320 -9999 -9999 -9999 -9999 -9999 -9999 -9999 -9999 -9999 -9999 -9999 -9999 -9999 -9999 -9999 -9999 -9999 -9999 -9999 -9999 -9999 -9999 -9999 -9999 -9999 -9999 -9999 -9999 -9999 -9999 -9999 -9999 -9999 -9999 -9999 -9999 -9999 -9999 -9999 -9999 -9999 -9999 -9999 -9999 -9999 -9999 -9999 -9999 -9999 -9999 -9999 -9999 -9999 -9999 -9999 -9999 -9999 -9999 -9999 -9999 -9999 -9999 -9999 -9999 -9999 -9999 -9999 -9999 -9999 -9999 -9999 -9999 -9999 -9999 -9999 -9999 -9999 -9999 -9999 -9999 -9999 -9999 -9999 -9999 -9999 -9999 -9999 -9999 -9999 -9999 -9999 -9999 -9999 -9999 -9999 -9999 -9999 -9999 -9999 -9999 -9999 -9999 -9999
-9999 -9999 -9999 -9999 -9999 3202 3131 2773 2365 2236 2067 2235 1895 1763 1989 2174 2471 2484 1967 1953 2202 2042 1879 1586 1448 1429 1390 1583 1356 1231 1201 1181 1109 1231 1269 1295 1287 1366 1422 1463 1633 1933 2302 2368 2441 2286 2231 1995 1814 1958 2089 2229 2224 2472 2732 3085 3218 3382 3145 2930 2858 2922 3080 2955 2706 2767 2808 2634 2466 2516 2689 2650 2854 2987 3121 3267 3524 3440 3344 3180 3093 3233 3223 -9999 -9999 -9999 -9999 -9999 -9999 -9999 -9999 -9999 -9999 -9999 -9999 -9999 -9999 -9999 -9999 -9999 -9999 -9999 -9999 -9999 -9999 -9999 -9999 -9999 -9999 -9999 -9999 -9999 -9999 -9999 -9999 -9999 -9999 -9999 -9999 -9999 -9999 -9999 -9999 -9999 -9999 -9999 -9999 -9999 -9999 -9999 -9999 -9999 -9999 -9999 -9999 -9999 -9999 -9999 -9999 -9999 -9999 -9999 -9999 -9999 -9999 -9999 -9999 -9999 -9999 -9999 -9999 -9999 -9999 -9999 -9999 -9999 -9999 -9999 -9999 -9999 -9999 -9999 -9999 -9999 -9999 -9999 -9999 -9999 -9999 -9999 -9999 -9999 -9999 -9999 -9999 -9999 -9999 -9999 -9999 -9999 -9999 -9999 -9999 -9999 -9999 -9999 -9999
-9999 -9999 -9999 3173 3303 3284 3066 2691 2385 2188 1950 2021 1864 1701 1834 2052 2216 2171 2003 1784 2134 2019 1862 1668 1564 1362 1325 1481 1335 1174 1130 1109 1201 1242 1284 1319 1328 1260 1442 1496 1800 2071 2381 2455 2416 2446 2430 2162 1932 1994 2105 2172 2205 2431 2717 2954 3031 3238 3234 3024 2952 3018 3155 3005 2997 3008 2871 2576 2532 2650 2800 2728 2849 2917 3017 3187 3430 3581 3415 3198 3137 3342 -9999 -9999 -9999 -9999 -9999 -9999 -9999 -9999 -9999 -9999 -9999 -9999 -9999 -9999 -9999 -9999 -9999 -9999 -9999 -9999 -9999 -9999 -9999 -9999 -9999 -9999 -9999 -9999 -9999 -9999 -9999 -9999 -9999 -9999 -9999 -9999 -9999 -9999 -9999 -9999 -9999 -9999 -9999 -9999 -9999 -9999 -9999 -9999 -9999 -9999 -9999 -9999 -9999 -9999 -9999 -9999 -9999 -9999 -9999 -9999 -9999 -9999 -9999 -9999 -9999 -9999 -9999 -9999 -9999 -9999 -9999 -9999 -9999 -9999 -9999 -9999 -9999 -9999 -9999 -9999 -9999 -9999 -9999 -9999 -9999 -9999 -9999 -9999 -9999 -9999 -9999 -9999 -9999 -9999 -9999 -9999 -9999 -9999 -9999 -9999 -9999 -9999 -9999 -9999 -9999
-9999 -9999 3317 3155 2885 2809 2597 2383 2121 2200 2104 1810 1658 1699 1827 2050 2093 1939 1838 1636 2000 1814 1713 1594 1509 1399 1369 1269 1251 1115 1095 1207 1241 1297 1446 1500 1537 1659 1424 1394 1666 1844 2016 2343 2538 2680 2767 2549 2352 2257 2334 2613 2612 2465 2629 2717 2734 2989 3286 3331 3370 3355 3378 3357 3096 2951 2725 2662 2878 2909 2885 2989 2997 3000 2899 3203 3411 3519 3580 3263 3256 3534 -9999 -9999 -9999 -9999 -9999 -9999 -9999 -9999 -9999 -9999 -9999 -9999 -9999 -9999 -9999 -9999 -9999 -9999 -9999 -9999 -9999 -9999 -9999 -9999 -9999 -9999 -9999 -9999 -9999 -9999 -9999 -9999 -9999 -9999 -9999 -9999 -9999 -9999 -9999 -9999 -9999 -9999 -9999 -9999 -9999 -9999 -9999 -9999 -9999 -9999 -9999 -9999 -9999 -9999 -9999 -9999 -9999 -9999 -9999 -9999 -9999 -9999 -9999 -9999 -9999 -9999 -9999 -9999 -9999 -9999 -9999 -9999 -9999 -9999 -9999 -9999 -9999 -9999 -9999 -9999 -9999 -9999 -9999 -9999 -9999 -9999 -9999 -9999 -9999 -9999 -9999 -9999 -9999 -9999 -9999 -9999 -9999 -9999 -9999 -9999 -9999 -9999 -9999 -9999 -9999
-9999 -9999 3247 3022 2581 2454 2253 2107 2056 1963 1785 1964 1935 1757 1706 1781 1851 1877 1690 1576 1835 1782 1670 1506 1542 1427 1351 1306 1209 1086 1204 1252 1355 1485 1594 1803 1925 1935 1954 1815 1432 1623 1939 2112 2586 2903 2820 2680 2570 2623 2620 2838 3085 2794 2840 3200 3239 3281 3301 3609 3520 -9999 3365 3176 2971 2911 2922 2872 2950 3086 3135 3126 3231 3269 3059 3020 3142 3347 3459 3666 -9999 -9999 -9999 -9999 -9999 -9999 -9999 -9999 -9999 -9999 -9999 -9999 -9999 -9999 -9999 -9999 -9999 -9999 -9999 -9999 -9999 -9999 -9999 -9999 -9999 -9999 -9999 -9999 -9999 -9999 -9999 -9999 -9999 -9999 -9999 -9999 -9999 -9999 -9999 -9999 -9999 -9999 -9999 -9999 -9999 -9999 -9999 -9999 -9999 -9999 -9999 -9999 -9999 -9999 -9999 -9999 -9999 -9999 -9999 -9999 -9999 -9999 -9999 -9999 -9999 -9999 -9999 -9999 -9999 -9999 -9999 -9999 -9999 -9999 -9999 -9999 -9999 -9999 -9999 -9999 -9999 -9999 -9999 -9999 -9999 -9999 -9999 -9999 -9999 -9999 -9999 -9999 -9999 -9999 -9999 -9999 -9999 -9999 -9999 -9999 -9999 -9999 -9999 -9999 -9999 -9999 -9999
-9999 -9999 -9999 3067 2701 2588 2250 2050 1908 1864 1703 1634 1734 1737 1613 1483 1538 1602 1649 1395 1699 1709 1546 1443 1395 1418 1270 1136 1079 1234 1363 1561 1813 1917 1597 1582 1920 2332 2334 2084 1738 1645 1657 1849 2230 2539 2353 2267 2240 2547 3094 3204 3356 3186 3245 3300 3422 3485 3371 -9999 -9999 -9999 -9999 3154 3199 3171 3038 3089 2967 3031 3309 3284 3493 3417 3263 3198 3216 3285 3351 3537 -9999 -9999 -9999 -9999 -9999 -9999 -9999 -9999 -9999 -9999 -9999 -9999 -9999 -9999 -9999 -9999 -9999 -9999 -9999 -9999 -9999 -9999 -9999 -9999 -9999 -9999 -9999 -9999 -9999 -9999 -9999 -9999 -9999 -9999 -9999 -9999 -9999 -9999 -9999 -9999 -9999 -9999 -9999 -9999 -9999 -9999 -9999 -9999 -9999 -9999 -9999 -9999 -9999 -9999 -9999 -9999 -9999 -9999 -9999 -9999 -9999 -9999 -9999 -9999 -9999 -9999 -9999 -9999 -9999 -9999 -9999 -9999 -9999 -9999 -9999 -9999 -9999 -9999 -9999 -9999 -9999 -9999 -9999 -9999 -9999 -9999 -9999 -9999 -9999 -9999 -9999 -9999 -9999 -9999 -9999 -9999 -9999 -9999 -9999 -9999 -9999 -9999 -9999 -9999 -9999 -9999 -9999
-9999 -9999 3240 3230 2710 2564 2363 2193 2080 1962 1977 1651 1527 1519 1491 1334 1370 1473 1571 1318 1644 1523 1454 1435 1357 1265 1170 1086 1210 1435 1555 1704 1877 1986 1557 1652 2011 2397 2293 2242 2059 2060 1654 1770 2087 2242 2015 2134 2340 2751 3082 3350 3486 3304 3541 3477 3464 3469 3456 -9999 -9999 -9999 -9999 -9999 -9999 3308 3143 3220 3079 -9999 -9999 -9999 -9999 -9999 -9999 3273 3277 3311 3411 -9999 -9999 -9999 -9999 -9999 -9999 -9999 -9999 -9999 -9999 -9999 -9999 -9999 -9999 -9999 -9999 -9999 -9999 -9999 -9999 -9999 -9999 -9999 -9999 -9999 -9999 -9999 -9999 -9999 -9999 -9999 -9999 -9999 -9999 -9999 -9999 -9999 -9999 -9999 -9999 -9999 -9999 -9999 -9999 -9999 -9999 -9999 -9999 -9999 -9999 -9999 -9999 -9999 -9999 -9999 -9999 -9999 -9999 -9999 -9999 -9999 -9999 -9999 -9999 -9999 -9999 -9999 -9999 -9999 -9999 -9999 -9999 -9999 -9999 -9999 -9999 -9999 -9999 -9999 -9999 -9999 -9999 -9999 -9999 -9999 -9999 -9999 -9999 -9999 -9999 -9999 -9999 -9999 -9999 -9999 -9999 -9999 -9999 -9999 -9999 -9999 -9999 -9999 -9999 -9999 -9999 -9999 -9999
3252 3222 3368 3219 2910 2890 2634 2381 2201 2183 2130 2004 1840 1881 1783 1680 1431 1305 1225 1240 1469 1386 1313 1272 1209 1179 1054 1216 1346 1568 1732 2050 2108 1920 1615 1687 1886 2162 2398 2402 2631 2175 1886 1774 1711 1819 2041 2483 2622 2841 2841 3024 3164 3172 3157 3088 3103 3307 -9999 -9999 -9999 -9999 -9999 -9999 -9999 -9999 -9999 -9999 -9999 -9999 -9999 -9999 -9999 -9999 -9999 -9999 3445 3423 -9999 -9999 -9999 -9999 -9999 -9999 -9999 -9999 -9999 -9999 -9999 -9999 -9999 -9999 -9999 -9999 -9999 -9999 -9999 -9999 -9999 -9999 -9999 -9999 -9999 -9999 -9999 -9999 -9999 -9999 -9999 -9999 -9999 -9999 -9999 -9999 -9999 -9999 -9999 -9999 -9999 -9999 -9999 -9999 -9999 -9999 -9999 -9999 -9999 -9999 -9999 -9999 -9999 -9999 -9999 -9999 -9999 -9999 -9999 -9999 -9999 -9999 -9999 -9999 -9999 -9999 -9999 -9999 -9999 -9999 -9999 -9999 -9999 -9999 -9999 -9999 -9999 -9999 -9999 -9999 -9999 -9999 -9999 -9999 -9999 -9999 -9999 -9999 -9999 -9999 -9999 -9999 -9999 -9999 -9999 -9999 -9999 -9999 -9999 -9999 -9999 -9999 -9999 -9999 -9999 -9999 -9999 -9999 -9999
-9999 3272 3102 2850 2505 2334 2311 2166 1883 1819 2061 2122 2229 2291 2112 1987 1820 1679 1423 1214 1220 1253 1210 1182 1057 1206 1359 1496 1684 2013 2145 2095 1886 1861 1762 1803 1967 2193 2300 2367 2639 2713 2367 2136 1994 1935 1876 2047 2191 2446 2529 2665 2666 2731 2988 3110 -9999 -9999 -9999 -9999 -9999 -9999 -9999 -9999 -9999 -9999 -9999 -9999 -9999 -9999 -9999 -9999 -9999 -9999 -9999 -9999 -9999 -9999 -9999 -9999 -9999 -9999 -9999 -9999 -9999 -9999 -9999 -9999 -9999 -9999 -9999 -9999 -9999 -9999 -9999 -9999 -9999 -9999 -9999 -9999 -9999 -9999 -9999 -9999 -9999 -9999 -9999 -9999 -9999 -9999 -9999 -9999 -9999 -9999 -9999 -9999 -9999 -9999 -9999 -9999 -9999 -9999 -9999 -9999 -9999 -9999 -9999 -9999 -9999 -9999 -9999 -9999 -9999 -9999 -9999 -9999 -9999 -9999 -9999 -9999 -9999 -9999 -9999 -9999 -9999 -9999 -9999 -9999 -9999 -9999 -9999 -9999 -9999 -9999 -9999 -9999 -9999 -9999 -9999 -9999 -9999 -9999 -9999 -9999 -9999 -9999 -9999 -9999 -9999 -9999 -9999 -9999 -9999 -9999 -9999 -9999 -9999 -9999 -9999 -9999 -9999 -9999 -9999 -9999 -9999 -9999 -9999
-9999 3265 2982 2646 2583 2506 2075 1807 1603 1563 1523 1618 1969 2012 1997 1787 1535 1459 1351 1293 1237 1100 1184 1025 1357 1615 1757 1950 2029 1898 1827 1708 1723 1809 1917 2025 2214 2101 2498 2638 2700 2934 2759 2681 2377 2009 2358 2547 2332 2277 2407 2633 2808 3095 -9999 -9999 -9999 -9999 -9999 -9999 -9999 -9999 -9999 -9999 -9999 -9999 -9999 -9999 -9999 -9999 -9999 -9999 -9999 -9999 -9999 -9999 -9999 -9999 -9999 -9999 -9999 -9999 -9999 -9999 -9999 -9999 -9999 -9999 -9999 -9999 -9999 -9999 -9999 -9999 -9999 -9999 -9999 -9999 -9999 -9999 -9999 -9999 -9999 -9999 -9999 -9999 -9999 -9999 -9999 -9999 -9999 -9999 -9999 -9999 -9999 -9999 -9999 -9999 -9999 -9999 -9999 -9999 -9999 -9999 -9999 -9999 -9999 -9999 -9999 -9999 -9999 -9999 -9999 -9999 -9999 -9999 -9999 -9999 -9999 -9999 -9999 -9999 -9999 -9999 -9999 -9999 -9999 -9999 -9999 -9999 -9999 -9999 -9999 -9999 -9999 -9999 -9999 -9999 -9999 -9999 -9999 -9999 -9999 -9999 -9999 -9999 -9999 -9999 -9999 -9999 -9999 -9999 -9999 -9999 -9999 -9999 -9999 -9999 -9999 -9999 -9999 -9999 -9999 -9999 -9999 -9999 -9999
-9999 3203 3109 2738 2364 2185 1986 2069 2237 2038 1609 1401 1594 1637 1752 1583 1336 1243 1221 1179 1106 1015 1091 1321 1563 1734 1915 1779 1576 1510 1519 1609 1700 1874 2048 2176 2432 2464 2346 2473 2760 3087 3095 2913 2537 2121 2377 2648 2526 2471 2709 2988 3173 -9999 -9999 -9999 -9999 -9999 -9999 -9999 -9999 -9999 -9999 -9999 -9999 -9999 -9999 -9999 -9999 -9999 -9999 -9999 -9999 -9999 -9999 -9999 -9999 -9999 -9999 -9999 -9999 -9999 -9999 -9999 -9999 -9999 -9999 -9999 -9999 -9999 -9999 -9999 -9999 -9999 -9999 -9999 -9999 -9999 -9999 -9999 -9999 -9999 -9999 -9999 -9999 -9999 -9999 -9999 -9999 -9999 -9999 -9999 -9999 -9999 -9999 -9999 -9999 -9999 -9999 -9999 -9999 -9999 -9999 -9999 -9999 -9999 -9999 -9999 -9999 -9999 -9999 -9999 -9999 -9999 -9999 -9999 -9999 -9999 -9999 -9999 -9999 -9999 -9999 -9999 -9999 -9999 -9999 -9999 -9999 -9999 -9999 -9999 -9999 -9999 -9999 -9999 -9999 -9999 -9999 -9999 -9999 -9999 -9999 -9999 -9999 -9999 -9999 -9999 -9999 -9999 -9999 -9999 -9999 -9999 -9999 -9999 -9999 -9999 -9999 -9999 -9999 -9999 -9999 -9999 -9999 -9999 -9999
-9999 3277 2938 2588 2415 2389 2239 2240 2384 2267 1931 1522 1312 1341 1563 1415 1286 1234 1147 1074 1065 1114 1217 1160 1320 1676 1696 1574 1447 1482 1538 1610 1731 1938 2114 2239 2558 2688 2584 2534 2715 3171 3011 2891 2552 2228 2301 2558 2613 2636 2913 -9999 -9999 -9999 -9999 -9999 -9999 -9999 -9999 -9999 -9999 -9999 -9999 -9999 -9999 -9999 -9999 -9999 -9999 -9999 -9999 -9999 -9999 -9999 -9999 -9999 -9999 -9999 -9999 -9999 -9999 -9999 -9999 -9999 -9999 -9999 -9999 -9999 -9999 -9999 -9999 -9999 -9999 -9999 -9999 -9999 -9999 -9999 -9999 -9999 -9999 -9999 -9999 -9999 -9999 -9999 -9999 -9999 -9999 -9999 -9999 -9999 -9999 -9999 -9999 -9999 -9999 -9999 -9999 -9999 -9999 -9999 -9999 -9999 -9999 -9999 -9999 -9999 -9999 -9999 -9999 -9999 -9999 -9999 -9999 -9999 -9999 -9999 -9999 -9999 -9999 -9999 -9999 -9999 -9999 -9999 -9999 -9999 -9999 -9999 -9999 -9999 -9999 -9999 -9999 -9999 -9999 -9999 -9999 -9999 -9999 -9999 -9999 -9999 -9999 -9999 -9999 -9999 -9999 -9999 -9999 -9999 -9999 -9999 -9999 -9999 -9999 -9999 -9999 -9999 -9999 -9999 -9999 -9999 -9999 -9999 -9999
-9999 3180 -9999 2914 2811 2701 2664 2582 2449 2347 2168 1841 1509 1345 1361 1216 1131 1084 1027 1099 1197 1381 1569 1552 1417 1270 1254 1334 1389 1455 1544 1714 1886 2085 2302 2407 2669 2907 3226 3183 2801 3190 2868 2717 2474 2594 2787 3009 2999 3025 -9999 -9999 -9999 -9999 -9999 -9999 -9999 -9999 -9999 -9999 -9999 -9999 -9999 -9999 -9999 -9999 -9999 -9999 -9999 -9999 -9999 -9999 -9999 -9999 -9999 -9999 -9999 -9999 -9999 -9999 -9999 -9999 -9999 -9999 -9999 -9999 -9999 -9999 -9999 -9999 -9999 -9999 -9999 -9999 -9999 -9999 -9999 -9999 -9999 -9999 -9999 -9999 -9999 -9999 -9999 -9999 -9999 -9999 -9999 -9999 -9999 -9999 -9999 -9999 -9999 -9999 -9999 -9999 -9999 -9999 -9999 -9999 -9999 -9999 -9999 -9999 -9999 -9999 -9999 -9999 -9999 -9999 -9999 -9999 -9999 -9999 -9999 -9999 -9999 -9999 -9999 -9999 -9999 -9999 -9999 -9999 -9999 -9999 -9999 -9999 -9999 -9999 -9999 -9999 -9999 -9999 -9999 -9999 -9999 -9999 -9999 -9999 -9999 -9999 -9999 -9999 -9999 -9999 -9999 -9999 -9999 -9999 -9999 -9999 -9999 -9999 -9999 -9999 -9999 -9999 -9999 -9999 -9999 -9999 -9999 -9999 -9999
-9999 -9999 -9999 3043 2786 2660 2479 2447 2224 2116 1835 1869 1763 1541 1187 1048 1005 1132 1199 1261 1387 1676 1773 1969 1629 1479 1421 1415 1421 1553 1649 1829 2067 2295 2505 2612 2927 3142 3279 3142 2926 3242 3097 2948 2875 3057 3120 3270 3235 -9999 -9999 -9999 -9999 -9999 -9999 -9999 -9999 -9999 -9999 -9999 -9999 -9999 -9999 -9999 -9999 -9999 -9999 -9999 -9999 -9999 -9999 -9999 -9999 -9999 -9999 -9999 -9999 -9999 -9999 -9999 -9999 -9999 -9999 -9999 -9999 -9999 -9999 -9999 -9999 -9999 -9999 -9999 -9999 -9999 -9999 -9999 -9999 -9999 -9999 -9999 -9999 -9999 -9999 -9999 -9999 -9999 -9999 -9999 -9999 -9999 -9999 -9999 -9999 -9999 -9999 -9999 -9999 -9999 -9999 -9999 -9999 -9999 -9999 -9999 -9999 -9999 -9999 -9999 -9999 -9999 -9999 -9999 -9999 -9999 -9999 -9999 -9999 -9999 -9999 -9999 -9999 -9999 -9999 -9999 -9999 -9999 -9999 -9999 -9999 -9999 -9999 -9999 -9999 -9999 -9999 -9999 -9999 -9999 -9999 -9999 -9999 -9999 -9999 -9999 -9999 -9999 -9999 -9999 -9999 -9999 -9999 -9999 -9999 -9999 -9999 -9999 -9999 -9999 -9999 -9999 -9999 -9999 -9999 -9999 -9999 -9999 -9999
-9999 -9999 -9999 2762 2345 2214 2189 2065 1991 1794 1698 1468 1441 1282 1114 1000 1131 1173 1397 1515 1686 1942 2064 1861 1640 1553 1535 1520 1643 1687 1543 1585 1958 2195 2454 2460 2721 2765 2978 3145 3099 3186 3343 3214 3125 3253 -9999 -9999 -9999 -9999 -9999 -9999 -9999 -9999 -9999 -9999 -9999 -9999 -9999 -9999 -9999 -9999 -9999 -9999 -9999 -9999 -9999 -9999 -9999 -9999 -9999 -9999 -9999 -9999 -9999 -9999 -9999 -9999 -9999 -9999 -9999 -9999 -9999 -9999 -9999 -9999 -9999 -9999 -9999 -9999 -9999 -9999 -9999 -9999 -9999 -9999 -9999 -9999 -9999 -9999 -9999 -9999 -9999 -9999 -9999 -9999 -9999 -9999 -9999 -9999 -9999 -9999 -9999 -9999 -9999 -9999 -9999 -9999 -9999 -9999 -9999 -9999 -9999 -9999 -9999 -9999 -9999 -9999 -9999 -9999 -9999 -9999 -9999 -9999 -9999 -9999 -9999 -9999 -9999 -9999 -9999 -9999 -9999 -9999 -9999 -9999 -9999 -9999 -9999 -9999 -9999 -9999 -9999 -9999 -9999 -9999 -9999 -9999 -9999 -9999 -9999 -9999 -9999 -9999 -9999 -9999 -9999 -9999 -9999 -9999 -9999 -9999 -9999 -9999 -9999 -9999 -9999 -9999 -9999 -9999 -9999 -9999 -9999 -9999 -9999 -9999 -9999
-9999 -9999 2879 2689 2262 2100 1864 1794 1986 1897 1566 1415 1286 1174 1021 1031 1147 1217 1471 1635 1837 2107 2208 1866 1703 1593 1611 1610 1714 1880 1869 1744 1652 2032 2272 2310 2497 2583 2906 3070 3230 3200 3456 3478 3209 3395 -9999 -9999 -9999 -9999 -9999 -9999 -9999 -9999 -9999 -9999 -9999 -9999 -9999 -9999 -9999 -9999 -9999 -9999 -9999 -9999 -9999 -9999 -9999 -9999 -9999 -9999 -9999 -9999 -9999 -9999 -9999 -9999 -9999 -9999 -9999 -9999 -9999 -9999 -9999 -9999 -9999 -9999 -9999 -9999 -9999 -9999 -9999 -9999 -9999 -9999 -9999 -9999 -9999 -9999 -9999 -9999 -9999 -9999 -9999 -9999 -9999 -9999 -9999 -9999 -9999 -9999 -9999 -9999 -9999 -9999 -9999 -9999 -9999 -9999 -9999 -9999 -9999 -9999 -9999 -9999 -9999 -9999 -9999 -9999 -9999 -9999 -9999 -9999 -9999 -9999 -9999 -9999 -9999 -9999 -9999 -9999 -9999 -9999 -9999 -9999 -9999 -9999 -9999 -9999 -9999 -9999 -9999 -9999 -9999 -9999 -9999 -9999 -9999 -9999 -9999 -9999 -9999 -9999 -9999 -9999 -9999 -9999 -9999 -9999 -9999 -9999 -9999 -9999 -9999 -9999 -9999 -9999 -9999 -9999 -9999 -9999 -9999 -9999 -9999 -9999 -9999
-9999 -9999 2754 2551 2494 2453 2086 1667 1539 1633 1405 1218 1046 970 1063 1110 1202 1260 1343 1524 1840 2019 2232 2277 2129 1949 1974 1993 2042 2264 2324 2373 1937 1763 1932 2012 2213 2610 2994 3130 3489 3358 -9999 -9999 -9999 -9999 -9999 -9999 -9999 -9999 -9999 -9999 -9999 -9999 -9999 -9999 -9999 -9999 -9999 -9999 -9999 -9999 -9999 -9999 -9999 -9999 -9999 -9999 -9999 -9999 -9999 -9999 -9999 -9999 -9999 -9999 -9999 -9999 -9999 -9999 -9999 -9999 -9999 -9999 -9999 -9999 -9999 -9999 -9999 -9999 -9999 -9999 -9999 -9999 -9999 -9999 -9999 -9999 -9999 -9999 -9999 -9999 -9999 -9999 -9999 -9999 -9999 -9999 -9999 -9999 -9999 -9999 -9999 -9999 -9999 -9999 -9999 -9999 -9999 -9999 -9999 -9999 -9999 -9999 -9999 -9999 -9999 -9999 -9999 -9999 -9999 -9999 -9999 -9999 -9999 -9999 -9999 -9999 -9999 -9999 -9999 -9999 -9999 -9999 -9999 -9999 -9999 -9999 -9999 -9999 -9999 -9999 -9999 -9999 -9999 -9999 -9999 -9999 -9999 -9999 -9999 -9999 -9999 -9999 -9999 -9999 -9999 -9999 -9999 -9999 -9999 -9999 -9999 -9999 -9999 -9999 -9999 -9999 -9999 -9999 -9999 -9999 -9999 -9999 -9999 -9999 -9999
-9999 -9999 2300 1871 2015 2024 1827 1670 1251 1252 1166 1115 963 1056 1151 1234 1208 1134 1206 1518 1902 2270 2446 2388 2152 2155 2185 2296 2362 2420 2545 2424 2166 2217 2003 2220 2398 2546 2854 2993 3425 3442 -9999 -9999 -9999 -9999 -9999 -9999 -9999 -9999 -9999 -9999 -9999 -9999 -9999 -9999 -9999 -9999 -9999 -9999 -9999 -9999 -9999 -9999 -9999 -9999 -9999 -9999 -9999 -9999 -9999 -9999 -9999 -9999 -9999 -9999 -9999 -9999 -9999 -9999 -9999 -9999 -9999 -9999 -9999 -9999 -9999 -9999 -9999 -9999 -9999 -9999 -9999 -9999 -9999 -9999 -9999 -9999 -9999 -9999 -9999 -9999 -9999 -9999 -9999 -9999 -9999 -9999 -9999 -9999 -9999 -9999 -9999 -9999 -9999 -9999 -9999 -9999 -9999 -9999 -9999 -9999 -9999 -9999 -9999 -9999 -9999 -9999 -9999 -9999 -9999 -9999 -9999 -9999 -9999 -9999 -9999 -9999 -9999 -9999 -9999 -9999 -9999 -9999 -9999 -9999 -9999 -9999 -9999 -9999 -9999 -9999 -9999 -9999 -9999 -9999 -9999 -9999 -9999 -9999 -9999 -9999 -9999 -9999 -9999 -9999 -9999 -9999 -9999 -9999 -9999 -9999 -9999 -9999 -9999 -9999 -9999 -9999 -9999 -9999 -9999 -9999 -9999 -9999 -9999 -9999 -9999
-9999 -9999 -9999 1874 1574 1607 1546 1293 1156 1096 1108 979 1025 1085 1347 1493 1607 1587 1378 1324 1747 2037 2167 2368 2331 2488 2535 2725 2920 2817 2912 2968 2503 2568 2283 2231 2586 2915 2946 3065 -9999 -9999 -9999 -9999 -9999 -9999 -9999 -9999 -9999 -9999 -9999 -9999 -9999 -9999 -9999 -9999 -9999 -9999 -9999 -9999 -9999 -9999 -9999 -9999 -9999 -9999 -9999 -9999 -9999 -9999 -9999 -9999 -9999 -9999 -9999 -9999 -9999 -9999 -9999 -9999 -9999 -9999 -9999 -9999 -9999 -9999 -9999 -9999 -9999 -9999 -9999 -9999 -9999 -9999 -9999 -9999 -9999 -9999 -9999 -9999 -9999 -9999 -9999 -9999 -9999 -9999 -9999 -9999 -9999 -9999 -9999 -9999 -9999 -9999 -9999 -9999 -9999 -9999 -9999 -9999 -9999 -9999 -9999 -9999 -9999 -9999 -9999 -9999 -9999 -9999 -9999 -9999 -9999 -9999 -9999 -9999 -9999 -9999 -9999 -9999 -9999 -9999 -9999 -9999 -9999 -9999 -9999 -9999 -9999 -9999 -9999 -9999 -9999 -9999 -9999 -9999 -9999 -9999 -9999 -9999 -9999 -9999 -9999 -9999 -9999 -9999 -9999 -9999 -9999 -9999 -9999 -9999 -9999 -9999 -9999 -9999 -9999 -9999 -9999 -9999 -9999 -9999 -9999 -9999 -9999 -9999 -9999
-9999 -9999 -9999 1789 1413 1323 1259 1149 1079 1040 958 1024 1118 1201 1436 1678 1827 1862 1540 1196 1635 1863 2060 2172 2209 2258 2390 2669 2956 3100 3219 3032 2803 2600 2491 2433 2555 2917 3089 3103 -9999 -9999 -9999 -9999 -9999 -9999 -9999 -9999 -9999 -9999 -9999 -9999 -9999 -9999 -9999 -9999 -9999 -9999 -9999 -9999 -9999 -9999 -9999 -9999 -9999 -9999 -9999 -9999 -9999 -9999 -9999 -9999 -9999 -9999 -9999 -9999 -9999 -9999 -9999 -9999 -9999 -9999 -9999 -9999 -9999 -9999 -9999 -9999 -9999 -9999 -9999 -9999 -9999 -9999 -9999 -9999 -9999 -9999 -9999 -9999 -9999 -9999 -9999 -9999 -9999 -9999 -9999 -9999 -9999 -9999 -9999 -9999 -9999 -9999 -9999 -9999 -9999 -9999 -9999 -9999 -9999 -9999 -9999 -9999 -9999 -9999 -9999 -9999 -9999 -9999 -9999 -9999 -9999 -9999 -9999 -9999 -9999 -9999 -9999 -9999 -9999 -9999 -9999 -9999 -9999 -9999 -9999 -9999 -9999 -9999 -9999 -9999 -9999 -9999 -9999 -9999 -9999 -9999 -9999 -9999 -9999 -9999 -9999 -9999 -9999 -9999 -9999 -9999 -9999 -9999 -9999 -9999 -9999 -9999 -9999 -9999 -9999 -9999 -9999 -9999 -9999 -9999 -9999 -9999 -9999 -9999 -9999
-9999 -9999 -9999 -9999 1273 1188 1086 1040 968 964 1164 1284 1373 1481 1849 1987 2228 2070 1613 1487 1283 1484 1577 1708 1796 2049 2230 2523 2617 2881 3012 3249 3106 3101 2859 2823 2786 3479 -9999 -9999 -9999 -9999 -9999 -9999 -9999 -9999 -9999 -9999 -9999 -9999 -9999 -9999 -9999 -9999 -9999 -9999 -9999 -9999 -9999 -9999 -9999 -9999 -9999 -9999 -9999 -9999 -9999 -9999 -9999 -9999 -9999 -9999 -9999 -9999 -9999 -9999 -9999 -9999 -9999 -9999 -9999 -9999 -9999 -9999 -9999 -9999 -9999 -9999 -9999 -9999 -9999 -9999 -9999 -9999 -9999 -9999 -9999 -9999 -9999 -9999 -9999 -9999 -9999 -9999 -9999 -9999 -9999 -9999 -9999 -9999 -9999 -9999 -9999 -9999 -9999 -9999 -9999 -9999 -9999 -9999 -9999 -9999 -9999 -9999 -9999 -9999 -9999 -9999 -9999 -9999 -9999 -9999 -9999 -9999 -9999 -9999 -9999 -9999 -9999 -9999 -9999 -9999 -9999 -9999 -9999 -9999 -9999 -9999 -9999 -9999 -9999 -9999 -9999 -9999 -9999 -9999 -9999 -9999 -9999 -9999 -9999 -9999 -9999 -9999 -9999 -9999 -9999 -9999 -9999 -9999 -9999 -9999 -9999 -9999 -9999 -9999 -9999 -9999 -9999 -9999 -9999 -9999 -9999 -9999 -9999 -9999 -9999
-9999 -9999 -9999 -9999 950 970 936 1009 1139 1201 1393 1386 1789 1845 2101 2399 2588 2607 2416 2196 2012 1547 1409 1885 1802 2012 2039 2186 2508 2856 2992 3146 3326 3427 3239 3231 3138 3340 -9999 -9999 -9999 -9999 -9999 -9999 -9999 -9999 -9999 -9999 -9999 -9999 -9999 -9999 -9999 -9999 -9999 -9999 -9999 -9999 -9999 -9999 -9999 -9999 -9999 -9999 -9999 -9999 -9999 -9999 -9999 -9999 -9999 -9999 -9999 -9999 -9999 -9999 -9999 -9999 -9999 -9999 -9999 -9999 -9999 -9999 -9999 -9999 -9999 -9999 -9999 -9999 -9999 -9999 -9999 -9999 -9999 -9999 -9999 -9999 -9999 -9999 -9999 -9999 -9999 -9999 -9999 -9999 -9999 -9999 -9999 -9999 -9999 -9999 -9999 -9999 -9999 -9999 -9999 -9999 -9999 -9999 -9999 -9999 -9999 -9999 -9999 -9999 -9999 -9999 -9999 -9999 -9999 -9999 -9999 -9999 -9999 -9999 -9999 -9999 -9999 -9999 -9999 -9999 -9999 -9999 -9999 -9999 -9999 -9999 -9999 -9999 -9999 -9999 -9999 -9999 -9999 -9999 -9999 -9999 -9999 -9999 -9999 -9999 -9999 -9999 -9999 -9999 -9999 -9999 -9999 -9999 -9999 -9999 -9999 -9999 -9999 -9999 -9999 -9999 -9999 -9999 -9999 -9999 -9999 -9999 -9999 -9999 -9999
-9999 -9999 -9999 -9999 -9999 1091 1151 1322 1428 1510 1722 1592 1605 1694 1989 2294 2419 2390 2381 2390 1982 1676 1752 2051 2292 2401 2383 2139 2465 2443 2524 2723 2893 3090 3432 3545 3500 -9999 -9999 -9999 -9999 -9999 -9999 -9999 -9999 -9999 -9999 -9999 -9999 -9999 -9999 -9999 -9999 -9999 -9999 -9999 -9999 -9999 -9999 -9999 -9999 -9999 -9999 -9999 -9999 -9999 -9999 -9999 -9999 -9999 -9999 -9999 -9999 -9999 -9999 -9999 -9999 -9999 -9999 -9999 -9999 -9999 -9999 -9999 -9999 -9999 -9999 -9999 -9999 -9999 -9999 -9999 -9999 -9999 -9999 -9999 -9999 -9999 -9999 -9999 -9999 -9999 -9999 -9999 -9999 -9999 -9999 -9999 -9999 -9999 -9999 -9999 -9999 -9999 -9999 -9999 -9999 -9999 -9999 -9999 -9999 -9999 -9999 -9999 -9999 -9999 -9999 -9999 -9999 -9999 -9999 -9999 -9999 -9999 -9999 -9999 -9999 -9999 -9999 -9999 -9999 -9999 -9999 -9999 -9999 -9999 -9999 -9999 -9999 -9999 -9999 -9999 -9999 -9999 -9999 -9999 -9999 -9999 -9999 -9999 -9999 -9999 -9999 -9999 -9999 -9999 -9999 -9999 -9999 -9999 -9999 -9999 -9999 -9999 -9999 -9999 -9999 -9999 -9999 -9999 -9999 -9999 -9999 -9999 -9999 -9999 -9999
-9999 -9999 -9999 -9999 -9999 -9999 1467 1289 1397 1456 1621 1959 2124 2126 2323 2610 2554 2426 2198 2106 1921 1602 1608 1910 2004 2144 2301 2398 2571 2941 3076 3009 2875 2962 3280 3444 -9999 -9999 -9999 -9999 -9999 -9999 -9999 -9999 -9999 -9999 -9999 -9999 -9999 -9999 -9999 -9999 -9999 -9999 -9999 -9999 -9999 -9999 -9999 -9999 -9999 -9999 -9999 -9999 -9999 -9999 -9999 -9999 -9999 -9999 -9999 -9999 -9999 -9999 -9999 -9999 -9999 -9999 -9999 -9999 -9999 -9999 -9999 -9999 -9999 -9999 -9999 -9999 -9999 -9999 -9999 -9999 -9999 -9999 -9999 -9999 -9999 -9999 -9999 -9999 -9999 -9999 -9999 -9999 -9999 -9999 -9999 -9999 -9999 -9999 -9999 -9999 -9999 -9999 -9999 -9999 -9999 -9999 -9999 -9999 -9999 -9999 -9999 -9999 -9999 -9999 -9999 -9999 -9999 -9999 -9999 -9999 -9999 -9999 -9999 -9999 -9999 -9999 -9999 -9999 -9999 -9999 -9999 -9999 -9999 -9999 -9999 -9999 -9999 -9999 -9999 -9999 -9999 -9999 -9999 -9999 -9999 -9999 -9999 -9999 -9999 -9999 -9999 -9999 -9999 -9999 -9999 -9999 -9999 -9999 -9999 -9999 -9999 -9999 -9999 -9999 -9999 -9999 -9999 -9999 -9999 -9999 -9999 -9999 -9999 -9999 -9999
-9999 -9999 -9999 -9999 -9999 -9999 1686 1469 1539 1583 1625 1935 2233 2336 2369 2757 2545 2411 2146 2000 1808 1865 1834 1815 2006 2259 2381 2618 2785 2889 2998 3183 2919 3056 3433 -9999 -9999 -9999 -9999 -9999 -9999 -9999 -9999 -9999 -9999 -9999 -9999 -9999 -9999 -9999 -9999 -9999 -9999 -9999 -9999 -9999 -9999 -9999 -9999 -9999 -9999 -9999 -9999 -9999 -9999 -9999 -9999 -9999 -9999 -9999 -9999 -9999 -9999 -9999 -9999 -9999 -9999 -9999 -9999 -9999 -9999 -9999 -9999 -9999 -9999 -9999 -9999 -9999 -9999 -9999 -9999 -9999 -9999 -9999 -9999 -9999 -9999 -9999 -9999 -9999 -9999 -9999 -9999 -9999 -9999 -9999 -9999 -9999 -9999 -9999 -9999 -9999 -9999 -9999 -9999 -9999 -9999 -9999 -9999 -9999 -9999 -9999 -9999 -9999 -9999 -9999 -9999 -9999 -9999 -9999 -9999 -9999 -9999 -9999 -9999 -9999 -9999 -9999 -9999 -9999 -9999 -9999 -9999 -9999 -9999 -9999 -9999 -9999 -9999 -9999 -9999 -9999 -9999 -9999 -9999 -9999 -9999 -9999 -9999 -9999 -9999 -9999 -9999 -9999 -9999 -9999 -9999 -9999 -9999 -9999 -9999 -9999 -9999 -9999 -9999 -9999 -9999 -9999 -9999 -9999 -9999 -9999 -9999 -9999 -9999 -9999 -9999
-9999 -9999 -9999 -9999 -9999 -9999 -9999 1932 2033 1928 1754 1954 2220 2394 2696 2850 2598 2455 2213 2105 1991 1889 1929 2053 2139 2513 2749 3107 3106 3381 3254 3223 3148 3320 3273 3342 3654 -9999 -9999 -9999 -9999 -9999 -9999 -9999 -9999 -9999 -9999 -9999 -9999 -9999 -9999 -9999 -9999 -9999 -9999 -9999 -9999 -9999 -9999 -9999 -9999 -9999 -9999 -9999 -9999 -9999 -9999 -9999 -9999 -9999 -9999 -9999 -9999 -9999 -9999 -9999 -9999 -9999 -9999 -9999 -9999 -9999 -9999 -9999 -9999 -9999 -9999 -9999 -9999 -9999 -9999 -9999 -9999 -9999 -9999 -9999 -9999 -9999 -9999 -9999 -9999 -9999 -9999 -9999 -9999 -9999 -9999 -9999 -9999 -9999 -9999 -9999 -9999 -9999 -9999 -9999 -9999 -9999 -9999 -9999 -9999 -9999 -9999 -9999 -9999 -9999 -9999 -9999 -9999 -9999 -9999 -9999 -9999 -9999 -9999 -9999 -9999 -9999 -9999 -9999 -9999 -9999 -9999 -9999 -9999 -9999 -9999 -9999 -9999 -9999 -9999 -9999 -9999 -9999 -9999 -9999 -9999 -9999 -9999 -9999 -9999 -9999 -9999 -9999 -9999 -9999 -9999 -9999 -9999 -9999 -9999 -9999 -9999 -9999 -9999 -9999 -9999 -9999 -9999 -9999 -9999 -9999 -9999 -9999 -9999 -9999 -9999
-9999 -9999 -9999 -9999 -9999 -9999 -9999 -9999 -9999 2327 2320 2263 2470 2607 2705 3042 2789 2683 2373 2602 2191 2315 2441 2519 2343 2697 2744 3120 3226 3487 3363 3459 3345 3379 3490 -9999 -9999 -9999 -9999 -9999 -9999 -9999 -9999 -9999 -9999 -9999 -9999 -9999 -9999 -9999 -9999 -9999 -9999 -9999 -9999 -9999 -9999 -9999 -9999 -9999 -9999 -9999 -9999 -9999 -9999 -9999 -9999 -9999 -9999 -9999 -9999 -9999 -9999 -9999 -9999 -9999 -9999 -9999 -9999 -9999 -9999 -9999 -9999 -9999 -9999 -9999 -9999 -9999 -9999 -9999 -9999 -9999 -9999 -9999 -9999 -9999 -9999 -9999 -9999 -9999 -9999 -9999 -9999 -9999 -9999 -9999 -9999 -9999 -9999 -9999 -9999 -9999 -9999 -9999 -9999 -9999 -9999 -9999 -9999 -9999 -9999 -9999 -9999 -9999 -9999 -9999 -9999 -9999 -9999 -9999 -9999 -9999 -9999 -9999 -9999 -9999 -9999 -9999 -9999 -9999 -9999 -9999 -9999 -9999 -9999 -9999 -9999 -9999 -9999 -9999 -9999 -9999 -9999 -9999 -9999 -9999 -9999 -9999 -9999 -9999 -9999 -9999 -9999 -9999 -9999 -9999 -9999 -9999 -9999 -9999 -9999 -9999 -9999 -9999 -9999 -9999 -9999 -9999 -9999 -9999 -9999 -9999 -9999 -9999 -9999 -9999 -9999
-9999 -9999 -9999 -9999 -9999 -9999 -9999 -9999 -9999 -9999 -9999 -9999 2765 2887 3173 3222 3102 2942 2745 2586 2379 2616 2771 2963 2676 3003 3197 3204 3517 -9999 -9999 -9999 -9999 -9999 -9999 -9999 -9999 -9999 -9999 -9999 -9999 -9999 -9999 -9999 -9999 -9999 -9999 -9999 -9999 -9999 -9999 -9999 -9999 -9999 -9999 -9999 -9999 -9999 -9999 -9999 -9999 -9999 -9999 -9999 -9999 -9999 -9999 -9999 -9999 -9999 -9999 -9999 -9999 -9999 -9999 -9999 -9999 -9999 -9999 -9999 -9999 -9999 -9999 -9999 -9999 -9999 -9999 -9999 -9999 -9999 -9999 -9999 -9999 -9999 -9999 -9999 -9999 -9999 -9999 -9999 -9999 -9999 -9999 -9999 -9999 -9999 -9999 -9999 -9999 -9999 -9999 -9999 -9999 -9999 -9999 -9999 -9999 -9999 -9999 -9999 -9999 -9999 -9999 -9999 -9999 -9999 -9999 -9999 -9999 -9999 -9999 -9999 -9999 -9999 -9999 -9999 -9999 -9999 -9999 -9999 -9999 -9999 -9999 -9999 -9999 -9999 -9999 -9999 -9999 -9999 -9999 -9999 -9999 -9999 -9999 -9999 -9999 -9999 -9999 -9999 -9999 -9999 -9999 -9999 -9999 -9999 -9999 -9999 -9999 -9999 -9999 -9999 -9999 -9999 -9999 -9999 -9999 -9999 -9999 -9999 -9999 -9999 -9999 -9999 -9999 -9999 -9999
-9999 -9999 -9999 -9999 -9999 -9999 -9999 -9999 -9999 -9999 -9999 -9999 -9999 -9999 -9999 3263 3198 2984 2875 2776 2489 2612 2776 3113 2895 2975 3153 3266 -9999 -9999 -9999 -9999 -9999 -9999 -9999 -9999 -9999 -9999 -9999 -9999 -9999 -9999 -9999 -9999 -9999 -9999 -9999 -9999 -9999 -9999 -9999 -9999 -9999 -9999 -9999 -9999 -9999 -9999 -9999 -9999 -9999 -9999 -9999 -9999 -9999 -9999 -9999 -9999 -9999 -9999 -9999 -9999 -9999 -9999 -9999 -9999 -9999 -9999 -9999 -9999 -9999 -9999 -9999 -9999 -9999 -9999 -9999 -9999 -9999 -9999 -9999 -9999 -9999 -9999 -9999 -9999 -9999 -9999 -9999 -9999 -9999 -9999 -9999 -9999 -9999 -9999 -9999 -9999 -9999 -9999 -9999 -9999 -9999 -9999 -9999 -9999 -9999 -9999 -9999 -9999 -9999 -9999 -9999 -9999 -9999 -9999 -9999 -9999 -9999 -9999 -9999 -9999 -9999 -9999 -9999 -9999 -9999 -9999 -9999 -9999 -9999 -9999 -9999 -9999 -9999 -9999 -9999 -9999 -9999 -9999 -9999 -9999 -9999 -9999 -9999 -9999 -9999 -9999 -9999 -9999 -9999 -9999 -9999 -9999 -9999 -9999 -9999 -9999 -9999 -9999 -9999 -9999 -9999 -9999 -9999 -9999 -9999 -9999 -9999 -9999 -9999 -9999 -9999 -9999 -9999 -9999 -9999
-9999 -9999 -9999 -9999 -9999 -9999 -9999 -9999 -9999 -9999 -9999 -9999 -9999 -9999 -9999 3418 3190 3170 3151 3086 2780 3033 2995 3382 3322 3055 3106 -9999 -9999 -9999 -9999 -9999 -9999 -9999 -9999 -9999 -9999 -9999 -9999 -9999 -9999 -9999 -9999 -9999 -9999 -9999 -9999 -9999 -9999 -9999 -9999 -9999 -9999 -9999 -9999 -9999 -9999 -9999 -9999 -9999 -9999 -9999 -9999 -9999 -9999 -9999 -9999 -9999 -9999 -9999 -9999 -9999 -9999 -9999 -9999 -9999 -9999 -9999 -9999 -9999 -9999 -9999 -9999 -9999 -9999 -9999 -9999 -9999 -9999 -9999 -9999 -9999 -9999 -9999 -9999 -9999 -9999 -9999 -9999 -9999 -9999 -9999 -9999 -9999 -9999 -9999 -9999 -9999 -9999 -9999 -9999 -9999 -9999 -9999 -9999 -9999 -9999 -9999 -9999 -9999 -9999 -9999 -9999 -9999 -9999 -9999 -9999 -9999 -9999 -9999 -9999 -9999 -9999 -9999 -9999 -9999 -9999 -9999 -9999 -9999 -9999 -9999 -9999 -9999 -9999 -9999 -9999 -9999 -9999 -9999 -9999 -9999 -9999 -9999 -9999 -9999 -9999 -9999 -9999 -9999 -9999 -9999 -9999 -9999 -9999 -9999 -9999 -9999 -9999 -9999 -9999 -9999 -9999 -9999 -9999 -9999 -9999 -9999 -9999 -9999 -9999 -9999 -9999 -9999 -9999 -9999 -9999
-9999 -9999 -9999 -9999 -9999 -9999 -9999 -9999 -9999 -9999 -9999 -9999 -9999 -9999 -9999 -9999 3230 3234 3265 3070 3009 3192 -9999 -9999 -9999 -9999 -9999 -9999 -9999 -9999 -9999 -9999 -9999 -9999 -9999 -9999 -9999 -9999 -9999 -9999 -9999 -9999 -9999 -9999 -9999 -9999 -9999 -9999 -9999 -9999 -9999 -9999 -9999 -9999 -9999 -9999 -9999 -9999 -9999 -9999 -9999 -9999 -9999 -9999 -9999 -9999 -9999 -9999 -9999 -9999 -9999 -9999 -9999 -9999 -9999 -9999 -9999 -9999 -9999 -9999 -9999 -9999 -9999 -9999 -9999 -9999 -9999 -9999 -9999 -9999 -9999 -9999 -9999 -9999 -9999 -9999 -9999 -9999 -9999 -9999 -9999 -9999 -9999 -9999 -9999 -9999 -9999 -9999 -9999 -9999 -9999 -9999 -9999 -9999 -9999 -9999 -9999 -9999 -9999 -9999 -9999 -9999 -9999 -9999 -9999 -9999 -9999 -9999 -9999 -9999 -9999 -9999 -9999 -9999 -9999 -9999 -9999 -9999 -9999 -9999 -9999 -9999 -9999 -9999 -9999 -9999 -9999 -9999 -9999 -9999 -9999 -9999 -9999 -9999 -9999 -9999 -9999 -9999 -9999 -9999 -9999 -9999 -9999 -9999 -9999 -9999 -9999 -9999 -9999 -9999 -9999 -9999 -9999 -9999 -9999 -9999 -9999 -9999 -9999 -9999 -9999 -9999 -9999 -9999 -9999 -9999 -9999
-9999 -9999 -9999 -9999 -9999 -9999 -9999 -9999 -9999 -9999 -9999 -9999 -9999 -9999 -9999 -9999 -9999 -9999 -9999 3310 3246 -9999 -9999 -9999 -9999 -9999 -9999 -9999 -9999 -9999 -9999 -9999 -9999 -9999 -9999 -9999 -9999 -9999 -9999 -9999 -9999 -9999 -9999 -9999 -9999 -9999 -9999 -9999 -9999 -9999 -9999 -9999 -9999 -9999 -9999 -9999 -9999 -9999 -9999 -9999 -9999 -9999 -9999 -9999 -9999 -9999 -9999 -9999 -9999 -9999 -9999 -9999 -9999 -9999 -9999 -9999 -9999 -9999 -9999 -9999 -9999 -9999 -9999 -9999 -9999 -9999 -9999 -9999 -9999 -9999 -9999 -9999 -9999 -9999 -9999 -9999 -9999 -9999 -9999 -9999 -9999 -9999 -9999 -9999 -9999 -9999 -9999 -9999 -9999 -9999 -9999 -9999 -9999 -9999 -9999 -9999 -9999 -9999 -9999 -9999 -9999 -9999 -9999 -9999 -9999 -9999 -9999 -9999 -9999 -9999 -9999 -9999 -9999 -9999 -9999 -9999 -9999 -9999 -9999 -9999 -9999 -9999 -9999 -9999 -9999 -9999 -9999 -9999 -9999 -9999 -9999 -9999 -9999 -9999 -9999 -9999 -9999 -9999 -9999 -9999 -9999 -9999 -9999 -9999 -9999 -9999 -9999 -9999 -9999 -9999 -9999 -9999 -9999 -9999 -9999 -9999 -9999 -9999 -9999 -9999 -9999 -9999 -9999 -9999 -9999 -9999 -9999
-9999 -9999 -9999 -9999 -9999 -9999 -9999 -9999 -9999 -9999 -9999 -9999 -9999 -9999 -9999 -9999 -9999 -9999 -9999 3396 -9999 -9999 -9999 -9999 -9999 -9999 -9999 -9999 -9999 -9999 -9999 -9999 -9999 -9999 -9999 -9999 -9999 -9999 -9999 -9999 -9999 -9999 -9999 -9999 -9999 -9999 -9999 -9999 -9999 -9999 -9999 -9999 -9999 -9999 -9999 -9999 -9999 -9999 -9999 -9999 -9999 -9999 -9999 -9999 -9999 -9999 -9999 -9999 -9999 -9999 -9999 -9999 -9999 -9999 -9999 -9999 -9999 -9999 -9999 -9999 -9999 -9999 -9999 -9999 -9999 -9999 -9999 -9999 -9999 -9999 -9999 -9999 -9999 -9999 -9999 -9999 -9999 -9999 -9999 -9999 -9999 -9999 -9999 -9999 -9999 -9999 -9999 -9999 -9999 -9999 -9999 -9999 -9999 -9999 -9999 -9999 -9999 -9999 -9999 -9999 -9999 -9999 -9999 -9999 -9999 -9999 -9999 -9999 -9999 -9999 -9999 -9999 -9999 -9999 -9999 -9999 -9999 -9999 -9999 -9999 -9999 -9999 -9999 -9999 -9999 -9999 -9999 -9999 -9999 -9999 -9999 -9999 -9999 -9999 -9999 -9999 -9999 -9999 -9999 -9999 -9999 -9999 -9999 -9999 -9999 -9999 -9999 -9999 -9999 -9999 -9999 -9999 -9999 -9999 -9999 -9999 -9999 -9999 -9999 -9999 -9999 -9999 -9999 -9999 -9999 -9999 -9999
