NCOLS 123 
NROWS 90 
XLLCORNER 67.4802860491212 
YLLCORNER 38.5039194991663 
CELLSIZE 0.005892565925393 
NODATA_value -9999 
-9999.000000000000000 -9999 -9999 -9999 -9999 -9999 -9999 -9999 -9999 -9999 -9999 -9999 -9999 -9999 -9999 -9999 -9999 -9999 -9999 -9999 -9999 -9999 -9999 -9999 -9999 -9999 -9999 -9999 -9999 -9999 -9999 -9999 -9999 -9999 -9999 -9999 -9999 -9999 -9999 -9999 -9999 -9999 -9999 -9999 -9999 -9999 -9999 -9999 -9999 -9999 -9999 -9999 -9999 -9999 -9999 -9999 -9999 -9999 -9999 -9999 -9999 -9999 -9999 -9999 -9999 -9999 -9999 -9999 -9999 -9999 -9999 -9999 -9999 -9999 -9999 -9999 -9999 -9999 -9999 -9999 -9999 -9999 -9999 -9999 -9999 4094 4133 -9999 -9999 -9999 -9999 -9999 -9999 -9999 -9999 -9999 -9999 -9999 -9999 -9999 -9999 -9999 -9999 -9999 -9999 -9999 -9999 -9999 -9999 -9999 -9999 -9999 -9999 -9999 -9999 -9999 -9999 -9999 -9999 -9999 -9999 -9999 -9999
-9999 -9999 -9999 -9999 -9999 -9999 -9999 -9999 -9999 -9999 -9999 -9999 -9999 -9999 -9999 -9999 -9999 -9999 -9999 -9999 -9999 -9999 -9999 -9999 -9999 -9999 -9999 -9999 -9999 -9999 -9999 -9999 -9999 -9999 -9999 -9999 -9999 -9999 -9999 -9999 -9999 -9999 -9999 -9999 -9999 -9999 -9999 -9999 -9999 -9999 -9999 -9999 -9999 -9999 -9999 -9999 -9999 -9999 -9999 -9999 -9999 -9999 -9999 -9999 -9999 -9999 -9999 -9999 -9999 -9999 -9999 -9999 -9999 -9999 4118 -9999 -9999 -9999 -9999 -9999 -9999 -9999 -9999 3735 3754 3949 4002 -9999 -9999 -9999 -9999 -9999 -9999 -9999 -9999 -9999 -9999 -9999 -9999 -9999 -9999 3899 -9999 -9999 -9999 -9999 -9999 -9999 -9999 -9999 -9999 -9999 -9999 -9999 -9999 -9999 -9999 -9999 -9999 -9999 -9999 -9999 -9999
-9999 -9999 -9999 -9999 -9999 -9999 -9999 -9999 -9999 -9999 -9999 -9999 -9999 -9999 -9999 -9999 -9999 -9999 -9999 -9999 -9999 -9999 -9999 -9999 -9999 -9999 -9999 -9999 -9999 -9999 -9999 -9999 -9999 3735 3798 -9999 -9999 -9999 -9999 -9999 -9999 -9999 -9999 -9999 -9999 -9999 -9999 -9999 -9999 -9999 -9999 -9999 -9999 -9999 -9999 -9999 -9999 -9999 -9999 -9999 -9999 -9999 -9999 -9999 -9999 -9999 -9999 -9999 -9999 -9999 3955 3947 -9999 3846 3884 3987 4030 3935 3986 3913 3807 3734 3669 3456 3441 3632 3794 3950 -9999 -9999 -9999 -9999 -9999 -9999 -9999 -9999 -9999 -9999 -9999 3832 3525 3538 3478 3552 3705 -9999 -9999 -9999 -9999 -9999 -9999 -9999 -9999 -9999 -9999 -9999 -9999 -9999 -9999 -9999 -9999 -9999 -9999
-9999 -9999 -9999 -9999 -9999 -9999 -9999 -9999 -9999 -9999 -9999 -9999 -9999 -9999 -9999 -9999 -9999 -9999 -9999 -9999 -9999 -9999 -9999 -9999 -9999 -9999 -9999 -9999 -9999 -9999 -9999 -9999 3498 3529 3569 3806 -9999 -9999 -9999 -9999 -9999 -9999 -9999 -9999 -9999 -9999 -9999 -9999 3867 3704 3658 3705 3692 -9999 -9999 -9999 -9999 3775 -9999 -9999 -9999 -9999 -9999 -9999 -9999 -9999 -9999 -9999 4142 4000 3919 3801 3613 3643 3932 4061 3793 3751 3899 3976 3816 3724 3393 3279 3172 3185 3255 3456 3630 3693 3630 3726 -9999 -9999 -9999 3727 3535 3565 3581 3473 3249 3152 3101 3153 3299 3500 3624 3711 -9999 -9999 -9999 -9999 -9999 -9999 -9999 -9999 -9999 -9999 -9999 -9999 -9999 -9999 -9999
-9999 -9999 -9999 -9999 -9999 -9999 -9999 -9999 -9999 -9999 -9999 3990 4053 -9999 -9999 -9999 -9999 -9999 -9999 -9999 -9999 -9999 -9999 3681 3700 3737 3879 -9999 -9999 -9999 -9999 3425 3254 3357 3410 3610 -9999 -9999 -9999 -9999 -9999 -9999 -9999 -9999 -9999 -9999 -9999 3865 3631 3430 3359 3309 3391 3523 3630 3603 3423 3519 3513 3644 3728 3809 -9999 -9999 -9999 -9999 -9999 -9999 3996 3951 3747 3585 3529 3675 3920 3746 3651 3739 4057 3960 3953 3853 3791 3615 3292 3179 3089 3039 3097 3255 3292 3616 3878 3972 3876 3835 3424 3185 3209 3090 2965 2999 3123 3194 3129 3363 3632 3721 -9999 -9999 -9999 -9999 -9999 -9999 -9999 -9999 -9999 -9999 -9999 -9999 -9999 -9999 -9999
-9999 -9999 -9999 -9999 -9999 -9999 -9999 -9999 -9999 -9999 -9999 3875 3981 -9999 -9999 -9999 -9999 -9999 -9999 -9999 -9999 -9999 -9999 3568 3623 3676 3826 3934 3801 3706 3639 3409 3182 3162 3254 3529 3674 3823 -9999 -9999 -9999 -9999 3673 3702 3743 3752 3850 3808 3608 3469 3335 3235 3236 3471 3387 3403 3254 3397 3352 3512 3609 3824 3905 4039 4109 4013 3910 3919 3926 3811 3608 3443 3560 3714 3909 3649 3616 3774 3969 4047 3970 3814 3660 3512 3220 3317 3328 3065 2969 3171 3256 3489 3808 3844 3804 3595 3402 3147 3042 2917 2976 3225 3228 3280 3183 3260 3527 3688 -9999 -9999 -9999 -9999 -9999 -9999 -9999 -9999 -9999 -9999 -9999 -9999 -9999 -9999 -9999
-9999 -9999 -9999 -9999 -9999 -9999 -9999 -9999 -9999 -9999 3711 3591 3699 3939 4039 3920 3895 3887 -9999 -9999 -9999 3619 3410 3299 3390 3403 3514 3596 3686 3733 3616 3312 3012 2902 2919 3142 3298 3518 3636 -9999 3665 3482 3578 3674 3767 3699 3502 3448 3421 3715 3470 3343 3034 3050 3030 3013 3021 3093 3247 3498 3633 3690 3960 4048 4121 3943 3824 3711 3666 3521 3385 3363 3616 3666 3712 3548 3568 3676 3777 3811 3699 3558 3328 3186 3079 2946 2931 2877 2824 2925 3055 3204 3364 3442 3331 3257 3417 3130 2935 2912 3279 3489 3578 3562 3561 3339 3309 3379 3647 3839 -9999 -9999 -9999 -9999 -9999 -9999 -9999 -9999 -9999 -9999 -9999 -9999 -9999
-9999 -9999 -9999 -9999 -9999 -9999 -9999 -9999 -9999 3739 3501 3406 3567 3912 3782 3677 3890 3988 3854 3605 3469 3379 3184 3020 3054 3138 3353 3485 3660 3854 3755 3339 3014 2890 2769 2894 3081 3254 3289 3325 3297 3342 3383 3512 3716 3485 3264 3195 3188 3320 3358 3295 3140 2908 2793 2816 2993 3030 3076 3195 3313 3511 3706 3911 4036 4128 3932 3840 3701 3496 3357 3207 3215 3330 3379 3395 3578 3711 3876 3740 3630 3547 3476 3335 3206 3101 3195 3143 2811 2718 2816 2976 3020 3095 3118 3057 3289 2965 2810 2980 3299 3680 3730 3813 3704 3735 3582 3538 3447 3684 3962 -9999 -9999 -9999 -9999 -9999 -9999 -9999 -9999 -9999 -9999 -9999 -9999
-9999 -9999 -9999 -9999 -9999 -9999 3687 3758 3826 3676 3440 3307 3452 3772 3456 3442 3797 3959 3732 3467 3218 3165 2994 2840 2842 2979 3122 3317 3623 3828 3729 3413 2907 2673 2669 2707 2879 2913 2913 3018 3120 3350 3609 3570 3351 3192 3303 3262 2998 2933 3173 3048 2826 2753 2787 2978 3259 3475 3467 3192 3234 3546 3766 4005 4069 3986 3918 3829 3798 3702 3554 3234 3066 3097 3275 3316 3506 3663 3932 3843 3721 3662 3690 3599 3396 3337 3391 3241 2951 2676 2624 2780 2843 2962 2863 3021 3285 2967 2794 2931 3192 3246 3596 3793 3808 3891 3861 3821 3618 3598 3831 -9999 -9999 -9999 -9999 -9999 -9999 -9999 -9999 -9999 -9999 -9999 -9999
-9999 3916 -9999 3986 3977 3732 3656 3783 3831 3573 3332 3284 3416 3588 3344 3334 3669 3857 3708 3499 3315 3384 3136 2841 2736 2821 3040 3275 3506 3641 3635 3284 2846 2642 2606 2650 2680 2802 2863 2882 3086 3345 3582 3575 3299 3127 3101 3189 3094 2822 3087 3062 2744 2640 2791 2955 3194 3463 3652 3302 3249 3588 3887 4078 4193 4052 3939 3848 3854 3809 3450 3138 3059 3185 3515 3402 3452 3564 3774 3858 3765 3753 3812 3710 3441 3322 3328 3292 2987 2755 2616 2628 2868 2827 2775 3005 3204 2955 2776 2891 2997 3243 3512 3624 3564 3677 3723 3766 3724 3585 3841 3967 -9999 -9999 -9999 -9999 -9999 -9999 -9999 -9999 -9999 -9999 -9999
-9999 3905 3767 3932 3845 3594 3704 3834 3711 3490 3183 3319 3489 3368 3135 3277 3521 3621 3658 3645 3411 3259 2999 2746 2630 2806 3088 3350 3162 3134 3203 2966 2654 2466 2444 2622 2533 2553 2620 2807 3039 3253 3361 3425 3299 2949 2820 2998 2970 2654 2605 2582 2605 2723 2852 2845 2993 3192 3500 3684 3553 3503 3823 3965 4131 3942 3769 3567 3470 3413 3097 2987 3202 3448 3758 3725 3627 3623 3701 3653 3482 3550 3678 3601 3391 3070 2994 3215 3199 2887 2782 2499 2671 2672 2787 3063 3050 2770 2673 2789 2932 3318 3453 3292 3272 3362 3615 3708 3926 3980 3921 3944 -9999 -9999 -9999 -9999 -9999 -9999 -9999 -9999 -9999 -9999 -9999
-9999 3947 3631 3735 3641 3500 3694 3951 3793 3427 3113 3214 3335 3112 3061 3340 3234 3322 3260 3409 3229 3128 2861 2502 2603 2732 2945 3011 2703 2822 2917 2788 2547 2428 2376 2304 2333 2547 2795 3094 3043 2930 3031 3169 3083 2886 2617 2733 2585 2442 2525 2679 3009 2909 3237 3154 3109 3092 3329 3748 3864 3752 3794 3937 3972 3898 3747 3525 3323 3084 2950 3046 3321 3495 3778 3908 3761 3727 3651 3313 3085 3088 3219 3164 3010 2897 2781 3008 2977 2778 2826 2514 2618 2953 3094 3280 3279 3091 2920 2642 2773 3128 3160 3072 3409 3519 3506 3557 3700 4024 4156 -9999 -9999 -9999 -9999 -9999 -9999 -9999 -9999 -9999 -9999 -9999 -9999
-9999 3860 3564 3349 3330 3306 3528 3675 3708 3532 3176 2893 2839 2808 3151 3167 2940 2896 3081 3165 2882 2784 2606 2485 2323 2410 2601 2800 2520 2446 2555 2720 2479 2301 2230 2196 2464 2719 2868 2816 2774 2713 2900 3065 3060 2729 2423 2430 2376 2687 2974 3082 3239 3174 3491 3590 3516 3328 3396 3667 3766 4045 3916 3859 3766 3859 3483 3137 3030 2903 2937 3290 3315 3373 3549 3730 3809 3749 3588 3271 3024 2905 2792 2792 2770 2624 2673 2943 2907 2565 2430 2384 2651 2902 2954 3091 3403 3273 3102 2816 2639 3011 2919 2990 3231 3492 3766 3737 3790 3901 4005 3994 -9999 -9999 -9999 -9999 -9999 -9999 -9999 -9999 -9999 -9999 -9999
3622 3633 3469 3248 3179 3334 3598 3393 3435 3385 3242 3130 2935 2644 2937 2821 2566 2694 2844 3117 3144 2995 2741 2530 2308 2212 2301 2545 2394 2350 2549 2677 2477 2272 2131 2289 2656 2849 2937 2859 2526 2462 2648 2766 2784 2467 2284 2398 2707 2996 2995 3084 3104 3393 3665 3812 3744 3477 3564 3825 3829 3812 3918 3646 3458 3386 3073 2851 2865 2861 3027 3448 3629 3642 3889 3852 3808 3629 3425 3264 2985 2822 2569 2664 2592 2506 2597 2741 2575 2454 2317 2587 2740 2863 2967 3086 2996 3052 3034 2757 2521 2737 2944 3133 3449 3486 3624 3817 3881 3744 3760 3710 3776 4013 -9999 -9999 -9999 -9999 -9999 -9999 -9999 -9999 -9999
3639 3562 3523 3298 3167 3236 3425 3318 3260 3135 2991 2955 2892 2596 2790 2622 2461 2569 2712 3080 3060 3054 2932 2727 2455 2304 2186 2504 2214 2312 2477 2468 2305 2056 2011 2226 2488 2699 2734 2697 2550 2327 2607 2745 2655 2324 2280 2430 2598 2799 2834 2880 3020 3277 3589 3777 3857 3587 3634 3863 3742 3736 3743 3570 3361 3187 2965 2783 2802 2854 3076 3401 3675 3674 3975 3812 3614 3450 3182 3013 2761 2673 2529 2524 2615 2478 2473 2602 2331 2331 2317 2597 2917 3048 3153 3110 2875 2788 2783 2616 2499 2664 2908 3022 3315 3627 3666 3777 3834 3708 3713 3620 3651 3771 4034 -9999 3957 -9999 -9999 -9999 -9999 -9999 -9999
3703 3564 3574 3404 3310 3070 3084 3036 2937 2885 2878 2766 2601 2536 2439 2394 2438 2345 2617 2637 2734 2637 2688 2601 2494 2448 2185 2080 2096 1972 1985 1997 2183 2208 2097 2013 2349 2332 2318 2438 2366 2207 2404 2480 2352 2119 2359 2463 2668 2827 2881 2890 3211 3592 3758 3770 3794 3665 3558 3536 3520 3512 3508 3315 3285 2992 2813 2760 2779 3025 3432 3509 3831 3932 3786 3609 3475 3405 3087 2835 2701 2601 2442 2370 2544 2505 2346 2278 2341 2575 2603 2692 2819 3079 3183 3114 3018 2792 2624 2438 2586 2879 3010 3180 3374 3591 3605 3509 3576 3475 3370 3307 3257 3295 3441 3645 3759 3786 4161 -9999 -9999 -9999 -9999
-9999 3659 3504 3466 3466 3147 3044 3043 3137 3261 3192 2960 2880 2833 2738 2541 2681 2605 2327 2251 2289 2332 2240 2188 2075 2042 2033 1991 2158 2059 2077 1953 1871 1833 1833 1843 2019 2035 2075 2427 2313 2033 2155 2121 2066 2279 2640 2804 3093 3138 3234 3212 3267 3607 3864 3789 3673 3670 3588 3413 3364 3270 3194 2970 2871 2710 2690 2867 2982 3259 3572 3632 3623 3675 3636 3547 3479 3297 2873 2707 2637 2621 2560 2486 2280 2309 2365 2261 2184 2408 2566 2838 2804 2747 2811 2828 2727 2627 2690 2496 2411 2719 3003 3200 3690 3567 3268 3195 3088 3024 3136 3177 3387 3447 3351 3391 3444 3503 3609 3784 3878 -9999 -9999
-9999 -9999 -9999 3443 3308 3294 3370 3283 3238 3125 3077 3040 2994 2834 2642 2813 3050 2918 2685 2462 2368 2287 2213 2330 2201 2308 2410 2292 2353 2238 2289 2394 2272 2142 2044 1848 1792 1768 1878 2232 2255 2055 1903 1968 2127 2420 2608 2639 2629 2943 2969 3081 3299 3575 3466 3366 3449 3676 3640 3318 3324 3015 2778 2655 2604 2622 2953 3283 3460 3509 3558 3406 3226 3236 3138 3132 3056 2914 2708 2731 2731 2591 2305 2176 2153 2147 2116 2208 2365 2545 2575 2637 2492 2510 2594 2528 2358 2429 2522 2638 2795 2863 3032 3099 3326 3257 3002 2924 2890 3174 3412 3397 3598 3888 3734 3595 3624 3717 3559 3647 3843 3914 -9999
-9999 -9999 -9999 -9999 3444 3420 3274 3161 3117 3052 3008 2954 2903 2742 2627 2967 3114 3055 2783 2466 2584 2446 2338 2503 2336 2374 2651 2445 2351 2478 2528 2546 2373 2266 2198 1945 1951 1742 1747 2073 2044 2004 2108 2099 2072 2237 2356 2380 2537 2784 2795 2870 3096 3361 3225 3164 3299 3664 3660 3290 3192 2984 2679 2593 2564 2751 3113 3391 3498 3650 3614 3426 3099 3024 2935 2951 2900 2786 2628 2698 2783 2719 2486 2252 2034 2075 2111 2420 2551 2616 2457 2461 2305 2466 2582 2415 2219 2413 2505 2708 3001 3218 3122 3126 3143 3149 2958 2862 2961 3265 3608 3657 3697 3929 3885 3744 3745 3925 3702 3614 3779 3963 4108
-9999 -9999 -9999 -9999 3467 3301 3211 3148 3109 3008 2926 2952 2912 2778 2805 2979 3092 3025 2734 2591 2758 2648 2666 2781 2785 2728 2869 2684 2700 2986 2955 2733 2445 2248 2150 2003 1970 1688 1698 1800 1842 1878 2240 2383 2434 2389 2489 2540 2567 2656 2756 2875 2869 2861 2871 2983 3321 3331 3520 3151 3012 2955 2603 2508 2626 2859 2989 3249 3383 3704 3582 3292 3068 3041 2745 2631 2564 2506 2420 2642 2522 2460 2602 2403 1988 2215 2409 2681 2833 2734 2598 2255 2160 2517 2480 2167 2082 2307 2382 2587 2949 3073 3105 3033 2928 2836 2821 2790 2921 3340 3715 3726 3942 4113 3937 3822 3834 4085 3827 3790 3801 3964 4080
-9999 -9999 -9999 -9999 3508 3392 3237 3193 3167 3095 3025 2898 2857 2844 2921 3131 2996 2881 2703 2844 3030 3007 3053 3160 3264 3214 3096 2837 2992 3284 3198 2791 2440 2367 2438 2381 2018 1744 1686 2120 2252 2146 2365 2521 2701 2813 2819 2934 3045 2988 2770 2681 2562 2721 2979 3123 3167 3005 3246 3112 2976 2642 2426 2539 2771 3169 3437 3486 3606 3692 3452 3140 2873 2757 2612 2510 2455 2426 2382 2366 2462 2447 2175 2136 1954 2098 2187 2461 2496 2413 2494 2463 2082 2129 2110 1990 2035 2293 2363 2511 2990 2768 2569 2558 2643 2637 2711 2738 2880 3171 3548 3742 4024 4256 4143 3983 4019 4056 4008 3994 3949 -9999 -9999
-9999 -9999 -9999 -9999 -9999 3597 3347 3192 3152 3092 3047 2983 2940 3022 3112 3403 3224 3052 2834 3127 3356 3377 3362 3459 3264 3185 3027 2962 3075 3048 3033 2803 2654 2716 2706 2399 2092 1739 1651 1996 2236 2093 2046 2120 2356 2634 2756 2671 2958 2828 2610 2453 2580 2975 3145 3181 2943 2716 2991 2735 2612 2377 2397 2618 2693 2951 3213 3540 3709 3561 3312 3096 3016 3028 2762 2706 2760 2654 2378 2164 2146 2119 2275 2258 2082 1869 1889 2225 2223 2022 2106 2190 2111 2003 1933 1928 2136 2378 2496 2404 2690 2425 2198 2181 2385 2632 2894 2977 3034 3054 3434 3631 3897 4139 4322 4111 4159 4336 4215 4051 4018 4094 -9999
-9999 -9999 -9999 -9999 3799 3619 3463 3239 3221 3205 3111 2994 3018 3108 3231 3453 3178 3055 2898 3091 3389 3505 3517 3361 3218 3150 3056 3087 3137 2990 2958 2803 2611 2685 2679 2493 2190 1791 1645 1860 1977 1835 1958 2053 2342 2588 2495 2489 2808 2670 2617 2434 2556 2960 2929 3025 2892 2605 2817 2535 2401 2284 2508 2767 2937 3057 3330 3532 3665 3658 3397 3278 3180 3137 2902 2858 2888 2802 2523 2303 2146 2104 2065 2414 2325 1975 1835 2147 2118 1936 1984 1913 1993 2110 2104 1937 1986 2133 2284 2311 2423 2250 2148 2157 2264 2452 2673 2796 2865 2926 3323 3518 3766 3937 4092 4158 4226 4351 4286 4092 4067 -9999 -9999
-9999 -9999 -9999 -9999 3719 3640 3511 3400 3372 3299 3214 3097 3193 3323 3504 3547 3423 3376 3125 3119 3403 3554 3476 3409 3346 3360 3295 3166 3232 2902 2753 2580 2498 2613 2595 2578 2239 1969 1850 1615 1601 1875 2153 2175 2214 2199 2358 2507 2794 2518 2386 2318 2426 2625 2552 2579 2780 2414 2337 2196 2261 2594 2928 3017 3030 3174 3288 3443 3473 3474 3536 3222 2897 2793 2800 2985 2963 2805 2558 2476 2468 2368 2012 2136 2329 2231 2068 1806 1772 1878 1941 2090 2070 1940 1912 2082 2298 2100 2007 2036 2059 2197 2327 2471 2673 2595 2403 2403 2531 2826 3284 3471 3746 3827 4007 4193 4256 4331 4290 4173 -9999 -9999 -9999
-9999 -9999 -9999 -9999 -9999 3874 3700 3674 3632 3494 3406 3357 3534 3652 3732 3877 3670 3540 3312 3248 3612 3715 3569 3504 3486 3489 3139 2884 2795 2754 2701 2469 2357 2454 2325 2372 2412 2128 1955 1635 1559 1674 1838 1864 1945 2166 2269 2385 2686 2589 2379 2327 2186 2229 2230 2346 2476 2156 2203 2439 2537 2695 2775 2732 2796 3120 3338 3047 2961 3065 3059 2757 2626 2539 2490 2734 2906 2962 2739 2462 2228 2104 2034 1872 1868 1944 1849 1749 1929 2279 2342 2442 2426 2503 2351 2167 2016 2189 2347 2591 2669 2786 2841 2883 3030 3077 2774 2889 2655 2565 2913 3093 3482 3873 4082 4078 4049 4176 4273 -9999 -9999 -9999 -9999
-9999 -9999 -9999 -9999 -9999 3918 3904 3757 3771 3769 3658 3447 3441 3719 3913 3761 3723 3613 3400 3504 3707 3729 3656 3546 3464 3420 3223 2994 2654 2476 2444 2527 2395 2146 2133 2036 1976 1800 1841 1619 1550 1897 2262 2376 2354 2262 2417 2485 2642 2803 2671 2565 2342 2192 2074 2105 2100 2063 2189 2347 2347 2410 2527 2717 2833 3054 3204 2821 2687 2538 2434 2330 2351 2333 2431 2590 2821 2759 2596 2688 2568 2486 2227 2174 1923 1724 1887 1959 1935 2193 2348 2645 2800 2713 2551 2422 2302 2073 2174 2406 2646 2992 3114 3186 3401 3447 3163 3156 3066 2772 2727 2827 3199 3551 3744 3640 3626 3866 -9999 -9999 -9999 -9999 -9999
-9999 -9999 -9999 -9999 -9999 -9999 -9999 3992 3999 3846 3792 3693 3635 3697 3868 3949 3708 3667 3575 3673 3883 3865 3691 3533 3243 3123 2980 2793 2602 2499 2426 2214 2156 2119 2148 2141 2085 1850 1760 1539 1676 1952 2289 2360 2408 2327 2287 2371 2613 2848 2728 2583 2397 2297 2180 2076 2011 2238 2518 2705 2805 2846 2889 2926 2972 2802 2727 2799 2727 2535 2297 2279 2222 2167 2373 2576 2712 2565 2370 2391 2488 2592 2341 2053 1732 1937 2076 2340 2305 2169 2190 2345 2698 2984 2993 2664 2434 2264 2148 2361 2597 2867 3229 3467 3750 3759 3516 3489 3400 3059 2881 2820 2913 3223 3331 3418 3498 3641 3932 -9999 -9999 -9999 -9999
-9999 -9999 -9999 -9999 -9999 -9999 -9999 -9999 -9999 3999 3865 3720 3679 3743 3840 3870 3771 3754 3638 3523 3759 3902 3675 3432 3201 3090 2844 2672 2513 2380 2318 2279 2228 2307 2337 2377 2145 1803 1679 1586 1774 1994 2168 2209 2281 2195 2315 2427 2587 2696 2726 2612 2523 2500 2347 2156 1967 2277 2331 2502 2611 2885 3093 3003 2943 2698 2638 2843 2822 2563 2296 2225 2217 2107 2248 2583 2660 2514 2224 2181 2403 2481 2481 2157 1743 2009 2301 2467 2580 2405 2428 2325 2577 2791 2938 2834 2683 2450 2281 2272 2604 2879 3088 3249 3663 3901 3642 3655 3515 3210 3073 2940 2884 3019 3278 3445 3496 3622 3769 3969 4106 -9999 -9999
-9999 -9999 -9999 -9999 -9999 -9999 -9999 -9999 -9999 -9999 3938 3731 3814 3843 3797 3628 3481 3355 3335 3130 3314 3412 3471 3258 3085 3026 2917 2890 2869 2741 2721 2736 2572 2553 2464 2387 2091 1707 1627 1702 1840 1901 1910 1934 1984 2099 2200 2291 2578 2806 2787 2752 2535 2199 2015 1987 2107 2380 2665 2851 2931 3088 3366 3142 2952 2634 2455 2465 2607 2695 2457 2174 1992 2003 2257 2464 2628 2668 2450 2076 2069 2286 2351 2075 1683 1786 1945 2175 2310 2548 2629 2735 2688 2633 2727 3058 3252 2935 2690 2341 2452 2752 2900 2961 3325 3751 3958 4011 3741 3517 3339 3294 3102 3053 3283 3646 3863 3988 3853 3836 3880 4018 -9999
-9999 -9999 -9999 -9999 -9999 -9999 -9999 -9999 -9999 -9999 3690 3514 3486 3623 3567 3212 3047 3103 2948 2862 3104 3189 3455 3457 3419 3353 3367 3437 3150 2832 2678 2456 2319 2120 2058 2161 2046 1790 1665 1613 1682 1770 1975 2190 2390 2493 2445 2466 2650 2782 2482 2391 2296 1941 1820 1988 2374 2659 2662 2615 2713 2949 3130 3073 3087 2933 2558 2220 2173 2214 2134 2059 1920 2070 2212 2316 2228 2336 2386 2044 1777 1938 1919 1652 1723 2104 2264 2302 2556 2684 2858 2934 3060 2863 3030 3283 3366 2987 2949 2753 2492 2708 3175 3402 3603 3576 3817 3874 3885 3710 3672 3825 3662 3394 3413 3787 3819 3984 4096 3974 4033 4094 -9999
-9999 -9999 -9999 -9999 -9999 -9999 -9999 -9999 3770 3464 3236 3177 3142 3292 3409 3056 2815 2726 2687 2896 3086 3122 3353 3260 3300 3219 2989 3182 3097 2812 2680 2483 2308 2109 1942 1770 1700 1682 1592 1492 1560 1687 1862 1982 2239 2483 2635 2582 2601 2684 2461 2386 2036 1791 1873 2051 2214 2390 2294 2387 2491 2705 2761 2798 2892 2638 2469 2384 2359 2162 2021 2002 1805 1858 1900 2104 2013 2152 2174 1926 1657 1607 1668 1898 2108 2347 2484 2741 2809 3055 3177 3315 3367 3182 3287 3541 3620 3290 3327 3176 2929 2642 2819 3054 3539 3652 4047 4114 4087 3920 3792 3752 3631 3501 3377 3607 3668 3808 3949 4033 -9999 4045 -9999
-9999 -9999 -9999 -9999 -9999 -9999 -9999 3778 3697 3383 3108 2970 2970 3152 3284 3068 2875 2738 2585 2903 2919 3025 3187 3040 3082 3001 2768 2988 2889 2785 2684 2471 2205 2028 1985 1899 1741 1661 1585 1487 1517 1648 1819 1901 2122 2386 2589 2549 2523 2460 2272 2221 2026 1721 1819 1943 2211 2213 2130 2324 2360 2627 2649 2767 2864 2769 2669 2536 2498 2357 2158 2070 1908 1804 1754 1879 2023 2125 2023 1743 1559 1591 1694 2032 2274 2559 2643 2868 2931 3030 3091 3159 3244 3389 3431 3673 3723 3499 3501 3234 3062 2782 2709 2926 3409 3586 3883 4024 4106 3936 3809 3754 3695 3547 3422 3671 3729 3831 3990 -9999 -9999 -9999 -9999
-9999 -9999 -9999 -9999 -9999 -9999 3796 3654 3605 3421 3186 2883 2758 2825 3048 2954 2667 2615 2417 2552 2757 2920 2961 2543 2774 2669 2356 2524 2370 2478 2396 2256 2106 2175 2333 2169 2081 1968 1973 1695 1501 1552 1805 1891 2057 2192 2248 2231 2202 2224 2082 1970 1892 1712 1959 2089 1957 2058 2244 2356 2444 2503 2656 2818 2869 2853 2931 2846 2815 2601 2436 2348 2173 2114 1876 1714 1698 1861 1748 1551 1705 1849 1912 1760 2043 2292 2365 2484 2504 2718 2833 2739 3100 3454 3618 3867 3779 3723 3719 3618 3308 3029 2863 2812 2955 3333 3706 3832 4043 4101 4024 3905 3837 3705 3529 3640 3764 3938 -9999 -9999 -9999 -9999 -9999
-9999 -9999 -9999 -9999 -9999 -9999 3527 3322 3283 3155 2915 2728 2751 2573 2628 2578 2401 2242 2295 2412 2661 2837 2581 2253 2282 2386 2146 2196 2101 2414 2273 1986 1988 2072 2182 2116 2147 2100 2130 2103 1621 1452 1681 1761 1922 1995 1884 1831 1789 1891 2052 2154 1894 1629 1752 1806 2009 2060 2121 2418 2592 2551 2328 2425 2467 2710 2798 2459 2467 2616 2778 2637 2280 2160 2159 1919 1658 1562 1503 1699 2038 2173 2154 2031 1981 1921 1953 2068 2195 2354 2374 2629 2901 3224 3336 3723 3994 3922 3882 3977 3744 3521 3433 3421 3136 3107 3305 3461 3667 3953 3966 3886 3825 3715 3653 3653 3754 -9999 -9999 -9999 -9999 -9999 -9999
-9999 -9999 -9999 -9999 -9999 -9999 3428 3187 3112 2941 2785 2668 2623 2541 2492 2325 2481 2381 2115 2093 2457 2524 2228 2123 2096 2160 2102 1982 1964 2102 2249 1932 1816 2158 2185 1859 1974 1961 2046 2035 1619 1410 1533 1618 1773 1810 1704 1666 1665 1733 1963 2078 1941 1848 1595 1557 1789 1861 2162 2455 2430 2372 2203 2490 2638 2804 2598 2493 2337 2183 2480 2355 2005 1856 1820 1581 1493 1498 1582 1947 2193 2283 2392 2340 2475 2179 2100 2413 2378 2465 2494 2438 2662 2920 3062 3301 3551 3982 4187 4254 4119 3906 3747 3629 3464 3465 3552 3746 3641 3713 4077 4022 3936 3888 3862 -9999 -9999 -9999 -9999 -9999 -9999 -9999 -9999
-9999 -9999 -9999 -9999 -9999 -9999 3439 3317 3233 3002 2997 2882 2829 2773 2525 2274 2498 2526 2283 2010 2202 2312 2088 1972 2011 1993 1958 1921 1948 1963 2089 1910 1812 2049 2035 1821 1899 1834 1896 1819 1545 1392 1461 1547 1682 1715 1638 1627 1647 1740 1971 2086 2130 2005 1709 1577 1653 1956 2207 2365 2252 2160 2242 2539 2710 2815 2441 2302 2201 2109 2299 2324 1989 1812 1609 1532 1726 1679 1725 1858 2208 2365 2599 2537 2583 2311 2182 2462 2610 2681 2715 2599 2626 2789 2918 3160 3432 3800 4092 4287 4202 3991 3831 3736 3613 3640 3716 3827 3793 3716 3993 -9999 -9999 -9999 -9999 -9999 -9999 -9999 -9999 -9999 -9999 -9999 -9999
-9999 -9999 -9999 -9999 -9999 -9999 3714 3532 3428 3323 3354 3261 3218 3007 2641 2288 2347 2519 2386 2114 1936 1860 1837 1902 1816 1754 1710 1886 1812 1754 1755 1768 1656 1707 1628 1654 1697 1595 1602 1521 1449 1403 1362 1368 1410 1461 1478 1468 1478 1634 1848 1872 1963 1997 1690 1515 1646 1920 2288 2073 2052 2205 2287 2673 2877 2721 2360 2144 2035 1863 1805 1875 1602 1521 1576 1746 1937 2109 2015 1893 1965 2058 2234 2535 2853 2632 2593 2410 2756 3108 3079 2998 3100 3100 3048 3114 3342 3625 3827 4185 4203 4031 3905 3914 3851 3838 3892 3928 3911 3821 3908 -9999 -9999 -9999 -9999 -9999 -9999 -9999 -9999 -9999 -9999 -9999 -9999
-9999 -9999 -9999 -9999 -9999 -9999 -9999 -9999 3782 3633 3429 3130 3044 2972 2661 2306 2060 2056 1999 2070 2104 2117 2272 2487 2170 1986 1781 1633 1665 1631 1718 1554 1524 1537 1586 1525 1448 1599 1687 1700 1699 1670 1532 1449 1342 1305 1296 1309 1347 1425 1588 1668 1850 1869 1692 1565 1620 1806 1804 1760 1853 2305 2586 2616 2777 2862 2676 2433 2393 2091 1780 1570 1390 1470 1605 1709 1856 1990 2349 2393 2313 2458 2505 2664 2878 2949 2797 2559 2799 3117 3309 3428 3697 3650 3546 3473 3517 3792 3958 4169 -9999 -9999 -9999 -9999 -9999 -9999 -9999 -9999 -9999 -9999 -9999 -9999 -9999 -9999 -9999 -9999 -9999 -9999 -9999 -9999 -9999 -9999 -9999
-9999 -9999 -9999 -9999 -9999 -9999 -9999 -9999 3666 3449 3272 2889 2746 2615 2387 2178 2440 2528 2360 2520 2438 2443 2650 2769 2461 2300 2111 1919 1708 1966 2004 1822 1630 1752 1815 1832 1732 1939 2064 2057 1952 1820 1657 1579 1472 1375 1289 1299 1337 1326 1376 1430 1618 1800 1898 1806 1504 1418 1518 1668 1860 2281 2569 2668 2733 2608 2317 2293 2145 1784 1523 1473 1525 1661 1946 2085 2028 1924 2130 2431 2800 2884 3028 3192 3277 3158 2964 2779 2857 2921 3087 3436 3756 3914 3765 3770 3943 3950 4044 4194 -9999 -9999 -9999 -9999 -9999 -9999 -9999 -9999 -9999 -9999 -9999 -9999 -9999 -9999 -9999 -9999 -9999 -9999 -9999 -9999 -9999 -9999 -9999
-9999 -9999 -9999 -9999 -9999 -9999 -9999 -9999 3618 3340 3067 2989 2950 2803 2589 2270 2631 2818 2788 2906 2839 2707 2530 2372 2450 2317 1973 1819 1956 2065 1876 1781 1952 2093 1988 2031 1985 2215 2301 2196 1976 1782 1664 1662 1659 1607 1497 1515 1603 1586 1411 1349 1317 1461 1590 1612 1918 1658 1363 1693 1739 1926 2224 2310 2456 2284 2009 1893 1954 1553 1373 1588 1806 1912 2092 2334 2412 2339 2441 2361 2471 2558 2765 3074 3392 3513 3339 3229 3320 3234 3259 3491 3713 -9999 -9999 3911 3948 4056 4207 -9999 -9999 -9999 -9999 -9999 -9999 -9999 -9999 -9999 -9999 -9999 -9999 -9999 -9999 -9999 -9999 -9999 -9999 -9999 -9999 -9999 -9999 -9999 -9999
-9999 -9999 -9999 -9999 -9999 -9999 -9999 -9999 3663 3478 3225 3209 3103 2997 2658 2352 2740 2908 3002 3067 2818 2675 2485 2211 2175 2093 1871 1881 2120 2003 1845 1934 2099 2225 2065 2096 2232 2275 2258 2154 2002 1864 1782 1774 1783 1750 1657 1675 1795 1855 1691 1569 1330 1320 1483 1626 1947 1704 1336 1511 1610 1902 2053 2094 2189 2390 1965 1715 1673 1437 1427 1585 1763 1935 2129 2301 2620 2549 2682 2521 2725 2776 2913 3054 3375 3567 3417 3312 3539 3397 3448 -9999 -9999 -9999 -9999 -9999 -9999 4091 -9999 -9999 -9999 -9999 -9999 -9999 -9999 -9999 -9999 -9999 -9999 -9999 -9999 -9999 -9999 -9999 -9999 -9999 -9999 -9999 -9999 -9999 -9999 -9999 -9999
-9999 -9999 -9999 -9999 -9999 -9999 -9999 -9999 -9999 3767 3542 3251 3103 2800 2640 2475 2696 2871 3178 3272 3031 2949 2609 2261 2148 2150 2093 2242 2432 2233 2055 1913 2129 2322 2224 2231 2399 2392 2330 2263 2223 2186 2137 2114 2099 2064 1979 1994 2115 2245 2063 1962 1631 1323 1395 1535 1668 1767 1404 1430 1505 1761 1763 1864 2080 2424 2286 1933 1753 1317 1535 1713 1961 2131 2496 2709 2822 2982 2979 2881 2824 3013 3380 3344 3630 3604 3590 3628 3713 -9999 -9999 -9999 -9999 -9999 -9999 -9999 -9999 -9999 -9999 -9999 -9999 -9999 -9999 -9999 -9999 -9999 -9999 -9999 -9999 -9999 -9999 -9999 -9999 -9999 -9999 -9999 -9999 -9999 -9999 -9999 -9999 -9999 -9999
-9999 -9999 -9999 -9999 -9999 -9999 -9999 -9999 -9999 -9999 3571 3211 3101 2879 2671 2631 2973 3103 3419 3352 3021 2884 2582 2280 2457 2592 2476 2674 2711 2412 2243 2258 2122 2265 2419 2581 2685 2699 2680 2665 2634 2579 2472 2405 2289 2190 2154 2198 2211 2252 2363 2325 2022 1515 1362 1398 1444 1648 1552 1251 1363 1461 1501 1785 1962 2347 2174 1816 1661 1315 1481 1815 2196 2282 2428 2703 3011 3201 3429 3292 3130 3101 3346 3680 3643 3718 3717 -9999 -9999 -9999 -9999 -9999 -9999 -9999 -9999 -9999 -9999 -9999 -9999 -9999 -9999 -9999 -9999 -9999 -9999 -9999 -9999 -9999 -9999 -9999 -9999 -9999 -9999 -9999 -9999 -9999 -9999 -9999 -9999 -9999 -9999 -9999 -9999
-9999 -9999 -9999 -9999 -9999 -9999 -9999 -9999 -9999 -9999 3650 3421 3278 2953 2919 3230 3499 3533 3647 3376 2959 2829 2682 2407 2605 2765 2850 2980 2854 2490 2416 2549 2315 2618 2658 2743 2900 2918 2913 2908 2879 2793 2605 2456 2208 1985 1976 2028 1963 1996 1961 2047 2031 1661 1432 1477 1428 1361 1643 1439 1245 1279 1456 1681 1798 2017 1751 1386 1305 1480 1596 1682 1862 1951 2235 2438 2750 2933 3316 3710 3541 3485 3653 3718 3891 -9999 -9999 -9999 -9999 -9999 -9999 -9999 -9999 -9999 -9999 -9999 -9999 -9999 -9999 -9999 -9999 -9999 -9999 -9999 -9999 -9999 -9999 -9999 -9999 -9999 -9999 -9999 -9999 -9999 -9999 -9999 -9999 -9999 -9999 -9999 -9999 -9999 -9999
-9999 -9999 -9999 -9999 -9999 -9999 -9999 -9999 -9999 -9999 3769 3488 3308 2988 3028 3442 3760 3795 3747 3395 3038 2980 2762 2497 2624 2793 3053 3119 2906 2598 2550 2726 2507 2652 2705 2639 2748 2801 2809 2836 2835 2755 2565 2439 2216 1971 1962 1968 1793 1916 1780 1893 1941 1763 1556 1443 1322 1289 1456 1396 1341 1302 1685 1826 1881 1870 1751 1414 1275 1422 1637 1751 2010 2132 2507 2662 2939 2995 3313 3624 3644 3683 3684 3910 -9999 -9999 -9999 -9999 -9999 -9999 -9999 -9999 -9999 -9999 -9999 -9999 -9999 -9999 -9999 -9999 -9999 -9999 -9999 -9999 -9999 -9999 -9999 -9999 -9999 -9999 -9999 -9999 -9999 -9999 -9999 -9999 -9999 -9999 -9999 -9999 -9999 -9999 -9999
-9999 -9999 -9999 -9999 -9999 -9999 -9999 -9999 -9999 -9999 3905 3548 3374 3244 3440 3548 3912 3934 3646 3428 3299 3239 2909 2629 2817 3006 3242 3342 3019 2846 2870 3012 2924 2678 2556 2290 2283 2347 2388 2503 2575 2523 2393 2353 2333 2013 1835 1785 1671 1613 1582 1637 1635 1658 1432 1190 1052 1076 1112 1164 1221 1493 1676 1921 1901 1719 1569 1379 1250 1380 1726 1996 2244 2402 2722 3088 3252 3344 3514 3651 3704 3583 3630 3622 3495 -9999 -9999 -9999 -9999 -9999 -9999 -9999 -9999 -9999 -9999 -9999 -9999 -9999 -9999 -9999 -9999 -9999 -9999 -9999 -9999 -9999 -9999 -9999 -9999 -9999 -9999 -9999 -9999 -9999 -9999 -9999 -9999 -9999 -9999 -9999 -9999 -9999 -9999
-9999 -9999 -9999 -9999 -9999 -9999 -9999 -9999 -9999 -9999 3703 3554 3490 3392 3443 3436 3544 3594 3542 3364 3295 3244 3160 3077 3153 3217 3367 3364 3307 3256 3206 3122 2790 2520 2390 2179 1994 2010 2064 2205 2309 2300 2234 2253 2252 2232 2140 2114 2004 1790 1635 1566 1457 1386 1316 1139 1087 1247 1381 1431 1568 1663 1799 1948 1930 1729 1364 1213 1316 1585 1659 1894 2175 2303 2678 2914 2928 3022 3194 3243 3338 3205 3127 3197 3102 3063 -9999 -9999 -9999 -9999 -9999 -9999 -9999 -9999 -9999 -9999 -9999 -9999 -9999 -9999 -9999 -9999 -9999 -9999 -9999 -9999 -9999 -9999 -9999 -9999 -9999 -9999 -9999 -9999 -9999 -9999 -9999 -9999 -9999 -9999 -9999 -9999 -9999
-9999 -9999 -9999 -9999 -9999 -9999 -9999 -9999 -9999 -9999 3587 3410 3319 3216 3187 3396 3432 3540 3256 3321 3486 3534 3462 3450 3362 3411 3505 3406 3246 3054 3003 2863 2618 2394 2278 2045 1922 1821 1808 1897 2036 2119 2208 2208 2063 2089 1967 1877 1762 1822 1794 1735 1592 1603 1344 1241 1094 1346 1678 1804 1824 2011 2103 1744 1625 1506 1214 1392 1552 1835 1998 2190 2364 2397 2382 2443 2651 2782 2829 2937 2895 2885 2804 2839 2867 2999 -9999 -9999 -9999 -9999 -9999 -9999 -9999 -9999 -9999 -9999 -9999 -9999 -9999 -9999 -9999 -9999 -9999 -9999 -9999 -9999 -9999 -9999 -9999 -9999 -9999 -9999 -9999 -9999 -9999 -9999 -9999 -9999 -9999 -9999 -9999 -9999 -9999
-9999 -9999 -9999 -9999 -9999 -9999 -9999 -9999 -9999 3670 3469 3336 3276 3138 3025 3122 3232 3316 3134 3283 3532 3618 3548 3521 3448 3478 3384 3228 3036 2851 2799 2663 2471 2306 2211 1992 1879 1747 1720 1810 1956 2061 2157 2255 2177 1945 1834 1786 1684 1601 1634 1671 1726 1711 1381 1230 1066 1410 1811 2002 2026 2194 2082 1739 1596 1314 1255 1379 1537 1738 1870 2113 2175 2153 2183 2308 2517 2656 2745 2737 2744 2739 2723 2770 2910 3022 -9999 -9999 -9999 -9999 -9999 -9999 -9999 -9999 -9999 -9999 -9999 -9999 -9999 -9999 -9999 -9999 -9999 -9999 -9999 -9999 -9999 -9999 -9999 -9999 -9999 -9999 -9999 -9999 -9999 -9999 -9999 -9999 -9999 -9999 -9999 -9999 -9999
-9999 -9999 -9999 -9999 -9999 -9999 -9999 3817 3755 3636 3518 3323 3369 3476 3126 2826 2837 2873 3019 3133 3406 3526 3544 3346 3113 3052 3012 2936 2781 2609 2534 2311 2105 2062 2027 1906 1718 1612 1608 1779 1915 2026 1979 1994 2076 2062 2085 1972 1884 1835 1714 1663 1394 1460 1315 1097 1203 1512 1778 1874 2041 2042 1738 1638 1517 1382 1532 1372 1446 1585 1612 1801 1825 1954 2141 2450 2572 2485 2542 2563 2544 2617 2700 2751 2891 2986 -9999 -9999 -9999 -9999 -9999 -9999 -9999 -9999 -9999 -9999 -9999 -9999 -9999 -9999 -9999 -9999 -9999 -9999 -9999 -9999 -9999 -9999 -9999 -9999 -9999 -9999 -9999 -9999 -9999 -9999 -9999 -9999 -9999 -9999 -9999 -9999 -9999
-9999 -9999 -9999 -9999 -9999 -9999 -9999 3901 3834 3557 3259 3175 3115 3068 3001 2930 2601 2507 2633 2879 3151 3255 3391 3198 2872 2723 2611 2558 2509 2523 2449 2208 1922 1797 1758 1668 1546 1551 1603 1696 1874 1918 1775 1748 1859 1901 2094 2203 2082 1986 1780 1702 1660 1250 1214 1053 1305 1522 1593 1773 1897 1818 1492 1292 1346 1514 1818 1651 1739 2061 1914 1911 2052 2098 2380 2460 2368 2323 2363 2394 2492 2530 2700 2781 2930 -9999 -9999 -9999 -9999 -9999 -9999 -9999 -9999 -9999 -9999 -9999 -9999 -9999 -9999 -9999 -9999 -9999 -9999 -9999 -9999 -9999 -9999 -9999 -9999 -9999 -9999 -9999 -9999 -9999 -9999 -9999 -9999 -9999 -9999 -9999 -9999 -9999 -9999
-9999 -9999 -9999 -9999 -9999 -9999 -9999 3672 3474 3051 2763 2707 2712 2722 2516 2467 2456 2443 2347 2610 2858 2964 3129 3049 2776 2604 2354 2204 2135 2161 2153 2032 1809 1675 1623 1513 1412 1399 1463 1663 1671 1604 1634 1737 1713 1594 1930 2051 2037 1795 1664 1548 1321 1159 1069 998 1120 1347 1568 1965 1995 1692 1392 1147 1154 1493 1890 2090 2125 2006 2168 2204 2257 2390 2390 2254 2341 2400 2448 2506 2464 2535 2638 2825 -9999 -9999 -9999 -9999 -9999 -9999 -9999 -9999 -9999 -9999 -9999 -9999 -9999 -9999 -9999 -9999 -9999 -9999 -9999 -9999 -9999 -9999 -9999 -9999 -9999 -9999 -9999 -9999 -9999 -9999 -9999 -9999 -9999 -9999 -9999 -9999 -9999 -9999 -9999
-9999 -9999 -9999 -9999 -9999 -9999 -9999 3214 3037 2811 2728 2648 2599 2513 2454 2272 2187 2226 2295 2316 2477 2581 2749 2807 2717 2603 2330 2097 1925 1830 1824 1776 1618 1564 1550 1531 1516 1376 1352 1489 1353 1364 1365 1382 1400 1549 1819 1827 1811 1717 1617 1560 1320 1132 1042 1023 1241 1400 1686 2027 1911 1584 1246 1176 1355 1676 2000 2117 1941 1827 2042 2332 2296 2224 2129 2211 2382 2497 2610 2621 2600 2594 2732 2845 -9999 -9999 -9999 -9999 -9999 -9999 -9999 -9999 -9999 -9999 -9999 -9999 -9999 -9999 -9999 -9999 -9999 -9999 -9999 -9999 -9999 -9999 -9999 -9999 -9999 -9999 -9999 -9999 -9999 -9999 -9999 -9999 -9999 -9999 -9999 -9999 -9999 -9999 -9999
-9999 -9999 -9999 -9999 -9999 -9999 3491 3105 2962 2867 2940 2916 2827 2688 2598 2467 2295 2244 2127 2120 2264 2366 2516 2647 2661 2605 2362 2112 1904 1734 1712 1666 1513 1509 1528 1587 1660 1456 1364 1349 1304 1284 1221 1228 1335 1470 1725 1747 1716 1750 1548 1435 1183 1111 1005 999 1213 1534 1746 1888 1773 1486 1126 1385 1512 1739 2039 1963 1777 1855 2117 2420 2249 2163 2050 2215 2416 2548 2588 2638 2693 2669 2733 -9999 -9999 -9999 -9999 -9999 -9999 -9999 -9999 -9999 -9999 -9999 -9999 -9999 -9999 -9999 -9999 -9999 -9999 -9999 -9999 -9999 -9999 -9999 -9999 -9999 -9999 -9999 -9999 -9999 -9999 -9999 -9999 -9999 -9999 -9999 -9999 -9999 -9999 -9999 -9999
-9999 -9999 -9999 -9999 -9999 3680 3372 3024 2884 2992 3257 3254 3170 3042 2998 2904 2691 2548 2244 2041 1965 1989 2131 2277 2350 2342 2181 1941 1728 1593 1571 1582 1609 1725 1754 1746 1717 1696 1629 1476 1513 1495 1306 1243 1172 1272 1458 1510 1660 1730 1460 1432 1473 1392 1138 983 1126 1347 1616 1375 1321 1236 1127 1489 1642 2003 1895 1654 1588 1836 2133 2163 2031 1941 2015 2185 2515 2576 2551 2604 2668 2714 -9999 -9999 -9999 -9999 -9999 -9999 -9999 -9999 -9999 -9999 -9999 -9999 -9999 -9999 -9999 -9999 -9999 -9999 -9999 -9999 -9999 -9999 -9999 -9999 -9999 -9999 -9999 -9999 -9999 -9999 -9999 -9999 -9999 -9999 -9999 -9999 -9999 -9999 -9999 -9999 -9999
-9999 -9999 -9999 -9999 3936 3566 3291 3046 2994 3289 3515 3481 3415 3353 3354 3233 2994 2839 2514 2199 1956 1910 1991 2010 1967 1941 1851 1717 1636 1605 1610 1705 1868 2014 1977 1748 1903 1813 1653 1598 1724 1655 1382 1448 1314 1122 1252 1386 1474 1332 1702 1786 1704 1487 1200 1000 1081 1373 1480 1136 1029 1091 1314 1589 1653 1573 1575 1495 1619 1728 1978 1912 1799 1874 2072 2244 2356 2396 2494 2434 2538 2670 -9999 -9999 -9999 -9999 -9999 -9999 -9999 -9999 -9999 -9999 -9999 -9999 -9999 -9999 -9999 -9999 -9999 -9999 -9999 -9999 -9999 -9999 -9999 -9999 -9999 -9999 -9999 -9999 -9999 -9999 -9999 -9999 -9999 -9999 -9999 -9999 -9999 -9999 -9999 -9999 -9999
-9999 -9999 -9999 -9999 3775 3626 3357 3198 3293 3598 3748 3747 3693 3605 3554 3424 3151 2989 2670 2385 2218 2170 2167 2019 1859 1782 1713 1738 1806 1758 1776 1885 2001 2067 2128 1935 2039 1846 1804 1984 1817 1602 1600 1664 1421 1221 1107 1171 1188 1326 1557 1561 1535 1296 1140 1014 1108 1178 1093 1043 1163 1228 1326 1327 1321 1427 1498 1530 1560 1520 1659 1698 1743 1814 1926 2041 2151 2136 2185 2405 2495 2593 2882 -9999 -9999 -9999 -9999 -9999 -9999 -9999 -9999 -9999 -9999 -9999 -9999 -9999 -9999 -9999 -9999 -9999 -9999 -9999 -9999 -9999 -9999 -9999 -9999 -9999 -9999 -9999 -9999 -9999 -9999 -9999 -9999 -9999 -9999 -9999 -9999 -9999 -9999 -9999 -9999
-9999 -9999 -9999 3864 3780 3584 3399 3351 3399 3616 3816 3818 3770 3646 3531 3431 3202 3055 2743 2518 2438 2428 2333 2160 1993 1908 1766 1820 1923 1834 1851 1940 1976 2111 2243 2065 2237 1989 1925 2107 1879 1730 1809 1774 1435 1299 1202 1111 1117 1259 1358 1462 1521 1263 1045 988 1038 1069 1001 1180 1280 1475 1477 1460 1504 1585 1709 1734 1871 1713 1702 1834 1753 1783 1844 1970 2045 2080 2171 2368 2636 2718 2980 -9999 -9999 -9999 -9999 -9999 -9999 -9999 -9999 -9999 -9999 -9999 -9999 -9999 -9999 -9999 -9999 -9999 -9999 -9999 -9999 -9999 -9999 -9999 -9999 -9999 -9999 -9999 -9999 -9999 -9999 -9999 -9999 -9999 -9999 -9999 -9999 -9999 -9999 -9999 -9999
-9999 -9999 -9999 3982 3895 3698 3691 3557 3522 3549 -9999 -9999 -9999 3434 -9999 -9999 -9999 3143 2987 2829 2714 2674 2510 2318 2197 2049 1832 1940 2115 2010 1972 1966 2006 2136 2246 2366 2478 2252 2133 2097 1901 2020 2181 2086 1808 1525 1402 1334 1193 1053 1156 1292 1396 1404 1231 1040 957 1120 1301 1337 1473 1854 1888 1858 1873 1983 1984 1965 1975 1914 1804 1985 1862 2013 2154 2057 2312 2408 2559 2461 2635 2684 2919 -9999 -9999 -9999 -9999 -9999 -9999 -9999 -9999 -9999 -9999 -9999 -9999 -9999 -9999 -9999 -9999 -9999 -9999 -9999 -9999 -9999 -9999 -9999 -9999 -9999 -9999 -9999 -9999 -9999 -9999 -9999 -9999 -9999 -9999 -9999 -9999 -9999 -9999 -9999 -9999
-9999 -9999 -9999 -9999 3906 3797 3779 -9999 -9999 -9999 -9999 -9999 -9999 -9999 -9999 -9999 -9999 -9999 3219 3109 2772 2620 2503 2207 2072 1952 1859 2043 2222 2201 2041 2046 2159 2352 2430 2575 2625 2488 2400 2436 2353 2287 2179 2110 1956 1793 1479 1342 1307 1377 1028 1019 1208 1222 1233 1132 936 1193 1517 1688 1741 1807 1844 1847 1855 1752 1762 1876 1952 2140 2156 2120 1994 1950 2277 2351 2420 2530 2824 2820 2782 2888 3151 -9999 -9999 -9999 -9999 -9999 -9999 -9999 -9999 -9999 -9999 -9999 -9999 -9999 -9999 -9999 -9999 -9999 -9999 -9999 -9999 -9999 -9999 -9999 -9999 -9999 -9999 -9999 -9999 -9999 -9999 -9999 -9999 -9999 -9999 -9999 -9999 -9999 -9999 -9999 -9999
-9999 -9999 -9999 -9999 -9999 -9999 -9999 -9999 -9999 -9999 -9999 -9999 -9999 -9999 -9999 -9999 -9999 -9999 -9999 3138 2819 2650 2601 2280 2033 2079 1970 2172 2300 2273 2111 2126 2379 2522 2563 2702 2773 2606 2546 2482 2407 2254 2050 2004 1779 1630 1408 1452 1446 1350 1291 1283 1074 976 987 979 963 1193 1437 1541 1477 1586 1667 1560 1543 1731 1750 1885 1907 2111 2272 2426 2151 2066 2240 2612 2713 2829 2954 3060 3074 3144 3385 -9999 -9999 -9999 -9999 -9999 -9999 -9999 -9999 -9999 -9999 -9999 -9999 -9999 -9999 -9999 -9999 -9999 -9999 -9999 -9999 -9999 -9999 -9999 -9999 -9999 -9999 -9999 -9999 -9999 -9999 -9999 -9999 -9999 -9999 -9999 -9999 -9999 -9999 -9999 -9999
-9999 -9999 -9999 -9999 -9999 -9999 -9999 -9999 -9999 -9999 -9999 -9999 -9999 -9999 -9999 -9999 -9999 -9999 -9999 -9999 2831 2691 2546 2265 2174 2173 2137 2143 2345 2215 2110 2182 2451 2578 2670 2769 2809 2636 2564 2486 2291 2132 2011 1911 1718 1539 1464 1519 1400 1330 1333 1396 1400 1271 1272 1116 943 1155 1394 1398 1381 1551 1426 1517 1588 1856 1965 1928 1926 2006 2239 2490 2313 2184 2201 2468 2721 2824 -9999 -9999 -9999 -9999 -9999 -9999 -9999 -9999 -9999 -9999 -9999 -9999 -9999 -9999 -9999 -9999 -9999 -9999 -9999 -9999 -9999 -9999 -9999 -9999 -9999 -9999 -9999 -9999 -9999 -9999 -9999 -9999 -9999 -9999 -9999 -9999 -9999 -9999 -9999 -9999 -9999 -9999 -9999 -9999 -9999
-9999 -9999 -9999 -9999 -9999 -9999 -9999 -9999 -9999 -9999 -9999 -9999 -9999 -9999 -9999 -9999 -9999 -9999 -9999 -9999 -9999 2774 2620 2476 2439 2430 2339 2189 2335 2253 2222 2386 2544 2708 2779 2808 2823 2600 2486 2272 2123 1949 1866 1762 1620 1676 1616 1605 1644 1473 1578 1623 1478 1517 1409 1347 992 1069 1285 1366 1395 1256 1508 1611 1722 1941 2047 2253 2239 2213 2243 2545 2508 2501 2543 2561 2867 2963 -9999 -9999 -9999 -9999 -9999 -9999 -9999 -9999 -9999 -9999 -9999 -9999 -9999 -9999 -9999 -9999 -9999 -9999 -9999 -9999 -9999 -9999 -9999 -9999 -9999 -9999 -9999 -9999 -9999 -9999 -9999 -9999 -9999 -9999 -9999 -9999 -9999 -9999 -9999 -9999 -9999 -9999 -9999 -9999 -9999
-9999 -9999 -9999 -9999 -9999 -9999 -9999 -9999 -9999 -9999 -9999 -9999 -9999 -9999 -9999 -9999 -9999 -9999 -9999 -9999 -9999 -9999 -9999 2583 2677 2665 2589 2382 2481 2536 2437 2542 2789 2964 2932 2623 2583 2551 2537 2364 2170 1943 1842 1798 1917 1800 1691 1849 1875 1790 1624 1496 1345 1301 1247 1258 926 1107 1211 1215 1207 1242 1487 1748 1781 1912 1968 2245 2401 2463 2598 2608 2739 2783 2812 2944 -9999 -9999 -9999 -9999 -9999 -9999 -9999 -9999 -9999 -9999 -9999 -9999 -9999 -9999 -9999 -9999 -9999 -9999 -9999 -9999 -9999 -9999 -9999 -9999 -9999 -9999 -9999 -9999 -9999 -9999 -9999 -9999 -9999 -9999 -9999 -9999 -9999 -9999 -9999 -9999 -9999 -9999 -9999 -9999 -9999 -9999 -9999
-9999 -9999 -9999 -9999 -9999 -9999 -9999 -9999 -9999 -9999 -9999 -9999 -9999 -9999 -9999 -9999 -9999 -9999 -9999 -9999 -9999 -9999 -9999 2617 2824 2882 2826 2703 2637 2744 2689 2702 2898 3010 2924 2615 2414 2201 2360 2479 2189 2014 2053 2064 2092 1842 1940 2062 1897 1691 1541 1518 1348 1215 1119 1067 922 977 1189 1074 1171 1405 1419 1677 1793 2025 2225 2241 2364 2697 2763 2588 -9999 -9999 -9999 -9999 -9999 -9999 -9999 -9999 -9999 -9999 -9999 -9999 -9999 -9999 -9999 -9999 -9999 -9999 -9999 -9999 -9999 -9999 -9999 -9999 -9999 -9999 -9999 -9999 -9999 -9999 -9999 -9999 -9999 -9999 -9999 -9999 -9999 -9999 -9999 -9999 -9999 -9999 -9999 -9999 -9999 -9999 -9999 -9999 -9999 -9999 -9999
-9999 -9999 -9999 -9999 -9999 -9999 -9999 -9999 -9999 -9999 -9999 -9999 -9999 -9999 -9999 -9999 -9999 -9999 -9999 -9999 -9999 -9999 -9999 -9999 -9999 -9999 2939 2860 2758 2845 2848 2780 2932 2960 2847 2597 2353 2095 2227 2412 2295 2210 2223 2218 2179 1989 2093 2161 1940 1705 1436 1385 1278 1138 1093 998 1035 889 1083 1054 1160 1285 1497 1702 1750 2056 2323 2461 2474 -9999 -9999 -9999 -9999 -9999 -9999 -9999 -9999 -9999 -9999 -9999 -9999 -9999 -9999 -9999 -9999 -9999 -9999 -9999 -9999 -9999 -9999 -9999 -9999 -9999 -9999 -9999 -9999 -9999 -9999 -9999 -9999 -9999 -9999 -9999 -9999 -9999 -9999 -9999 -9999 -9999 -9999 -9999 -9999 -9999 -9999 -9999 -9999 -9999 -9999 -9999 -9999 -9999 -9999
-9999 -9999 -9999 -9999 -9999 -9999 -9999 -9999 -9999 -9999 -9999 -9999 -9999 -9999 -9999 -9999 -9999 -9999 -9999 -9999 -9999 -9999 -9999 -9999 -9999 -9999 -9999 -9999 3040 3014 3069 3092 3005 2689 2710 2575 2275 2037 1972 2154 2088 2249 2276 2299 2449 2395 2334 2250 2056 1789 1506 1413 1255 1335 1096 1091 989 898 992 1132 1121 1272 1398 1420 1476 1749 2236 2318 2362 -9999 -9999 -9999 -9999 -9999 -9999 -9999 -9999 -9999 -9999 -9999 -9999 -9999 -9999 -9999 -9999 -9999 -9999 -9999 -9999 -9999 -9999 -9999 -9999 -9999 -9999 -9999 -9999 -9999 -9999 -9999 -9999 -9999 -9999 -9999 -9999 -9999 -9999 -9999 -9999 -9999 -9999 -9999 -9999 -9999 -9999 -9999 -9999 -9999 -9999 -9999 -9999 -9999 -9999
-9999 -9999 -9999 -9999 -9999 -9999 -9999 -9999 -9999 -9999 -9999 -9999 -9999 -9999 -9999 -9999 -9999 -9999 -9999 -9999 -9999 -9999 -9999 -9999 -9999 -9999 -9999 -9999 -9999 3125 3009 2966 2924 2606 2427 2283 2205 2036 1868 1895 1977 2073 1993 2128 2373 2290 2196 2210 2048 1656 1638 1676 1489 1232 1345 1336 980 903 1027 1178 1257 1393 1370 1393 1450 1706 1924 2122 2310 -9999 -9999 -9999 -9999 -9999 -9999 -9999 -9999 -9999 -9999 -9999 -9999 -9999 -9999 -9999 -9999 -9999 -9999 -9999 -9999 -9999 -9999 -9999 -9999 -9999 -9999 -9999 -9999 -9999 -9999 -9999 -9999 -9999 -9999 -9999 -9999 -9999 -9999 -9999 -9999 -9999 -9999 -9999 -9999 -9999 -9999 -9999 -9999 -9999 -9999 -9999 -9999 -9999 -9999
-9999 -9999 -9999 -9999 -9999 -9999 -9999 -9999 -9999 -9999 -9999 -9999 -9999 -9999 -9999 -9999 -9999 -9999 -9999 -9999 -9999 -9999 -9999 -9999 -9999 -9999 -9999 -9999 -9999 3060 3047 2756 2764 2737 2556 2249 1943 1815 1738 1846 1986 1897 1856 1986 2251 2125 1980 1936 2000 1865 1546 1411 1254 1127 1064 1076 888 954 1201 1315 1437 1652 1640 1784 1706 1550 1829 1961 2161 2470 -9999 -9999 -9999 -9999 -9999 -9999 -9999 -9999 -9999 -9999 -9999 -9999 -9999 -9999 -9999 -9999 -9999 -9999 -9999 -9999 -9999 -9999 -9999 -9999 -9999 -9999 -9999 -9999 -9999 -9999 -9999 -9999 -9999 -9999 -9999 -9999 -9999 -9999 -9999 -9999 -9999 -9999 -9999 -9999 -9999 -9999 -9999 -9999 -9999 -9999 -9999 -9999 -9999
-9999 -9999 -9999 -9999 -9999 -9999 -9999 -9999 -9999 -9999 -9999 -9999 -9999 -9999 -9999 -9999 -9999 -9999 -9999 -9999 -9999 -9999 -9999 -9999 -9999 -9999 -9999 -9999 -9999 3008 2853 2644 2521 2546 2408 2318 2096 1857 1729 1635 1672 1634 1941 2058 2109 1960 1870 1722 1691 1682 1597 1539 1428 1375 1148 1038 856 1043 1288 1466 1598 1807 2055 2074 1984 1683 1788 2133 2270 -9999 -9999 -9999 -9999 -9999 -9999 -9999 -9999 -9999 -9999 -9999 -9999 -9999 -9999 -9999 -9999 -9999 -9999 -9999 -9999 -9999 -9999 -9999 -9999 -9999 -9999 -9999 -9999 -9999 -9999 -9999 -9999 -9999 -9999 -9999 -9999 -9999 -9999 -9999 -9999 -9999 -9999 -9999 -9999 -9999 -9999 -9999 -9999 -9999 -9999 -9999 -9999 -9999 -9999
-9999 -9999 -9999 -9999 -9999 -9999 -9999 -9999 -9999 -9999 -9999 -9999 -9999 -9999 -9999 -9999 -9999 -9999 -9999 -9999 -9999 -9999 -9999 -9999 -9999 -9999 -9999 -9999 -9999 3036 2904 2672 2464 2311 2232 2171 1919 1868 1766 1633 1560 1668 1988 2045 2047 1931 1773 1673 1547 1538 1472 1397 1294 1285 1045 948 903 1121 1288 1480 1482 1806 2091 2189 2126 1835 1769 2090 2273 -9999 -9999 -9999 -9999 -9999 -9999 -9999 -9999 -9999 -9999 -9999 -9999 -9999 -9999 -9999 -9999 -9999 -9999 -9999 -9999 -9999 -9999 -9999 -9999 -9999 -9999 -9999 -9999 -9999 -9999 -9999 -9999 -9999 -9999 -9999 -9999 -9999 -9999 -9999 -9999 -9999 -9999 -9999 -9999 -9999 -9999 -9999 -9999 -9999 -9999 -9999 -9999 -9999 -9999
-9999 -9999 -9999 -9999 -9999 -9999 -9999 -9999 -9999 -9999 -9999 -9999 -9999 -9999 -9999 -9999 -9999 -9999 -9999 -9999 -9999 -9999 -9999 -9999 -9999 -9999 -9999 -9999 -9999 -9999 3068 2906 2671 2329 2160 1922 1757 1654 1628 1619 1508 1638 1618 1646 1917 1784 1641 1519 1380 1372 1431 1445 1130 1053 946 850 1047 1062 1199 1329 1458 1767 1884 1972 2090 2197 2190 2195 2144 -9999 -9999 -9999 -9999 -9999 -9999 -9999 -9999 -9999 -9999 -9999 -9999 -9999 -9999 -9999 -9999 -9999 -9999 -9999 -9999 -9999 -9999 -9999 -9999 -9999 -9999 -9999 -9999 -9999 -9999 -9999 -9999 -9999 -9999 -9999 -9999 -9999 -9999 -9999 -9999 -9999 -9999 -9999 -9999 -9999 -9999 -9999 -9999 -9999 -9999 -9999 -9999 -9999 -9999
-9999 -9999 -9999 -9999 -9999 -9999 -9999 -9999 -9999 -9999 -9999 -9999 -9999 -9999 -9999 -9999 -9999 -9999 -9999 -9999 -9999 -9999 -9999 -9999 -9999 -9999 -9999 -9999 -9999 -9999 -9999 2899 2717 2601 2458 2225 2014 1908 1884 1755 1583 1448 1691 1721 1624 1768 1533 1502 1498 1313 1313 1402 1376 1051 844 902 990 1067 1242 1445 1457 1615 1763 1869 1925 2001 2016 2005 1975 -9999 -9999 -9999 -9999 -9999 -9999 -9999 -9999 -9999 -9999 -9999 -9999 -9999 -9999 -9999 -9999 -9999 -9999 -9999 -9999 -9999 -9999 -9999 -9999 -9999 -9999 -9999 -9999 -9999 -9999 -9999 -9999 -9999 -9999 -9999 -9999 -9999 -9999 -9999 -9999 -9999 -9999 -9999 -9999 -9999 -9999 -9999 -9999 -9999 -9999 -9999 -9999 -9999 -9999
-9999 -9999 -9999 -9999 -9999 -9999 -9999 -9999 -9999 -9999 -9999 -9999 -9999 -9999 -9999 -9999 -9999 -9999 -9999 -9999 -9999 -9999 -9999 -9999 -9999 -9999 -9999 -9999 -9999 -9999 2907 2510 2274 2223 2210 2023 1919 1867 1688 1733 1556 1370 1423 1533 1475 1688 1559 1457 1347 1154 1133 1208 1234 1190 838 846 1000 1085 1290 1524 1423 1463 1606 1834 1938 1921 1694 1777 1766 1911 -9999 -9999 -9999 -9999 -9999 -9999 -9999 -9999 -9999 -9999 -9999 -9999 -9999 -9999 -9999 -9999 -9999 -9999 -9999 -9999 -9999 -9999 -9999 -9999 -9999 -9999 -9999 -9999 -9999 -9999 -9999 -9999 -9999 -9999 -9999 -9999 -9999 -9999 -9999 -9999 -9999 -9999 -9999 -9999 -9999 -9999 -9999 -9999 -9999 -9999 -9999 -9999 -9999
-9999 -9999 -9999 -9999 -9999 -9999 -9999 -9999 -9999 -9999 -9999 -9999 -9999 -9999 -9999 -9999 -9999 -9999 -9999 -9999 -9999 -9999 -9999 -9999 -9999 -9999 -9999 -9999 -9999 -9999 2897 2445 2156 2089 2034 1898 1795 1755 1650 1576 1643 1355 1390 1418 1382 1630 1406 1383 1244 1163 1072 1095 1158 1105 862 832 950 1153 1292 1396 1330 1451 1617 1908 1995 1897 1633 1688 1669 1881 -9999 -9999 -9999 -9999 -9999 -9999 -9999 -9999 -9999 -9999 -9999 -9999 -9999 -9999 -9999 -9999 -9999 -9999 -9999 -9999 -9999 -9999 -9999 -9999 -9999 -9999 -9999 -9999 -9999 -9999 -9999 -9999 -9999 -9999 -9999 -9999 -9999 -9999 -9999 -9999 -9999 -9999 -9999 -9999 -9999 -9999 -9999 -9999 -9999 -9999 -9999 -9999 -9999
-9999 -9999 -9999 -9999 -9999 -9999 -9999 -9999 -9999 -9999 -9999 -9999 -9999 -9999 -9999 -9999 -9999 -9999 -9999 -9999 -9999 -9999 -9999 -9999 -9999 -9999 -9999 -9999 -9999 -9999 2965 2645 2374 2179 2041 1727 1655 1575 1553 1513 1366 1382 1236 1267 1278 1334 1210 1335 1310 1321 1203 1156 1049 994 865 841 1034 1136 1105 1289 1394 1649 1847 1889 1873 1803 1630 1510 1638 1706 1841 -9999 -9999 -9999 -9999 -9999 -9999 -9999 -9999 -9999 -9999 -9999 -9999 -9999 -9999 -9999 -9999 -9999 -9999 -9999 -9999 -9999 -9999 -9999 -9999 -9999 -9999 -9999 -9999 -9999 -9999 -9999 -9999 -9999 -9999 -9999 -9999 -9999 -9999 -9999 -9999 -9999 -9999 -9999 -9999 -9999 -9999 -9999 -9999 -9999 -9999 -9999 -9999
-9999 -9999 -9999 -9999 -9999 -9999 -9999 -9999 -9999 -9999 -9999 -9999 -9999 -9999 -9999 -9999 -9999 -9999 -9999 -9999 -9999 -9999 -9999 -9999 -9999 -9999 -9999 -9999 -9999 -9999 3005 2987 2815 2634 2482 2128 2066 1891 1890 1720 1529 1477 1472 1373 1244 1154 1116 1156 1115 1118 1196 1123 966 847 817 941 940 1015 1160 1384 1565 1603 1640 1621 1668 1742 1626 1446 1471 1534 1753 -9999 -9999 -9999 -9999 -9999 -9999 -9999 -9999 -9999 -9999 -9999 -9999 -9999 -9999 -9999 -9999 -9999 -9999 -9999 -9999 -9999 -9999 -9999 -9999 -9999 -9999 -9999 -9999 -9999 -9999 -9999 -9999 -9999 -9999 -9999 -9999 -9999 -9999 -9999 -9999 -9999 -9999 -9999 -9999 -9999 -9999 -9999 -9999 -9999 -9999 -9999 -9999
-9999 -9999 -9999 -9999 -9999 -9999 -9999 -9999 -9999 -9999 -9999 -9999 -9999 -9999 -9999 -9999 -9999 -9999 -9999 -9999 -9999 -9999 -9999 -9999 -9999 -9999 -9999 -9999 -9999 -9999 2995 2991 2970 2720 2585 2278 1998 1830 1777 1553 1456 1378 1317 1253 1413 1345 1266 1237 1082 984 1206 1157 951 911 803 852 1023 1097 1266 1376 1312 1468 1402 1518 1627 1636 1482 1358 1413 1458 1494 -9999 -9999 -9999 -9999 -9999 -9999 -9999 -9999 -9999 -9999 -9999 -9999 -9999 -9999 -9999 -9999 -9999 -9999 -9999 -9999 -9999 -9999 -9999 -9999 -9999 -9999 -9999 -9999 -9999 -9999 -9999 -9999 -9999 -9999 -9999 -9999 -9999 -9999 -9999 -9999 -9999 -9999 -9999 -9999 -9999 -9999 -9999 -9999 -9999 -9999 -9999 -9999
-9999 -9999 -9999 -9999 -9999 -9999 -9999 -9999 -9999 -9999 -9999 -9999 -9999 -9999 -9999 -9999 -9999 -9999 -9999 -9999 -9999 -9999 -9999 -9999 -9999 -9999 -9999 -9999 -9999 -9999 -9999 -9999 -9999 2700 2540 2224 1910 1787 1743 1606 1503 1488 1311 1312 1515 1472 1426 1309 1156 968 1091 1067 924 849 810 804 965 1176 1192 1293 1234 1425 1342 1513 1512 1432 1459 1323 1427 1406 1422 -9999 -9999 -9999 -9999 -9999 -9999 -9999 -9999 -9999 -9999 -9999 -9999 -9999 -9999 -9999 -9999 -9999 -9999 -9999 -9999 -9999 -9999 -9999 -9999 -9999 -9999 -9999 -9999 -9999 -9999 -9999 -9999 -9999 -9999 -9999 -9999 -9999 -9999 -9999 -9999 -9999 -9999 -9999 -9999 -9999 -9999 -9999 -9999 -9999 -9999 -9999 -9999
-9999 -9999 -9999 -9999 -9999 -9999 -9999 -9999 -9999 -9999 -9999 -9999 -9999 -9999 -9999 -9999 -9999 -9999 -9999 -9999 -9999 -9999 -9999 -9999 -9999 -9999 -9999 -9999 -9999 -9999 -9999 -9999 -9999 -9999 -9999 -9999 2229 2146 2000 1932 1698 1497 1391 1479 1575 1834 1559 1445 1197 1052 956 958 1061 1073 923 835 805 1127 1042 1096 1147 1291 1278 1444 1345 1211 1338 1223 1280 1309 -9999 -9999 -9999 -9999 -9999 -9999 -9999 -9999 -9999 -9999 -9999 -9999 -9999 -9999 -9999 -9999 -9999 -9999 -9999 -9999 -9999 -9999 -9999 -9999 -9999 -9999 -9999 -9999 -9999 -9999 -9999 -9999 -9999 -9999 -9999 -9999 -9999 -9999 -9999 -9999 -9999 -9999 -9999 -9999 -9999 -9999 -9999 -9999 -9999 -9999 -9999 -9999 -9999
-9999 -9999 -9999 -9999 -9999 -9999 -9999 -9999 -9999 -9999 -9999 -9999 -9999 -9999 -9999 -9999 -9999 -9999 -9999 -9999 -9999 -9999 -9999 -9999 -9999 -9999 -9999 -9999 -9999 -9999 -9999 -9999 -9999 -9999 -9999 -9999 -9999 -9999 -9999 -9999 1890 1619 1549 1584 1781 1753 1704 1668 1544 1408 1324 1325 1379 1164 959 902 771 916 984 1005 1028 1166 1203 1278 1108 1113 1231 1216 1256 1232 -9999 -9999 -9999 -9999 -9999 -9999 -9999 -9999 -9999 -9999 -9999 -9999 -9999 -9999 -9999 -9999 -9999 -9999 -9999 -9999 -9999 -9999 -9999 -9999 -9999 -9999 -9999 -9999 -9999 -9999 -9999 -9999 -9999 -9999 -9999 -9999 -9999 -9999 -9999 -9999 -9999 -9999 -9999 -9999 -9999 -9999 -9999 -9999 -9999 -9999 -9999 -9999 -9999
-9999 -9999 -9999 -9999 -9999 -9999 -9999 -9999 -9999 -9999 -9999 -9999 -9999 -9999 -9999 -9999 -9999 -9999 -9999 -9999 -9999 -9999 -9999 -9999 -9999 -9999 -9999 -9999 -9999 -9999 -9999 -9999 -9999 -9999 -9999 -9999 -9999 -9999 -9999 -9999 -9999 1812 1759 1801 1756 1625 1603 1507 1491 1448 1463 1456 1452 1330 1018 941 818 788 889 1039 1176 1246 1228 1124 981 1010 1158 1180 1197 1124 1147 -9999 -9999 -9999 -9999 -9999 -9999 -9999 -9999 -9999 -9999 -9999 -9999 -9999 -9999 -9999 -9999 -9999 -9999 -9999 -9999 -9999 -9999 -9999 -9999 -9999 -9999 -9999 -9999 -9999 -9999 -9999 -9999 -9999 -9999 -9999 -9999 -9999 -9999 -9999 -9999 -9999 -9999 -9999 -9999 -9999 -9999 -9999 -9999 -9999 -9999 -9999 -9999
-9999 -9999 -9999 -9999 -9999 -9999 -9999 -9999 -9999 -9999 -9999 -9999 -9999 -9999 -9999 -9999 -9999 -9999 -9999 -9999 -9999 -9999 -9999 -9999 -9999 -9999 -9999 -9999 -9999 -9999 -9999 -9999 -9999 -9999 -9999 -9999 -9999 -9999 -9999 -9999 -9999 -9999 -9999 -9999 1783 1666 1522 1468 1405 1369 1439 1334 1359 1378 1226 1088 885 787 785 788 839 956 1040 1054 943 1005 1063 1117 1142 1045 1109 -9999 -9999 -9999 -9999 -9999 -9999 -9999 -9999 -9999 -9999 -9999 -9999 -9999 -9999 -9999 -9999 -9999 -9999 -9999 -9999 -9999 -9999 -9999 -9999 -9999 -9999 -9999 -9999 -9999 -9999 -9999 -9999 -9999 -9999 -9999 -9999 -9999 -9999 -9999 -9999 -9999 -9999 -9999 -9999 -9999 -9999 -9999 -9999 -9999 -9999 -9999 -9999
-9999 -9999 -9999 -9999 -9999 -9999 -9999 -9999 -9999 -9999 -9999 -9999 -9999 -9999 -9999 -9999 -9999 -9999 -9999 -9999 -9999 -9999 -9999 -9999 -9999 -9999 -9999 -9999 -9999 -9999 -9999 -9999 -9999 -9999 -9999 -9999 -9999 -9999 -9999 -9999 -9999 -9999 -9999 -9999 1757 1654 1519 1477 1402 1348 1403 1331 1285 1324 1267 1178 925 827 752 750 804 863 941 980 890 984 979 1096 1135 1002 -9999 -9999 -9999 -9999 -9999 -9999 -9999 -9999 -9999 -9999 -9999 -9999 -9999 -9999 -9999 -9999 -9999 -9999 -9999 -9999 -9999 -9999 -9999 -9999 -9999 -9999 -9999 -9999 -9999 -9999 -9999 -9999 -9999 -9999 -9999 -9999 -9999 -9999 -9999 -9999 -9999 -9999 -9999 -9999 -9999 -9999 -9999 -9999 -9999 -9999 -9999 -9999 -9999
-9999 -9999 -9999 -9999 -9999 -9999 -9999 -9999 -9999 -9999 -9999 -9999 -9999 -9999 -9999 -9999 -9999 -9999 -9999 -9999 -9999 -9999 -9999 -9999 -9999 -9999 -9999 -9999 -9999 -9999 -9999 -9999 -9999 -9999 -9999 -9999 -9999 -9999 -9999 -9999 -9999 -9999 -9999 -9999 -9999 1622 1566 1543 1457 1376 1299 1292 1232 1232 1257 1270 1104 1017 922 800 751 788 829 833 892 914 969 935 981 1013 -9999 -9999 -9999 -9999 -9999 -9999 -9999 -9999 -9999 -9999 -9999 -9999 -9999 -9999 -9999 -9999 -9999 -9999 -9999 -9999 -9999 -9999 -9999 -9999 -9999 -9999 -9999 -9999 -9999 -9999 -9999 -9999 -9999 -9999 -9999 -9999 -9999 -9999 -9999 -9999 -9999 -9999 -9999 -9999 -9999 -9999 -9999 -9999 -9999 -9999 -9999 -9999 -9999
-9999 -9999 -9999 -9999 -9999 -9999 -9999 -9999 -9999 -9999 -9999 -9999 -9999 -9999 -9999 -9999 -9999 -9999 -9999 -9999 -9999 -9999 -9999 -9999 -9999 -9999 -9999 -9999 -9999 -9999 -9999 -9999 -9999 -9999 -9999 -9999 -9999 -9999 -9999 -9999 -9999 -9999 -9999 -9999 -9999 1693 1605 1552 1517 1468 1348 1325 1348 1160 1138 1131 1061 1028 994 969 937 869 753 766 796 862 938 912 908 -9999 -9999 -9999 -9999 -9999 -9999 -9999 -9999 -9999 -9999 -9999 -9999 -9999 -9999 -9999 -9999 -9999 -9999 -9999 -9999 -9999 -9999 -9999 -9999 -9999 -9999 -9999 -9999 -9999 -9999 -9999 -9999 -9999 -9999 -9999 -9999 -9999 -9999 -9999 -9999 -9999 -9999 -9999 -9999 -9999 -9999 -9999 -9999 -9999 -9999 -9999 -9999 -9999 -9999
-9999 -9999 -9999 -9999 -9999 -9999 -9999 -9999 -9999 -9999 -9999 -9999 -9999 -9999 -9999 -9999 -9999 -9999 -9999 -9999 -9999 -9999 -9999 -9999 -9999 -9999 -9999 -9999 -9999 -9999 -9999 -9999 -9999 -9999 -9999 -9999 -9999 -9999 -9999 -9999 -9999 -9999 -9999 -9999 -9999 -9999 -9999 -9999 -9999 1531 1563 1523 1485 1282 1074 1017 952 934 881 917 917 855 802 741 743 838 894 927 -9999 -9999 -9999 -9999 -9999 -9999 -9999 -9999 -9999 -9999 -9999 -9999 -9999 -9999 -9999 -9999 -9999 -9999 -9999 -9999 -9999 -9999 -9999 -9999 -9999 -9999 -9999 -9999 -9999 -9999 -9999 -9999 -9999 -9999 -9999 -9999 -9999 -9999 -9999 -9999 -9999 -9999 -9999 -9999 -9999 -9999 -9999 -9999 -9999 -9999 -9999 -9999 -9999 -9999 -9999
-9999 -9999 -9999 -9999 -9999 -9999 -9999 -9999 -9999 -9999 -9999 -9999 -9999 -9999 -9999 -9999 -9999 -9999 -9999 -9999 -9999 -9999 -9999 -9999 -9999 -9999 -9999 -9999 -9999 -9999 -9999 -9999 -9999 -9999 -9999 -9999 -9999 -9999 -9999 -9999 -9999 -9999 -9999 -9999 -9999 -9999 -9999 -9999 -9999 -9999 1525 1501 1457 1357 1216 1139 992 1027 894 846 831 836 785 732 774 809 848 -9999 -9999 -9999 -9999 -9999 -9999 -9999 -9999 -9999 -9999 -9999 -9999 -9999 -9999 -9999 -9999 -9999 -9999 -9999 -9999 -9999 -9999 -9999 -9999 -9999 -9999 -9999 -9999 -9999 -9999 -9999 -9999 -9999 -9999 -9999 -9999 -9999 -9999 -9999 -9999 -9999 -9999 -9999 -9999 -9999 -9999 -9999 -9999 -9999 -9999 -9999 -9999 -9999 -9999 -9999 -9999
-9999 -9999 -9999 -9999 -9999 -9999 -9999 -9999 -9999 -9999 -9999 -9999 -9999 -9999 -9999 -9999 -9999 -9999 -9999 -9999 -9999 -9999 -9999 -9999 -9999 -9999 -9999 -9999 -9999 -9999 -9999 -9999 -9999 -9999 -9999 -9999 -9999 -9999 -9999 -9999 -9999 -9999 -9999 -9999 -9999 -9999 -9999 -9999 -9999 -9999 -9999 1460 1384 1324 1234 1182 1170 -9999 -9999 -9999 -9999 -9999 732 732 764 -9999 -9999 -9999 -9999 -9999 -9999 -9999 -9999 -9999 -9999 -9999 -9999 -9999 -9999 -9999 -9999 -9999 -9999 -9999 -9999 -9999 -9999 -9999 -9999 -9999 -9999 -9999 -9999 -9999 -9999 -9999 -9999 -9999 -9999 -9999 -9999 -9999 -9999 -9999 -9999 -9999 -9999 -9999 -9999 -9999 -9999 -9999 -9999 -9999 -9999 -9999 -9999 -9999 -9999 -9999 -9999 -9999 -9999
-9999 -9999 -9999 -9999 -9999 -9999 -9999 -9999 -9999 -9999 -9999 -9999 -9999 -9999 -9999 -9999 -9999 -9999 -9999 -9999 -9999 -9999 -9999 -9999 -9999 -9999 -9999 -9999 -9999 -9999 -9999 -9999 -9999 -9999 -9999 -9999 -9999 -9999 -9999 -9999 -9999 -9999 -9999 -9999 -9999 -9999 -9999 -9999 -9999 -9999 -9999 -9999 -9999 -9999 -9999 -9999 -9999 -9999 -9999 -9999 -9999 -9999 -9999 -9999 -9999 -9999 -9999 -9999 -9999 -9999 -9999 -9999 -9999 -9999 -9999 -9999 -9999 -9999 -9999 -9999 -9999 -9999 -9999 -9999 -9999 -9999 -9999 -9999 -9999 -9999 -9999 -9999 -9999 -9999 -9999 -9999 -9999 -9999 -9999 -9999 -9999 -9999 -9999 -9999 -9999 -9999 -9999 -9999 -9999 -9999 -9999 -9999 -9999 -9999 -9999 -9999 -9999 -9999 -9999 -9999 -9999 -9999 -9999
