NCOLS 84 
NROWS 84 
XLLCORNER 69.8432049852038 
YLLCORNER 41.63287200555 
CELLSIZE 0.005892565925393 
NODATA_value -9999 
-9999.000000000000000 -9999 -9999 -9999 -9999 -9999 -9999 -9999 -9999 -9999 -9999 -9999 -9999 -9999 -9999 -9999 -9999 -9999 -9999 -9999 -9999 -9999 -9999 -9999 -9999 -9999 -9999 -9999 -9999 -9999 -9999 -9999 -9999 -9999 -9999 -9999 -9999 -9999 -9999 -9999 -9999 -9999 -9999 -9999 -9999 -9999 -9999 -9999 -9999 -9999 -9999 -9999 -9999 -9999 -9999 -9999 2637 2701 -9999 -9999 -9999 -9999 -9999 -9999 -9999 -9999 -9999 -9999 -9999 -9999 -9999 -9999 -9999 -9999 -9999 -9999 -9999 -9999 -9999 -9999 -9999 -9999 -9999 -9999
-9999 -9999 -9999 -9999 -9999 -9999 -9999 -9999 -9999 -9999 -9999 -9999 -9999 -9999 -9999 -9999 -9999 -9999 -9999 -9999 -9999 -9999 -9999 -9999 -9999 -9999 -9999 -9999 -9999 -9999 -9999 -9999 -9999 -9999 -9999 -9999 -9999 -9999 -9999 -9999 -9999 -9999 -9999 -9999 -9999 -9999 -9999 -9999 -9999 -9999 -9999 -9999 -9999 -9999 -9999 -9999 2685 2618 -9999 -9999 -9999 -9999 -9999 -9999 -9999 -9999 -9999 -9999 -9999 -9999 -9999 -9999 -9999 -9999 -9999 -9999 -9999 -9999 -9999 -9999 -9999 -9999 -9999 -9999
-9999 -9999 -9999 -9999 -9999 -9999 -9999 -9999 -9999 -9999 -9999 -9999 -9999 -9999 -9999 -9999 -9999 -9999 -9999 -9999 -9999 -9999 -9999 -9999 -9999 -9999 -9999 -9999 -9999 -9999 -9999 -9999 -9999 -9999 -9999 -9999 -9999 -9999 -9999 -9999 -9999 -9999 -9999 -9999 -9999 -9999 -9999 -9999 -9999 -9999 -9999 -9999 -9999 2513 2564 2557 2548 2593 2642 2660 -9999 -9999 -9999 -9999 -9999 -9999 -9999 -9999 -9999 -9999 -9999 -9999 -9999 -9999 -9999 -9999 -9999 -9999 -9999 -9999 -9999 -9999 -9999 -9999
-9999 -9999 -9999 -9999 -9999 -9999 -9999 -9999 -9999 -9999 -9999 -9999 -9999 -9999 -9999 -9999 -9999 -9999 -9999 -9999 -9999 -9999 -9999 -9999 -9999 -9999 -9999 -9999 -9999 -9999 -9999 -9999 -9999 -9999 -9999 -9999 -9999 -9999 -9999 -9999 -9999 -9999 -9999 -9999 -9999 -9999 -9999 -9999 2673 2655 2574 2491 2397 2355 2407 2416 2454 2588 2607 2654 2736 -9999 -9999 -9999 -9999 -9999 -9999 -9999 -9999 -9999 -9999 -9999 -9999 -9999 -9999 -9999 -9999 -9999 -9999 -9999 -9999 -9999 -9999 -9999
-9999 -9999 -9999 -9999 -9999 -9999 -9999 -9999 -9999 -9999 -9999 -9999 -9999 -9999 -9999 -9999 -9999 -9999 -9999 -9999 -9999 -9999 -9999 -9999 -9999 -9999 -9999 -9999 -9999 -9999 -9999 -9999 -9999 -9999 -9999 -9999 -9999 -9999 -9999 -9999 -9999 -9999 -9999 -9999 -9999 -9999 -9999 -9999 2684 2438 2261 2250 2399 2327 2272 2365 2509 2658 2674 2700 2742 2823 2887 2924 -9999 2905 2964 2982 3018 3058 -9999 -9999 -9999 -9999 -9999 -9999 -9999 -9999 -9999 -9999 -9999 -9999 -9999 -9999
-9999 -9999 -9999 -9999 -9999 -9999 -9999 -9999 -9999 -9999 -9999 -9999 -9999 -9999 -9999 -9999 -9999 -9999 -9999 -9999 -9999 -9999 -9999 -9999 -9999 -9999 -9999 -9999 -9999 -9999 -9999 -9999 -9999 -9999 -9999 -9999 -9999 -9999 -9999 -9999 -9999 -9999 -9999 -9999 -9999 -9999 -9999 2773 2551 2361 2238 2190 2365 2346 2264 2352 2507 2656 2719 2732 2795 2815 2891 2902 2951 2886 2983 3016 3050 3064 3062 3097 3095 3150 3179 3237 -9999 -9999 -9999 -9999 -9999 -9999 -9999 -9999
-9999 -9999 -9999 -9999 -9999 -9999 -9999 -9999 -9999 -9999 -9999 -9999 -9999 -9999 -9999 -9999 -9999 -9999 -9999 -9999 -9999 -9999 -9999 -9999 -9999 -9999 -9999 -9999 -9999 -9999 -9999 -9999 -9999 -9999 -9999 -9999 -9999 -9999 -9999 -9999 -9999 -9999 -9999 -9999 -9999 -9999 -9999 2674 2548 2485 2435 2356 2133 2173 2356 2396 2482 2583 2703 2743 2842 2843 2820 2813 2839 2863 2979 3048 3002 2995 3077 3103 3106 3123 3225 3269 -9999 -9999 -9999 -9999 -9999 -9999 -9999 -9999
-9999 -9999 -9999 -9999 -9999 -9999 -9999 -9999 -9999 -9999 -9999 -9999 -9999 -9999 -9999 -9999 -9999 -9999 -9999 -9999 -9999 -9999 -9999 -9999 -9999 -9999 -9999 -9999 -9999 -9999 -9999 -9999 -9999 -9999 -9999 -9999 -9999 -9999 -9999 -9999 -9999 -9999 -9999 -9999 -9999 -9999 2782 2609 2496 2368 2220 2284 2135 2162 2370 2438 2475 2545 2648 2711 2638 2664 2657 2678 2805 2852 2838 2913 2938 3055 3075 3134 3159 3143 3195 3251 3248 -9999 -9999 -9999 -9999 -9999 -9999 -9999
-9999 -9999 -9999 -9999 -9999 -9999 -9999 -9999 -9999 -9999 -9999 -9999 -9999 -9999 -9999 -9999 -9999 -9999 -9999 -9999 -9999 -9999 -9999 -9999 -9999 -9999 -9999 -9999 -9999 -9999 -9999 -9999 -9999 -9999 -9999 -9999 -9999 -9999 -9999 -9999 -9999 -9999 -9999 -9999 -9999 -9999 2811 2692 2632 2516 2204 2207 2073 2077 2269 2318 2314 2483 2620 2582 2420 2548 2714 2778 2747 2750 2914 3024 3037 3048 2999 3048 3072 3089 3140 3192 3208 3260 3323 -9999 -9999 -9999 -9999 -9999
-9999 -9999 -9999 -9999 -9999 -9999 -9999 -9999 -9999 -9999 -9999 -9999 -9999 -9999 -9999 -9999 -9999 -9999 -9999 -9999 -9999 -9999 -9999 -9999 -9999 -9999 -9999 -9999 -9999 -9999 -9999 -9999 -9999 -9999 -9999 -9999 -9999 -9999 -9999 -9999 -9999 -9999 -9999 -9999 -9999 -9999 2808 2687 2585 2451 2410 2402 2171 2004 2128 2184 2335 2447 2553 2506 2377 2623 2782 2789 2822 2836 2852 2955 2989 2982 2988 3103 3104 3111 3139 3235 3248 3289 -9999 -9999 -9999 -9999 -9999 -9999
-9999 -9999 -9999 -9999 -9999 -9999 -9999 -9999 -9999 -9999 -9999 -9999 -9999 -9999 -9999 -9999 -9999 -9999 -9999 -9999 -9999 -9999 -9999 -9999 -9999 -9999 -9999 -9999 -9999 -9999 -9999 -9999 -9999 -9999 -9999 -9999 -9999 -9999 -9999 -9999 -9999 -9999 -9999 -9999 -9999 -9999 2774 2757 2712 2618 2499 2412 2144 1945 2182 2335 2435 2478 2442 2364 2298 2480 2557 2795 2821 2865 2905 2982 3009 3048 3036 3092 3114 3172 3180 3222 3224 -9999 -9999 -9999 -9999 -9999 -9999 -9999
-9999 -9999 -9999 -9999 -9999 -9999 -9999 -9999 -9999 -9999 -9999 -9999 -9999 -9999 -9999 -9999 -9999 -9999 -9999 -9999 -9999 -9999 -9999 -9999 -9999 -9999 -9999 -9999 -9999 -9999 -9999 -9999 -9999 -9999 -9999 -9999 -9999 -9999 -9999 -9999 -9999 -9999 -9999 -9999 2584 2554 2530 2388 2470 2637 2402 2239 2081 1927 2068 2140 2335 2386 2193 2178 2330 2368 2542 2706 2792 2816 2824 2879 2918 2988 3037 3067 3097 3108 3123 3176 3209 3233 -9999 -9999 -9999 -9999 -9999 -9999
-9999 -9999 -9999 -9999 -9999 -9999 -9999 -9999 -9999 -9999 -9999 -9999 -9999 -9999 -9999 -9999 -9999 -9999 -9999 -9999 -9999 -9999 -9999 -9999 -9999 -9999 -9999 -9999 -9999 -9999 -9999 -9999 -9999 -9999 -9999 -9999 -9999 -9999 -9999 -9999 -9999 2640 2645 2706 2752 2641 2500 2210 2399 2529 2366 2268 2116 1950 1921 2036 2101 2180 2067 2117 2201 2327 2478 2601 2598 2703 2780 2873 2899 2903 2933 2904 2976 3038 3080 3116 3133 3189 -9999 -9999 -9999 -9999 -9999 -9999
-9999 -9999 -9999 -9999 -9999 -9999 -9999 -9999 -9999 -9999 -9999 -9999 -9999 -9999 -9999 -9999 -9999 -9999 -9999 -9999 -9999 -9999 -9999 -9999 -9999 -9999 -9999 -9999 -9999 -9999 -9999 -9999 -9999 -9999 -9999 -9999 -9999 -9999 -9999 -9999 2676 2619 2621 2663 2551 2568 2491 2171 2274 2437 2365 2277 2082 1933 1907 1993 2018 2033 2037 2143 2300 2474 2614 2682 2729 2818 2860 2910 2936 2997 3009 2860 2975 3103 3140 3120 3163 3184 3190 3235 -9999 -9999 -9999 -9999
-9999 -9999 -9999 -9999 -9999 -9999 -9999 -9999 -9999 -9999 -9999 -9999 -9999 -9999 -9999 -9999 -9999 -9999 -9999 -9999 -9999 -9999 -9999 -9999 -9999 -9999 -9999 -9999 -9999 -9999 -9999 -9999 -9999 -9999 -9999 -9999 -9999 -9999 -9999 2731 2626 2660 2703 2529 2346 2232 2223 2050 1966 2111 2313 2255 2125 1860 1950 1902 1916 1922 2112 2221 2385 2433 2553 2571 2654 2677 2745 2769 2809 2921 2911 2733 2829 2940 2967 3081 3132 3208 3238 3241 -9999 -9999 -9999 -9999
-9999 -9999 -9999 -9999 -9999 -9999 -9999 -9999 -9999 -9999 -9999 -9999 -9999 -9999 -9999 -9999 -9999 -9999 -9999 -9999 -9999 -9999 -9999 -9999 -9999 -9999 -9999 -9999 -9999 -9999 -9999 -9999 -9999 -9999 -9999 -9999 -9999 -9999 -9999 2751 2723 2675 2668 2618 2721 2497 2404 2226 1956 2020 2186 2111 1959 1739 1933 1963 1940 2029 1968 2027 2162 2275 2415 2532 2560 2673 2718 2797 2824 2774 2589 2831 2897 3071 3108 3115 3120 3191 3138 3033 3283 -9999 -9999 -9999
-9999 -9999 -9999 -9999 -9999 -9999 -9999 -9999 -9999 -9999 -9999 -9999 -9999 -9999 -9999 -9999 -9999 -9999 -9999 -9999 -9999 -9999 -9999 -9999 -9999 -9999 -9999 -9999 -9999 -9999 -9999 -9999 -9999 -9999 -9999 -9999 -9999 -9999 -9999 -9999 2812 2705 2757 2789 2695 2486 2399 2143 1810 1986 1853 1820 1729 1880 2029 2061 2166 2264 2233 2208 2310 2377 2479 2494 2472 2573 2537 2424 2429 2422 2626 2895 2951 2878 2798 2738 2761 2768 2779 3045 3340 -9999 -9999 -9999
-9999 -9999 -9999 -9999 -9999 -9999 -9999 -9999 -9999 -9999 -9999 -9999 -9999 -9999 -9999 -9999 -9999 -9999 -9999 -9999 -9999 -9999 -9999 -9999 -9999 -9999 -9999 -9999 -9999 -9999 -9999 -9999 -9999 -9999 -9999 -9999 -9999 -9999 -9999 -9999 2710 2507 2532 2425 2316 2272 2241 2068 1816 1777 1624 1650 1939 1962 1946 1927 1943 2031 2063 2070 2074 2003 2091 2224 2165 2258 2194 2170 2257 2458 2598 2578 2607 2597 2532 2525 2646 2807 2956 3095 3229 3306 -9999 -9999
-9999 -9999 -9999 -9999 -9999 -9999 -9999 -9999 -9999 -9999 -9999 -9999 -9999 -9999 -9999 -9999 -9999 -9999 -9999 -9999 -9999 -9999 -9999 -9999 -9999 -9999 -9999 -9999 -9999 -9999 -9999 -9999 -9999 -9999 -9999 -9999 -9999 -9999 -9999 -9999 2701 2423 2354 2256 2205 2063 2024 2004 1886 1631 1696 1904 2000 1880 1871 1866 1886 1933 2016 2045 2002 1916 1978 2149 2074 2163 2070 2171 2221 2409 2461 2383 2389 2390 2334 2512 2703 2967 2972 3047 3081 3180 3184 -9999
-9999 -9999 -9999 -9999 -9999 -9999 -9999 -9999 -9999 -9999 -9999 -9999 -9999 -9999 -9999 -9999 -9999 -9999 -9999 -9999 -9999 -9999 -9999 -9999 -9999 -9999 -9999 -9999 -9999 -9999 -9999 -9999 -9999 -9999 -9999 -9999 -9999 -9999 2531 2578 2508 2352 2251 2042 1899 1764 1785 1793 1682 1656 1943 1951 1876 1804 1904 1882 1934 1918 1945 1929 1956 1813 1867 1986 1914 1899 1922 1894 2004 2258 2202 2105 2108 2241 2578 2807 2880 2773 2644 2637 2728 2785 3113 -9999
-9999 -9999 -9999 -9999 -9999 -9999 -9999 -9999 -9999 -9999 -9999 -9999 -9999 -9999 -9999 -9999 -9999 -9999 -9999 -9999 -9999 -9999 -9999 -9999 -9999 -9999 -9999 -9999 -9999 -9999 -9999 -9999 -9999 -9999 -9999 -9999 -9999 -9999 2381 2494 2120 1882 1869 1802 1751 1571 1583 1701 1910 1887 1764 1729 1745 1866 1946 1952 1935 1889 1884 1916 1821 1678 1712 1759 1740 1753 1963 2019 1972 1926 2053 2258 2361 2496 2518 2449 2447 2344 2335 2561 2812 2917 3140 -9999
-9999 -9999 -9999 -9999 -9999 -9999 -9999 -9999 -9999 -9999 -9999 -9999 -9999 -9999 -9999 -9999 -9999 -9999 -9999 -9999 -9999 -9999 -9999 -9999 -9999 -9999 -9999 -9999 -9999 -9999 -9999 -9999 -9999 -9999 -9999 -9999 -9999 -9999 2305 2449 2081 1694 1591 1598 1753 1813 1948 2029 1950 1895 1862 1889 1896 1916 1915 1893 1827 1755 1780 1799 1631 1594 1625 1746 1808 1818 1714 1734 1755 1814 1888 2067 2086 2058 2088 2071 2102 2174 2289 2561 2895 3072 3431 -9999
-9999 -9999 -9999 -9999 -9999 -9999 -9999 -9999 -9999 -9999 -9999 -9999 -9999 -9999 -9999 -9999 -9999 -9999 -9999 -9999 -9999 -9999 -9999 -9999 -9999 -9999 -9999 -9999 -9999 -9999 -9999 -9999 -9999 -9999 -9999 -9999 -9999 2347 2257 2372 2115 1694 1513 1732 2005 2007 2062 1966 1912 1887 1878 1896 1912 1860 1846 1811 1631 1568 1600 1599 1603 1673 1654 1636 1669 1676 1796 1857 1940 1794 1806 1913 1936 1954 2002 2201 2224 2231 2302 2534 2886 3051 3409 -9999
-9999 -9999 -9999 -9999 -9999 -9999 -9999 -9999 -9999 -9999 -9999 -9999 -9999 -9999 -9999 -9999 -9999 -9999 -9999 -9999 -9999 -9999 -9999 -9999 -9999 -9999 -9999 -9999 -9999 -9999 -9999 -9999 -9999 -9999 -9999 2396 2344 2366 2301 2174 1930 1572 1445 1752 2053 1971 1953 1870 1848 1828 1767 1718 1565 1566 1611 1640 1724 1986 2075 2066 2008 1846 1777 1822 1730 1846 2110 2210 2250 2205 2258 2347 2288 2166 2427 2448 2478 2481 2802 2763 2825 2943 3236 -9999
-9999 -9999 -9999 -9999 -9999 -9999 -9999 -9999 -9999 -9999 -9999 -9999 -9999 -9999 -9999 -9999 -9999 -9999 -9999 -9999 -9999 -9999 -9999 -9999 -9999 -9999 -9999 -9999 -9999 -9999 -9999 -9999 -9999 -9999 2350 2284 2232 2286 2153 2016 1748 1446 1572 1934 1868 1846 1791 1741 1791 1643 1490 1613 1737 1860 1872 1852 1853 1819 2106 2078 2073 2013 1977 1961 1935 1920 2211 2517 2655 2488 2505 2658 2527 2362 2704 2837 2805 2682 2983 3218 3002 3046 3178 3464
-9999 -9999 -9999 -9999 -9999 -9999 -9999 -9999 -9999 -9999 -9999 -9999 -9999 -9999 -9999 -9999 -9999 -9999 -9999 -9999 -9999 -9999 -9999 -9999 -9999 -9999 -9999 -9999 -9999 2166 2115 2106 2184 2214 2207 2224 2178 2209 2038 1873 1603 1516 1536 1720 1634 1598 1602 1591 1493 1496 1794 1808 1959 2075 2137 2162 2162 1990 2096 2155 2317 2374 2318 2331 2310 2330 2336 2469 2765 2938 2934 2949 2843 2636 2909 3161 3126 2931 3100 3207 3272 3229 3339 -9999
-9999 -9999 -9999 -9999 -9999 -9999 -9999 -9999 -9999 -9999 -9999 -9999 -9999 -9999 -9999 -9999 -9999 -9999 -9999 -9999 -9999 -9999 -9999 -9999 -9999 -9999 2191 2191 2145 2126 2024 2053 2055 2126 2045 2120 2250 2275 2090 1767 1661 1435 1410 1557 1537 1487 1496 1413 1525 1709 1833 1874 1964 2051 2153 2210 2285 2221 2080 2256 2477 2659 2493 2535 2591 2509 2511 2431 2594 3160 3135 3033 2843 2825 3017 3236 3172 3020 3223 3244 3342 3319 -9999 -9999
-9999 -9999 -9999 -9999 -9999 -9999 -9999 -9999 -9999 -9999 -9999 -9999 -9999 -9999 -9999 -9999 -9999 -9999 -9999 -9999 -9999 -9999 -9999 -9999 -9999 2092 2114 2063 2071 1999 2003 1949 1918 1902 1867 2051 2225 2171 2125 1794 1629 1605 1429 1378 1350 1523 1531 1430 1633 1802 1843 1862 1869 2000 2080 2044 2264 2486 2334 2236 2425 2780 3004 3143 3047 2889 2888 2732 2743 3133 3388 3147 3045 3008 3203 3355 3351 3252 -9999 -9999 -9999 -9999 -9999 -9999
-9999 -9999 -9999 -9999 -9999 -9999 -9999 -9999 -9999 -9999 -9999 -9999 -9999 -9999 -9999 -9999 -9999 -9999 -9999 -9999 -9999 -9999 -9999 -9999 2013 1975 2015 2018 2004 1948 1829 1870 1799 1734 2006 2119 2126 1885 1813 1685 1598 1363 1302 1445 1580 1640 1651 1752 1646 1638 1705 1668 1947 2138 2266 2286 2210 2495 2781 2815 2589 2538 2814 3001 3150 3200 3204 3043 3014 3175 3455 3325 3222 3193 3354 3309 -9999 -9999 -9999 -9999 -9999 -9999 -9999 -9999
-9999 -9999 -9999 -9999 -9999 -9999 -9999 -9999 -9999 -9999 -9999 -9999 -9999 -9999 -9999 -9999 -9999 -9999 -9999 -9999 -9999 1959 1951 1972 1880 1870 1908 1925 1851 1798 1678 1803 1780 1647 1910 1931 1832 1719 1671 1474 1344 1350 1403 1447 1607 1696 1748 1802 1877 1952 1999 1983 1786 1823 2048 2189 2406 2409 2515 2673 2970 2970 2903 2951 2999 3278 3285 3238 3210 3292 3396 3351 3276 -9999 -9999 -9999 -9999 -9999 -9999 -9999 -9999 -9999 -9999 -9999
-9999 -9999 -9999 -9999 -9999 -9999 -9999 -9999 -9999 -9999 -9999 -9999 -9999 -9999 -9999 -9999 -9999 -9999 -9999 -9999 1958 1899 1880 1956 1823 1855 1887 1866 1776 1729 1750 1665 1746 1642 1826 1860 1751 1578 1519 1386 1298 1483 1536 1526 1595 1727 1756 1845 1860 1923 2000 2045 1997 1871 1844 1993 2179 2527 2685 2637 2817 3138 3061 3099 3063 3207 3391 3312 3272 -9999 -9999 -9999 -9999 -9999 -9999 -9999 -9999 -9999 -9999 -9999 -9999 -9999 -9999 -9999
-9999 -9999 -9999 -9999 -9999 -9999 -9999 -9999 -9999 -9999 -9999 -9999 -9999 -9999 -9999 -9999 -9999 -9999 -9999 -9999 1908 1858 1760 1832 1698 1738 1726 1674 1552 1591 1553 1475 1542 1570 1600 1729 1569 1434 1382 1303 1482 1551 1580 1603 1595 1676 1734 1835 1924 1925 1988 2062 2231 2304 2134 2042 1995 2288 2633 2747 2898 3046 3153 3330 3353 3247 3361 -9999 -9999 -9999 -9999 -9999 -9999 -9999 -9999 -9999 -9999 -9999 -9999 -9999 -9999 -9999 -9999 -9999
-9999 -9999 -9999 -9999 -9999 -9999 -9999 -9999 -9999 -9999 -9999 -9999 -9999 -9999 -9999 -9999 -9999 -9999 1897 1855 1837 1775 1755 1611 1629 1539 1510 1473 1444 1405 1403 1374 1399 1443 1519 1521 1525 1319 1275 1379 1500 1560 1600 1663 1699 1777 1807 1897 1947 2025 2066 2055 2341 2575 2530 2352 2210 2178 2276 2315 2588 2955 3279 3390 3343 3467 -9999 -9999 -9999 -9999 -9999 -9999 -9999 -9999 -9999 -9999 -9999 -9999 -9999 -9999 -9999 -9999 -9999 -9999
-9999 -9999 -9999 -9999 -9999 -9999 -9999 -9999 -9999 -9999 -9999 -9999 -9999 -9999 -9999 -9999 -9999 -9999 1897 1763 1730 1699 1619 1484 1492 1440 1497 1404 1375 1335 1311 1324 1309 1288 1347 1427 1506 1292 1467 1484 1425 1504 1539 1668 1753 1817 1841 1880 1942 2081 2243 2345 2357 2719 2808 2753 2687 2453 2582 2579 2540 2746 3073 3391 3530 -9999 -9999 -9999 -9999 -9999 -9999 -9999 -9999 -9999 -9999 -9999 -9999 -9999 -9999 -9999 -9999 -9999 -9999 -9999
-9999 -9999 -9999 -9999 -9999 -9999 -9999 -9999 -9999 -9999 -9999 -9999 -9999 -9999 -9999 -9999 -9999 -9999 1912 1787 1763 1635 1487 1403 1407 1372 1482 1384 1292 1290 1246 1234 1212 1216 1260 1296 1296 1494 1577 1624 1622 1462 1527 1660 1753 1853 1880 1953 2093 2176 2326 2465 2542 2592 2855 2985 3123 2750 2909 2870 2929 2876 3065 3261 3324 -9999 -9999 -9999 -9999 -9999 -9999 -9999 -9999 -9999 -9999 -9999 -9999 -9999 -9999 -9999 -9999 -9999 -9999 -9999
-9999 -9999 -9999 -9999 -9999 -9999 -9999 -9999 -9999 -9999 -9999 -9999 -9999 -9999 -9999 -9999 -9999 -9999 1879 1749 1711 1572 1458 1403 1355 1356 1467 1407 1283 1258 1225 1198 1203 1239 1335 1386 1489 1596 1616 1653 1670 1611 1521 1593 1799 1890 1921 1978 2101 2342 2299 2425 2678 2750 2888 3007 3197 2968 3090 3103 3040 2977 3168 3272 3353 -9999 -9999 -9999 -9999 -9999 -9999 -9999 -9999 -9999 -9999 -9999 -9999 -9999 -9999 -9999 -9999 -9999 -9999 -9999
-9999 -9999 -9999 -9999 -9999 -9999 -9999 -9999 -9999 -9999 -9999 -9999 -9999 -9999 -9999 -9999 -9999 -9999 1877 1792 1756 1500 1429 1389 1326 1301 1411 1346 1222 1202 1180 1242 1264 1282 1383 1432 1516 1620 1645 1650 1671 1690 1708 1714 1577 1665 1733 1720 2010 2320 2513 2500 2600 2795 3025 3129 3276 3171 3136 3210 3357 3096 3267 -9999 -9999 -9999 -9999 -9999 -9999 -9999 -9999 -9999 -9999 -9999 -9999 -9999 -9999 -9999 -9999 -9999 -9999 -9999 -9999 -9999
-9999 -9999 -9999 -9999 -9999 -9999 -9999 -9999 -9999 -9999 -9999 -9999 -9999 -9999 -9999 -9999 -9999 -9999 1905 1785 1667 1449 1378 1335 1275 1257 1333 1212 1169 1176 1234 1247 1292 1317 1389 1465 1574 1619 1587 1650 1737 1782 1772 1805 1982 2113 2177 2011 1826 1989 2349 2436 2716 2954 3139 3160 3216 3275 3201 3220 3315 3262 3299 -9999 -9999 -9999 -9999 -9999 -9999 -9999 -9999 -9999 -9999 -9999 -9999 -9999 -9999 -9999 -9999 -9999 -9999 -9999 -9999 -9999
-9999 -9999 -9999 -9999 -9999 -9999 -9999 -9999 -9999 -9999 -9999 -9999 -9999 -9999 -9999 -9999 -9999 -9999 1943 1822 1715 1494 1396 1353 1282 1242 1208 1160 1189 1206 1227 1269 1333 1363 1438 1543 1538 1626 1658 1722 1705 1784 1793 1918 2053 2105 2216 2364 2310 2034 2114 2169 2421 2792 2721 2698 2758 2993 3230 3301 -9999 -9999 -9999 -9999 -9999 -9999 -9999 -9999 -9999 -9999 -9999 -9999 -9999 -9999 -9999 -9999 -9999 -9999 -9999 -9999 -9999 -9999 -9999 -9999
-9999 -9999 -9999 -9999 -9999 -9999 -9999 -9999 -9999 -9999 -9999 -9999 -9999 -9999 -9999 -9999 -9999 -9999 1947 1768 1701 1512 1369 1355 1275 1273 1179 1159 1202 1218 1242 1287 1396 1435 1454 1533 1614 1645 1671 1717 1789 1791 1799 1937 2150 2110 2177 2341 2462 2255 2114 2093 2330 2550 2499 2590 2808 2924 3183 3257 -9999 -9999 -9999 -9999 -9999 -9999 -9999 -9999 -9999 -9999 -9999 -9999 -9999 -9999 -9999 -9999 -9999 -9999 -9999 -9999 -9999 -9999 -9999 -9999
-9999 -9999 -9999 -9999 -9999 -9999 -9999 -9999 -9999 -9999 -9999 -9999 -9999 -9999 -9999 -9999 -9999 1980 1942 1817 1756 1599 1347 1288 1272 1255 1149 1172 1219 1272 1336 1328 1412 1472 1574 1646 1684 1700 1744 1802 1852 1888 1885 2018 2087 2215 2351 2570 2651 2545 2332 2330 2348 2470 2697 2821 3012 3063 3197 3229 -9999 -9999 -9999 -9999 -9999 -9999 -9999 -9999 -9999 -9999 -9999 -9999 -9999 -9999 -9999 -9999 -9999 -9999 -9999 -9999 -9999 -9999 -9999 -9999
-9999 -9999 -9999 -9999 -9999 -9999 -9999 -9999 -9999 -9999 -9999 -9999 -9999 -9999 -9999 -9999 -9999 1934 1871 1858 1808 1684 1373 1302 1256 1201 1145 1172 1264 1297 1431 1373 1509 1558 1636 1732 1792 1850 1830 1863 1924 1982 1999 2176 2379 2376 2353 2489 2670 2763 2673 2682 2727 2823 2906 3064 3245 3315 -9999 -9999 -9999 -9999 -9999 -9999 -9999 -9999 -9999 -9999 -9999 -9999 -9999 -9999 -9999 -9999 -9999 -9999 -9999 -9999 -9999 -9999 -9999 -9999 -9999 -9999
-9999 -9999 -9999 -9999 -9999 -9999 -9999 -9999 -9999 -9999 -9999 -9999 -9999 -9999 -9999 -9999 2009 1962 1882 1720 1641 1533 1361 1305 1229 1206 1140 1202 1297 1329 1415 1479 1555 1592 1614 1677 1853 1911 1937 1950 2014 2068 2148 2287 2491 2580 2629 2637 2586 2676 2722 2811 2998 3158 3176 3129 3150 -9999 -9999 -9999 -9999 -9999 -9999 -9999 -9999 -9999 -9999 -9999 -9999 -9999 -9999 -9999 -9999 -9999 -9999 -9999 -9999 -9999 -9999 -9999 -9999 -9999 -9999 -9999
-9999 -9999 -9999 -9999 -9999 -9999 -9999 -9999 -9999 -9999 -9999 -9999 -9999 -9999 -9999 -9999 -9999 1963 1865 1834 1810 1628 1387 1292 1226 1199 1139 1239 1348 1393 1467 1518 1597 1645 1721 1762 1763 1859 1896 1993 2088 2127 2183 2332 2492 2599 2623 2446 2385 2526 2584 2742 2901 3045 3053 3051 3135 -9999 -9999 -9999 -9999 -9999 -9999 -9999 -9999 -9999 -9999 -9999 -9999 -9999 -9999 -9999 -9999 -9999 -9999 -9999 -9999 -9999 -9999 -9999 -9999 -9999 -9999 -9999
-9999 -9999 -9999 -9999 -9999 -9999 -9999 -9999 -9999 -9999 -9999 -9999 -9999 -9999 -9999 -9999 -9999 2011 1960 1921 1883 1661 1444 1318 1226 1154 1196 1226 1261 1306 1338 1466 1560 1638 1707 1821 1898 1919 1957 2060 2141 2265 2289 2378 2421 2209 2154 2391 2587 2796 2945 2858 2769 2863 3037 3043 3301 3264 -9999 -9999 -9999 -9999 -9999 -9999 -9999 -9999 -9999 -9999 -9999 -9999 -9999 -9999 -9999 -9999 -9999 -9999 -9999 -9999 -9999 -9999 -9999 -9999 -9999 -9999
-9999 -9999 -9999 -9999 -9999 -9999 -9999 -9999 -9999 -9999 -9999 -9999 -9999 -9999 -9999 -9999 -9999 2015 1931 1896 1817 1606 1388 1293 1205 1150 1284 1373 1464 1510 1588 1529 1496 1552 1589 1550 1571 1678 1691 1692 1997 1960 2000 2159 1974 2249 2395 2611 2835 2907 3114 3217 3062 3129 3240 3203 3301 -9999 -9999 -9999 -9999 -9999 -9999 -9999 -9999 -9999 -9999 -9999 -9999 -9999 -9999 -9999 -9999 -9999 -9999 -9999 -9999 -9999 -9999 -9999 -9999 -9999 -9999 -9999
-9999 -9999 -9999 -9999 -9999 -9999 -9999 -9999 -9999 -9999 -9999 -9999 -9999 -9999 -9999 -9999 -9999 2042 1959 1842 1741 1687 1417 1198 1323 1359 1373 1455 1560 1600 1705 1769 1777 1756 1902 2008 2068 2140 2147 2074 2081 1987 1987 2001 2150 2234 2349 2505 2777 2856 3073 3133 3283 3252 3353 -9999 -9999 -9999 -9999 -9999 -9999 -9999 -9999 -9999 -9999 -9999 -9999 -9999 -9999 -9999 -9999 -9999 -9999 -9999 -9999 -9999 -9999 -9999 -9999 -9999 -9999 -9999 -9999 -9999
-9999 -9999 -9999 -9999 -9999 -9999 -9999 -9999 -9999 -9999 -9999 -9999 -9999 -9999 -9999 -9999 -9999 2025 1834 1670 1616 1448 1295 1126 1397 1445 1510 1551 1662 1707 1786 1882 1901 1923 1978 1993 2088 2151 2189 2267 2323 2441 2465 2514 2489 2652 2729 2818 2943 3019 3011 3058 3286 -9999 -9999 -9999 -9999 -9999 -9999 -9999 -9999 -9999 -9999 -9999 -9999 -9999 -9999 -9999 -9999 -9999 -9999 -9999 -9999 -9999 -9999 -9999 -9999 -9999 -9999 -9999 -9999 -9999 -9999 -9999
-9999 -9999 -9999 -9999 -9999 -9999 -9999 -9999 -9999 -9999 -9999 -9999 -9999 -9999 -9999 -9999 -9999 2068 1842 1658 1620 1505 1254 1123 1324 1433 1520 1611 1680 1717 1788 1877 1943 1931 1997 2053 2111 2194 2229 2301 2355 2416 2492 2604 2629 2753 2840 -9999 -9999 -9999 -9999 3107 3272 -9999 -9999 -9999 -9999 -9999 -9999 -9999 -9999 -9999 -9999 -9999 -9999 -9999 -9999 -9999 -9999 -9999 -9999 -9999 -9999 -9999 -9999 -9999 -9999 -9999 -9999 -9999 -9999 -9999 -9999 -9999
-9999 -9999 -9999 -9999 -9999 -9999 -9999 -9999 -9999 -9999 -9999 -9999 -9999 -9999 -9999 -9999 -9999 1974 1934 1891 1860 1664 1355 1118 1183 1292 1519 1412 1515 1588 1608 1672 1756 1841 1977 2005 2107 2152 2179 2246 2448 2523 2596 2639 -9999 -9999 -9999 -9999 -9999 -9999 -9999 -9999 -9999 -9999 -9999 -9999 -9999 -9999 -9999 -9999 -9999 -9999 -9999 -9999 -9999 -9999 -9999 -9999 -9999 -9999 -9999 -9999 -9999 -9999 -9999 -9999 -9999 -9999 -9999 -9999 -9999 -9999 -9999 -9999
-9999 -9999 -9999 -9999 -9999 -9999 -9999 -9999 -9999 -9999 -9999 -9999 -9999 -9999 -9999 -9999 2026 1818 1611 1676 1760 1699 1379 1119 1164 1256 1425 1609 1763 1812 1888 1910 1969 1948 2019 2139 2193 2263 2338 2321 2393 2524 2589 -9999 -9999 -9999 -9999 -9999 -9999 -9999 -9999 -9999 -9999 -9999 -9999 -9999 -9999 -9999 -9999 -9999 -9999 -9999 -9999 -9999 -9999 -9999 -9999 -9999 -9999 -9999 -9999 -9999 -9999 -9999 -9999 -9999 -9999 -9999 -9999 -9999 -9999 -9999 -9999 -9999
-9999 -9999 -9999 -9999 -9999 -9999 -9999 -9999 -9999 -9999 -9999 -9999 -9999 -9999 1973 1984 1994 1800 1443 1432 1513 1591 1567 1273 1130 1252 1521 1723 1841 1886 1973 1963 2016 2047 2122 2178 2200 2361 2413 2441 2535 2617 2633 -9999 -9999 -9999 -9999 -9999 -9999 -9999 -9999 -9999 -9999 -9999 -9999 -9999 -9999 -9999 -9999 -9999 -9999 -9999 -9999 -9999 -9999 -9999 -9999 -9999 -9999 -9999 -9999 -9999 -9999 -9999 -9999 -9999 -9999 -9999 -9999 -9999 -9999 -9999 -9999 -9999
-9999 -9999 -9999 -9999 -9999 -9999 -9999 -9999 -9999 -9999 -9999 -9999 -9999 1989 1960 1941 1983 1815 1480 1363 1433 1506 1560 1250 1131 1267 1498 1616 1780 1875 1967 1963 2047 2068 2103 2194 2293 2311 2368 2500 2532 -9999 -9999 -9999 -9999 -9999 -9999 -9999 -9999 -9999 -9999 -9999 -9999 -9999 -9999 -9999 -9999 -9999 -9999 -9999 -9999 -9999 -9999 -9999 -9999 -9999 -9999 -9999 -9999 -9999 -9999 -9999 -9999 -9999 -9999 -9999 -9999 -9999 -9999 -9999 -9999 -9999 -9999 -9999
-9999 -9999 -9999 -9999 -9999 -9999 -9999 -9999 -9999 -9999 -9999 -9999 -9999 2015 1963 1978 1995 1720 1350 1219 1256 1294 1377 1118 1216 1296 1383 1340 1577 1797 1872 1989 2039 2080 2167 2207 2305 2392 2421 2547 -9999 -9999 -9999 -9999 -9999 -9999 -9999 -9999 -9999 -9999 -9999 -9999 -9999 -9999 -9999 -9999 -9999 -9999 -9999 -9999 -9999 -9999 -9999 -9999 -9999 -9999 -9999 -9999 -9999 -9999 -9999 -9999 -9999 -9999 -9999 -9999 -9999 -9999 -9999 -9999 -9999 -9999 -9999 -9999
-9999 -9999 -9999 -9999 -9999 -9999 -9999 -9999 -9999 -9999 -9999 -9999 -9999 2040 1936 1930 2001 2002 1529 1207 1087 1087 1130 1250 1544 1637 1842 1643 1429 1531 1834 2017 2101 2135 2211 2300 2380 2506 2479 -9999 -9999 -9999 -9999 -9999 -9999 -9999 -9999 -9999 -9999 -9999 -9999 -9999 -9999 -9999 -9999 -9999 -9999 -9999 -9999 -9999 -9999 -9999 -9999 -9999 -9999 -9999 -9999 -9999 -9999 -9999 -9999 -9999 -9999 -9999 -9999 -9999 -9999 -9999 -9999 -9999 -9999 -9999 -9999 -9999
-9999 -9999 -9999 -9999 -9999 -9999 -9999 -9999 -9999 -9999 -9999 -9999 -9999 2150 1960 1894 1926 1738 1255 1271 1400 1391 1461 1317 1594 1715 1857 1878 1838 1877 1831 1996 2119 2180 2313 -9999 -9999 -9999 -9999 -9999 -9999 -9999 -9999 -9999 -9999 -9999 -9999 -9999 -9999 -9999 -9999 -9999 -9999 -9999 -9999 -9999 -9999 -9999 -9999 -9999 -9999 -9999 -9999 -9999 -9999 -9999 -9999 -9999 -9999 -9999 -9999 -9999 -9999 -9999 -9999 -9999 -9999 -9999 -9999 -9999 -9999 -9999 -9999 -9999
-9999 -9999 -9999 -9999 -9999 -9999 -9999 1895 1922 2076 -9999 -9999 2027 2076 1995 1819 1869 1562 1103 1425 1612 1536 1508 1525 1477 1550 1808 1897 1964 1955 1994 2090 2155 2190 2290 -9999 -9999 -9999 -9999 -9999 -9999 -9999 -9999 -9999 -9999 -9999 -9999 -9999 -9999 -9999 -9999 -9999 -9999 -9999 -9999 -9999 -9999 -9999 -9999 -9999 -9999 -9999 -9999 -9999 -9999 -9999 -9999 -9999 -9999 -9999 -9999 -9999 -9999 -9999 -9999 -9999 -9999 -9999 -9999 -9999 -9999 -9999 -9999 -9999
-9999 -9999 -9999 -9999 -9999 -9999 1881 1708 1818 1928 2092 1994 1888 1862 1575 1452 1477 1235 1154 1663 1816 1903 1669 1844 1687 1715 1762 1943 2005 2036 2046 2099 2192 2251 2381 -9999 -9999 -9999 -9999 -9999 -9999 -9999 -9999 -9999 -9999 -9999 -9999 -9999 -9999 -9999 -9999 -9999 -9999 -9999 -9999 -9999 -9999 -9999 -9999 -9999 -9999 -9999 -9999 -9999 -9999 -9999 -9999 -9999 -9999 -9999 -9999 -9999 -9999 -9999 -9999 -9999 -9999 -9999 -9999 -9999 -9999 -9999 -9999 -9999
-9999 -9999 -9999 -9999 -9999 1941 1843 1617 1632 1772 1981 1847 1690 1679 1565 1202 1108 1272 1606 1682 1765 2085 2127 2136 1912 1897 1812 2020 2072 2100 2085 2186 2228 2259 2337 -9999 -9999 -9999 -9999 -9999 -9999 -9999 -9999 -9999 -9999 -9999 -9999 -9999 -9999 -9999 -9999 -9999 -9999 -9999 -9999 -9999 -9999 -9999 -9999 -9999 -9999 -9999 -9999 -9999 -9999 -9999 -9999 -9999 -9999 -9999 -9999 -9999 -9999 -9999 -9999 -9999 -9999 -9999 -9999 -9999 -9999 -9999 -9999 -9999
-9999 -9999 -9999 -9999 -9999 2045 1762 1626 1500 1605 1698 1626 1536 1460 1330 1048 1118 1395 1634 1635 1757 2102 2258 2195 2001 1898 1914 2054 2167 2116 2160 2248 2309 2366 -9999 -9999 -9999 -9999 -9999 -9999 -9999 -9999 -9999 -9999 -9999 -9999 -9999 -9999 -9999 -9999 -9999 -9999 -9999 -9999 -9999 -9999 -9999 -9999 -9999 -9999 -9999 -9999 -9999 -9999 -9999 -9999 -9999 -9999 -9999 -9999 -9999 -9999 -9999 -9999 -9999 -9999 -9999 -9999 -9999 -9999 -9999 -9999 -9999 -9999
-9999 -9999 -9999 -9999 -9999 1991 1801 1635 1509 1370 1437 1598 1471 1286 1093 1197 1423 1603 1765 1952 1954 2146 2251 2126 1916 1919 2025 2098 2207 2155 2240 2308 2361 -9999 -9999 -9999 -9999 -9999 -9999 -9999 -9999 -9999 -9999 -9999 -9999 -9999 -9999 -9999 -9999 -9999 -9999 -9999 -9999 -9999 -9999 -9999 -9999 -9999 -9999 -9999 -9999 -9999 -9999 -9999 -9999 -9999 -9999 -9999 -9999 -9999 -9999 -9999 -9999 -9999 -9999 -9999 -9999 -9999 -9999 -9999 -9999 -9999 -9999 -9999
-9999 2215 2153 2160 2091 2065 1830 1656 1653 1523 1295 1495 1446 1232 1035 1379 1570 1715 1810 2154 2173 2248 2276 2113 1954 1995 2042 2155 2175 2213 2283 2357 -9999 -9999 -9999 -9999 -9999 -9999 -9999 -9999 -9999 -9999 -9999 -9999 -9999 -9999 -9999 -9999 -9999 -9999 -9999 -9999 -9999 -9999 -9999 -9999 -9999 -9999 -9999 -9999 -9999 -9999 -9999 -9999 -9999 -9999 -9999 -9999 -9999 -9999 -9999 -9999 -9999 -9999 -9999 -9999 -9999 -9999 -9999 -9999 -9999 -9999 -9999 -9999
-9999 2196 1895 1854 1893 1757 1988 1908 1751 1515 1371 1203 1175 1112 1100 1483 1667 1659 1848 2137 2293 2304 2271 2052 1995 2054 2194 2279 2205 2247 2347 2450 -9999 -9999 -9999 -9999 -9999 -9999 -9999 -9999 -9999 -9999 -9999 -9999 -9999 -9999 -9999 -9999 -9999 -9999 -9999 -9999 -9999 -9999 -9999 -9999 -9999 -9999 -9999 -9999 -9999 -9999 -9999 -9999 -9999 -9999 -9999 -9999 -9999 -9999 -9999 -9999 -9999 -9999 -9999 -9999 -9999 -9999 -9999 -9999 -9999 -9999 -9999 -9999
-9999 2251 1961 1858 1627 1567 1682 1870 1792 1601 1457 1461 1358 1114 1095 1472 1520 1546 1771 2008 1955 1987 1940 1842 1984 2060 2242 2263 2304 2315 2348 -9999 -9999 -9999 -9999 -9999 -9999 -9999 -9999 -9999 -9999 -9999 -9999 -9999 -9999 -9999 -9999 -9999 -9999 -9999 -9999 -9999 -9999 -9999 -9999 -9999 -9999 -9999 -9999 -9999 -9999 -9999 -9999 -9999 -9999 -9999 -9999 -9999 -9999 -9999 -9999 -9999 -9999 -9999 -9999 -9999 -9999 -9999 -9999 -9999 -9999 -9999 -9999 -9999
-9999 2188 1936 1863 1740 1508 1499 1572 1539 1366 1308 1288 1424 1240 1013 1393 1516 1623 1726 1872 1890 1700 1694 1823 2002 2048 2089 2139 2252 2310 -9999 -9999 -9999 -9999 -9999 -9999 -9999 -9999 -9999 -9999 -9999 -9999 -9999 -9999 -9999 -9999 -9999 -9999 -9999 -9999 -9999 -9999 -9999 -9999 -9999 -9999 -9999 -9999 -9999 -9999 -9999 -9999 -9999 -9999 -9999 -9999 -9999 -9999 -9999 -9999 -9999 -9999 -9999 -9999 -9999 -9999 -9999 -9999 -9999 -9999 -9999 -9999 -9999 -9999
-9999 2266 2015 1860 1678 1521 1376 1464 1426 1289 1240 1260 1306 1294 983 1330 1441 1572 1714 1878 1885 1626 1678 1978 2105 2101 2040 2163 2248 2308 -9999 -9999 -9999 -9999 -9999 -9999 -9999 -9999 -9999 -9999 -9999 -9999 -9999 -9999 -9999 -9999 -9999 -9999 -9999 -9999 -9999 -9999 -9999 -9999 -9999 -9999 -9999 -9999 -9999 -9999 -9999 -9999 -9999 -9999 -9999 -9999 -9999 -9999 -9999 -9999 -9999 -9999 -9999 -9999 -9999 -9999 -9999 -9999 -9999 -9999 -9999 -9999 -9999 -9999
-9999 2264 1941 1830 1699 1534 1554 1341 1255 1179 1241 1077 1065 1119 999 1211 1327 1613 1863 2000 1824 1519 1687 2040 1861 1876 1968 2159 2259 -9999 -9999 -9999 -9999 -9999 -9999 -9999 -9999 -9999 -9999 -9999 -9999 -9999 -9999 -9999 -9999 -9999 -9999 -9999 -9999 -9999 -9999 -9999 -9999 -9999 -9999 -9999 -9999 -9999 -9999 -9999 -9999 -9999 -9999 -9999 -9999 -9999 -9999 -9999 -9999 -9999 -9999 -9999 -9999 -9999 -9999 -9999 -9999 -9999 -9999 -9999 -9999 -9999 -9999 -9999
2433 2158 1926 1895 1737 1877 1583 1679 1535 1502 1501 1309 1201 1009 1050 1222 1335 1537 1675 1893 1736 1444 1552 1832 1599 1716 1923 2021 -9999 -9999 -9999 -9999 -9999 -9999 -9999 -9999 -9999 -9999 -9999 -9999 -9999 -9999 -9999 -9999 -9999 -9999 -9999 -9999 -9999 -9999 -9999 -9999 -9999 -9999 -9999 -9999 -9999 -9999 -9999 -9999 -9999 -9999 -9999 -9999 -9999 -9999 -9999 -9999 -9999 -9999 -9999 -9999 -9999 -9999 -9999 -9999 -9999 -9999 -9999 -9999 -9999 -9999 -9999 -9999
2559 2450 2192 2085 2034 1899 1897 1967 1903 1673 1521 1250 1117 944 1158 1317 1258 1315 1464 1633 1718 1445 1321 1485 1440 1556 1661 -9999 -9999 -9999 -9999 -9999 -9999 -9999 -9999 -9999 -9999 -9999 -9999 -9999 -9999 -9999 -9999 -9999 -9999 -9999 -9999 -9999 -9999 -9999 -9999 -9999 -9999 -9999 -9999 -9999 -9999 -9999 -9999 -9999 -9999 -9999 -9999 -9999 -9999 -9999 -9999 -9999 -9999 -9999 -9999 -9999 -9999 -9999 -9999 -9999 -9999 -9999 -9999 -9999 -9999 -9999 -9999 -9999
-9999 -9999 2303 2266 2225 2097 2062 1981 1848 1530 1334 1307 1170 944 1044 1176 1115 1275 1309 1585 1697 1462 1322 1312 1404 1498 1786 -9999 -9999 -9999 -9999 -9999 -9999 -9999 -9999 -9999 -9999 -9999 -9999 -9999 -9999 -9999 -9999 -9999 -9999 -9999 -9999 -9999 -9999 -9999 -9999 -9999 -9999 -9999 -9999 -9999 -9999 -9999 -9999 -9999 -9999 -9999 -9999 -9999 -9999 -9999 -9999 -9999 -9999 -9999 -9999 -9999 -9999 -9999 -9999 -9999 -9999 -9999 -9999 -9999 -9999 -9999 -9999 -9999
-9999 -9999 -9999 -9999 2137 2093 2075 1975 1870 1584 1264 1184 1148 1207 972 915 954 1036 1172 1477 1598 1470 1176 1316 1483 1606 -9999 -9999 -9999 -9999 -9999 -9999 -9999 -9999 -9999 -9999 -9999 -9999 -9999 -9999 -9999 -9999 -9999 -9999 -9999 -9999 -9999 -9999 -9999 -9999 -9999 -9999 -9999 -9999 -9999 -9999 -9999 -9999 -9999 -9999 -9999 -9999 -9999 -9999 -9999 -9999 -9999 -9999 -9999 -9999 -9999 -9999 -9999 -9999 -9999 -9999 -9999 -9999 -9999 -9999 -9999 -9999 -9999 -9999
-9999 -9999 -9999 -9999 -9999 2212 2015 2021 1971 1804 1713 1547 1473 1369 1245 1049 900 1134 1297 1532 1484 1352 1157 1233 1393 1415 -9999 -9999 -9999 -9999 -9999 -9999 -9999 -9999 -9999 -9999 -9999 -9999 -9999 -9999 -9999 -9999 -9999 -9999 -9999 -9999 -9999 -9999 -9999 -9999 -9999 -9999 -9999 -9999 -9999 -9999 -9999 -9999 -9999 -9999 -9999 -9999 -9999 -9999 -9999 -9999 -9999 -9999 -9999 -9999 -9999 -9999 -9999 -9999 -9999 -9999 -9999 -9999 -9999 -9999 -9999 -9999 -9999 -9999
-9999 -9999 -9999 -9999 -9999 2055 2145 2027 1887 1730 1463 1304 1240 1137 1037 995 886 1002 1286 1415 1387 1210 1066 1205 1278 1272 -9999 -9999 -9999 -9999 -9999 -9999 -9999 -9999 -9999 -9999 -9999 -9999 -9999 -9999 -9999 -9999 -9999 -9999 -9999 -9999 -9999 -9999 -9999 -9999 -9999 -9999 -9999 -9999 -9999 -9999 -9999 -9999 -9999 -9999 -9999 -9999 -9999 -9999 -9999 -9999 -9999 -9999 -9999 -9999 -9999 -9999 -9999 -9999 -9999 -9999 -9999 -9999 -9999 -9999 -9999 -9999 -9999 -9999
-9999 -9999 -9999 -9999 -9999 1847 1766 1805 1694 1637 1548 1521 1514 1381 1201 998 920 898 1118 1217 1109 1089 1011 1097 1206 1271 -9999 -9999 -9999 -9999 -9999 -9999 -9999 -9999 -9999 -9999 -9999 -9999 -9999 -9999 -9999 -9999 -9999 -9999 -9999 -9999 -9999 -9999 -9999 -9999 -9999 -9999 -9999 -9999 -9999 -9999 -9999 -9999 -9999 -9999 -9999 -9999 -9999 -9999 -9999 -9999 -9999 -9999 -9999 -9999 -9999 -9999 -9999 -9999 -9999 -9999 -9999 -9999 -9999 -9999 -9999 -9999 -9999 -9999
-9999 -9999 -9999 -9999 -9999 1817 1640 1682 1621 1563 1451 1428 1399 1431 1255 1031 969 855 1006 1122 1062 962 1049 1177 1240 1289 -9999 -9999 -9999 -9999 -9999 -9999 -9999 -9999 -9999 -9999 -9999 -9999 -9999 -9999 -9999 -9999 -9999 -9999 -9999 -9999 -9999 -9999 -9999 -9999 -9999 -9999 -9999 -9999 -9999 -9999 -9999 -9999 -9999 -9999 -9999 -9999 -9999 -9999 -9999 -9999 -9999 -9999 -9999 -9999 -9999 -9999 -9999 -9999 -9999 -9999 -9999 -9999 -9999 -9999 -9999 -9999 -9999 -9999
-9999 -9999 -9999 -9999 -9999 -9999 1508 1400 1404 1470 1249 1277 1295 1247 1211 1085 1023 875 853 909 937 1012 1076 1167 1282 1336 -9999 -9999 -9999 -9999 -9999 -9999 -9999 -9999 -9999 -9999 -9999 -9999 -9999 -9999 -9999 -9999 -9999 -9999 -9999 -9999 -9999 -9999 -9999 -9999 -9999 -9999 -9999 -9999 -9999 -9999 -9999 -9999 -9999 -9999 -9999 -9999 -9999 -9999 -9999 -9999 -9999 -9999 -9999 -9999 -9999 -9999 -9999 -9999 -9999 -9999 -9999 -9999 -9999 -9999 -9999 -9999 -9999 -9999
-9999 -9999 -9999 -9999 -9999 -9999 -9999 1468 1387 1285 1318 1261 1208 1081 1044 1038 1041 896 836 853 903 1013 1064 1118 1241 1296 -9999 -9999 -9999 -9999 -9999 -9999 -9999 -9999 -9999 -9999 -9999 -9999 -9999 -9999 -9999 -9999 -9999 -9999 -9999 -9999 -9999 -9999 -9999 -9999 -9999 -9999 -9999 -9999 -9999 -9999 -9999 -9999 -9999 -9999 -9999 -9999 -9999 -9999 -9999 -9999 -9999 -9999 -9999 -9999 -9999 -9999 -9999 -9999 -9999 -9999 -9999 -9999 -9999 -9999 -9999 -9999 -9999 -9999
-9999 -9999 -9999 -9999 -9999 -9999 -9999 -9999 1440 1329 1160 1193 1183 1207 1164 1144 1051 901 879 826 853 914 991 1073 1142 1196 1337 -9999 -9999 -9999 -9999 -9999 -9999 -9999 -9999 -9999 -9999 -9999 -9999 -9999 -9999 -9999 -9999 -9999 -9999 -9999 -9999 -9999 -9999 -9999 -9999 -9999 -9999 -9999 -9999 -9999 -9999 -9999 -9999 -9999 -9999 -9999 -9999 -9999 -9999 -9999 -9999 -9999 -9999 -9999 -9999 -9999 -9999 -9999 -9999 -9999 -9999 -9999 -9999 -9999 -9999 -9999 -9999 -9999
-9999 -9999 -9999 -9999 -9999 -9999 -9999 -9999 -9999 -9999 1238 1104 1122 1138 1106 1087 1045 904 877 816 843 964 1047 1102 1222 1254 -9999 -9999 -9999 -9999 -9999 -9999 -9999 -9999 -9999 -9999 -9999 -9999 -9999 -9999 -9999 -9999 -9999 -9999 -9999 -9999 -9999 -9999 -9999 -9999 -9999 -9999 -9999 -9999 -9999 -9999 -9999 -9999 -9999 -9999 -9999 -9999 -9999 -9999 -9999 -9999 -9999 -9999 -9999 -9999 -9999 -9999 -9999 -9999 -9999 -9999 -9999 -9999 -9999 -9999 -9999 -9999 -9999 -9999
-9999 -9999 -9999 -9999 -9999 -9999 -9999 -9999 -9999 -9999 -9999 -9999 1142 1027 1008 985 957 916 844 842 932 1031 1196 1221 -9999 -9999 -9999 -9999 -9999 -9999 -9999 -9999 -9999 -9999 -9999 -9999 -9999 -9999 -9999 -9999 -9999 -9999 -9999 -9999 -9999 -9999 -9999 -9999 -9999 -9999 -9999 -9999 -9999 -9999 -9999 -9999 -9999 -9999 -9999 -9999 -9999 -9999 -9999 -9999 -9999 -9999 -9999 -9999 -9999 -9999 -9999 -9999 -9999 -9999 -9999 -9999 -9999 -9999 -9999 -9999 -9999 -9999 -9999 -9999
-9999 -9999 -9999 -9999 -9999 -9999 -9999 -9999 -9999 -9999 -9999 -9999 -9999 1067 1048 1025 945 870 808 867 922 1054 -9999 -9999 -9999 -9999 -9999 -9999 -9999 -9999 -9999 -9999 -9999 -9999 -9999 -9999 -9999 -9999 -9999 -9999 -9999 -9999 -9999 -9999 -9999 -9999 -9999 -9999 -9999 -9999 -9999 -9999 -9999 -9999 -9999 -9999 -9999 -9999 -9999 -9999 -9999 -9999 -9999 -9999 -9999 -9999 -9999 -9999 -9999 -9999 -9999 -9999 -9999 -9999 -9999 -9999 -9999 -9999 -9999 -9999 -9999 -9999 -9999 -9999
-9999 -9999 -9999 -9999 -9999 -9999 -9999 -9999 -9999 -9999 -9999 -9999 -9999 -9999 -9999 929 876 816 813 892 919 -9999 -9999 -9999 -9999 -9999 -9999 -9999 -9999 -9999 -9999 -9999 -9999 -9999 -9999 -9999 -9999 -9999 -9999 -9999 -9999 -9999 -9999 -9999 -9999 -9999 -9999 -9999 -9999 -9999 -9999 -9999 -9999 -9999 -9999 -9999 -9999 -9999 -9999 -9999 -9999 -9999 -9999 -9999 -9999 -9999 -9999 -9999 -9999 -9999 -9999 -9999 -9999 -9999 -9999 -9999 -9999 -9999 -9999 -9999 -9999 -9999 -9999 -9999
-9999 -9999 -9999 -9999 -9999 -9999 -9999 -9999 -9999 -9999 -9999 -9999 -9999 -9999 -9999 -9999 851 770 832 -9999 -9999 -9999 -9999 -9999 -9999 -9999 -9999 -9999 -9999 -9999 -9999 -9999 -9999 -9999 -9999 -9999 -9999 -9999 -9999 -9999 -9999 -9999 -9999 -9999 -9999 -9999 -9999 -9999 -9999 -9999 -9999 -9999 -9999 -9999 -9999 -9999 -9999 -9999 -9999 -9999 -9999 -9999 -9999 -9999 -9999 -9999 -9999 -9999 -9999 -9999 -9999 -9999 -9999 -9999 -9999 -9999 -9999 -9999 -9999 -9999 -9999 -9999 -9999 -9999
-9999 -9999 -9999 -9999 -9999 -9999 -9999 -9999 -9999 -9999 -9999 -9999 -9999 -9999 -9999 -9999 787 764 -9999 -9999 -9999 -9999 -9999 -9999 -9999 -9999 -9999 -9999 -9999 -9999 -9999 -9999 -9999 -9999 -9999 -9999 -9999 -9999 -9999 -9999 -9999 -9999 -9999 -9999 -9999 -9999 -9999 -9999 -9999 -9999 -9999 -9999 -9999 -9999 -9999 -9999 -9999 -9999 -9999 -9999 -9999 -9999 -9999 -9999 -9999 -9999 -9999 -9999 -9999 -9999 -9999 -9999 -9999 -9999 -9999 -9999 -9999 -9999 -9999 -9999 -9999 -9999 -9999 -9999
