NCOLS 493 
NROWS 120 
XLLCORNER 67.7925920431671 
YLLCORNER 38.9222916798692 
CELLSIZE 0.005892565925393 
NODATA_value -9999 
-9999.000000000000000 -9999 -9999 -9999 -9999 -9999 -9999 -9999 -9999 -9999 -9999 -9999 -9999 2856 2883 -9999 -9999 -9999 -9999 -9999 -9999 -9999 -9999 -9999 -9999 -9999 -9999 -9999 -9999 -9999 -9999 -9999 -9999 -9999 -9999 -9999 -9999 -9999 -9999 -9999 -9999 -9999 -9999 -9999 -9999 -9999 -9999 -9999 -9999 -9999 -9999 -9999 -9999 -9999 -9999 -9999 -9999 -9999 -9999 -9999 -9999 -9999 -9999 -9999 -9999 -9999 -9999 -9999 -9999 -9999 -9999 -9999 -9999 -9999 -9999 -9999 -9999 -9999 -9999 -9999 -9999 -9999 -9999 -9999 -9999 -9999 -9999 -9999 -9999 -9999 -9999 -9999 -9999 -9999 -9999 -9999 -9999 -9999 -9999 -9999 -9999 -9999 -9999 -9999 -9999 -9999 -9999 -9999 -9999 -9999 -9999 -9999 -9999 -9999 -9999 -9999 -9999 -9999 -9999 -9999 -9999 -9999 -9999 -9999 -9999 -9999 -9999 -9999 -9999 -9999 -9999 -9999 -9999 -9999 -9999 -9999 -9999 -9999 -9999 -9999 -9999 -9999 -9999 -9999 -9999 -9999 -9999 -9999 -9999 -9999 -9999 -9999 -9999 -9999 -9999 -9999 -9999 -9999 -9999 -9999 -9999 -9999 -9999 -9999 -9999 -9999 -9999 -9999 -9999 -9999 -9999 -9999 -9999 -9999 -9999 -9999 -9999 -9999 -9999 -9999 -9999 -9999 -9999 -9999 -9999 -9999 -9999 -9999 -9999 -9999 -9999 -9999 -9999 -9999 -9999 -9999 -9999 -9999 -9999 -9999 -9999 -9999 -9999 -9999 -9999 -9999 -9999 -9999 -9999 -9999 -9999 -9999 -9999 -9999 -9999 -9999 -9999 -9999 -9999 -9999 -9999 -9999 -9999 -9999 -9999 -9999 -9999 -9999 -9999 -9999 -9999 -9999 -9999 -9999 -9999 -9999 -9999 -9999 -9999 -9999 -9999 -9999 -9999 -9999 -9999 -9999 -9999 -9999 -9999 -9999 -9999 -9999 -9999 -9999 -9999 -9999 -9999 -9999 -9999 -9999 -9999 -9999 -9999 -9999 -9999 -9999 -9999 -9999 -9999 -9999 -9999 -9999 -9999 -9999 -9999 -9999 -9999 -9999 -9999 -9999 -9999 -9999 -9999 -9999 -9999 -9999 -9999 -9999 -9999 -9999 -9999 -9999 -9999 -9999 -9999 -9999 -9999 -9999 -9999 -9999 -9999 -9999 -9999 -9999 -9999 -9999 -9999 -9999 -9999 -9999 -9999 -9999 -9999 -9999 -9999 -9999 -9999 -9999 -9999 -9999 -9999 -9999 -9999 -9999 -9999 -9999 -9999 -9999 -9999 -9999 -9999 -9999 -9999 -9999 -9999 -9999 -9999 -9999 -9999 -9999 -9999 -9999 -9999 -9999 -9999 -9999 -9999 -9999 -9999 -9999 -9999 -9999 -9999 -9999 -9999 -9999 -9999 -9999 -9999 -9999 -9999 -9999 -9999 -9999 -9999 -9999 -9999 -9999 -9999 -9999 -9999 -9999 -9999 -9999 -9999 -9999 -9999 -9999 -9999 -9999 -9999 -9999 -9999 -9999 -9999 -9999 -9999 -9999 -9999 -9999 -9999 -9999 -9999 -9999 -9999 -9999 -9999 -9999 -9999 -9999 -9999 -9999 -9999 -9999 -9999 -9999 -9999 -9999 -9999 -9999 -9999 -9999 -9999 -9999 -9999 -9999 -9999 -9999 -9999 -9999 -9999 -9999 -9999 -9999 -9999 -9999 -9999 -9999 -9999 -9999 -9999 -9999 -9999 -9999 -9999 -9999 -9999 -9999 -9999 -9999 -9999 -9999 -9999 -9999 -9999 -9999 -9999 -9999 -9999 -9999 -9999 -9999 -9999 -9999 -9999 -9999 -9999 -9999 -9999 -9999 -9999 -9999 -9999 -9999 -9999 -9999 -9999 -9999 -9999 -9999 -9999 -9999 -9999 -9999 -9999 -9999 -9999 -9999 -9999 -9999 -9999 -9999 -9999 -9999 -9999 -9999 -9999 -9999 -9999 -9999 -9999 -9999 -9999
-9999 -9999 -9999 -9999 -9999 -9999 -9999 -9999 -9999 -9999 -9999 2776 2820 2647 2597 -9999 -9999 -9999 -9999 -9999 -9999 -9999 -9999 -9999 -9999 -9999 -9999 -9999 -9999 -9999 -9999 -9999 -9999 -9999 -9999 -9999 -9999 -9999 -9999 -9999 -9999 -9999 -9999 -9999 -9999 -9999 -9999 -9999 -9999 -9999 -9999 -9999 -9999 -9999 -9999 -9999 -9999 -9999 -9999 -9999 -9999 -9999 -9999 -9999 -9999 -9999 -9999 -9999 -9999 -9999 -9999 -9999 -9999 -9999 -9999 -9999 -9999 -9999 -9999 -9999 -9999 -9999 -9999 -9999 -9999 -9999 -9999 -9999 -9999 -9999 -9999 -9999 -9999 -9999 -9999 -9999 -9999 -9999 -9999 -9999 -9999 -9999 -9999 -9999 -9999 -9999 -9999 -9999 -9999 -9999 -9999 -9999 -9999 -9999 -9999 -9999 -9999 -9999 -9999 -9999 -9999 -9999 -9999 -9999 -9999 -9999 -9999 -9999 -9999 -9999 -9999 -9999 -9999 -9999 -9999 -9999 -9999 -9999 -9999 -9999 -9999 -9999 -9999 -9999 -9999 -9999 -9999 -9999 -9999 -9999 -9999 -9999 -9999 -9999 -9999 -9999 -9999 -9999 -9999 -9999 -9999 -9999 -9999 -9999 -9999 -9999 -9999 -9999 -9999 -9999 -9999 -9999 -9999 -9999 -9999 -9999 -9999 -9999 -9999 -9999 -9999 -9999 -9999 -9999 -9999 -9999 -9999 -9999 -9999 -9999 -9999 -9999 -9999 -9999 -9999 -9999 -9999 -9999 -9999 -9999 -9999 -9999 -9999 -9999 -9999 -9999 -9999 -9999 -9999 -9999 -9999 -9999 -9999 -9999 -9999 -9999 -9999 -9999 -9999 -9999 -9999 -9999 -9999 -9999 -9999 -9999 -9999 -9999 -9999 -9999 -9999 -9999 -9999 -9999 -9999 -9999 -9999 -9999 -9999 -9999 -9999 -9999 -9999 -9999 -9999 -9999 -9999 -9999 -9999 -9999 -9999 -9999 -9999 -9999 -9999 -9999 -9999 -9999 -9999 -9999 -9999 -9999 -9999 -9999 -9999 -9999 -9999 -9999 -9999 -9999 -9999 -9999 -9999 -9999 -9999 -9999 -9999 -9999 -9999 -9999 -9999 -9999 -9999 -9999 -9999 -9999 -9999 -9999 -9999 -9999 -9999 -9999 -9999 -9999 -9999 -9999 -9999 -9999 -9999 -9999 -9999 -9999 -9999 -9999 -9999 -9999 -9999 -9999 -9999 -9999 -9999 -9999 -9999 -9999 -9999 -9999 -9999 -9999 -9999 -9999 -9999 -9999 -9999 -9999 -9999 -9999 -9999 -9999 -9999 -9999 -9999 -9999 -9999 -9999 -9999 -9999 -9999 -9999 -9999 -9999 -9999 -9999 -9999 -9999 -9999 -9999 -9999 -9999 -9999 -9999 -9999 -9999 -9999 -9999 -9999 -9999 -9999 -9999 -9999 -9999 -9999 -9999 -9999 -9999 -9999 -9999 -9999 -9999 -9999 -9999 -9999 -9999 -9999 -9999 -9999 -9999 -9999 -9999 -9999 -9999 -9999 -9999 -9999 -9999 -9999 -9999 -9999 -9999 -9999 -9999 -9999 -9999 -9999 -9999 -9999 -9999 -9999 -9999 -9999 -9999 -9999 -9999 -9999 -9999 -9999 -9999 -9999 -9999 -9999 -9999 -9999 -9999 -9999 -9999 -9999 -9999 -9999 -9999 -9999 -9999 -9999 -9999 -9999 -9999 -9999 -9999 -9999 -9999 -9999 -9999 -9999 -9999 -9999 -9999 -9999 -9999 -9999 -9999 -9999 -9999 -9999 -9999 -9999 -9999 -9999 -9999 -9999 -9999 -9999 -9999 -9999 -9999 -9999 -9999 -9999 -9999 -9999 -9999 -9999 -9999 -9999 -9999 -9999 -9999 4683 4700 -9999 -9999 -9999 -9999 -9999 -9999 -9999 -9999 -9999 -9999 -9999 -9999 -9999 -9999 -9999 -9999 -9999 -9999 -9999 -9999 -9999 -9999 -9999 -9999 -9999 -9999 -9999
-9999 -9999 -9999 -9999 -9999 -9999 -9999 -9999 -9999 -9999 2378 2417 2511 2541 2417 2503 2782 -9999 -9999 -9999 -9999 -9999 -9999 -9999 -9999 -9999 -9999 -9999 -9999 -9999 -9999 -9999 -9999 -9999 -9999 -9999 -9999 -9999 -9999 -9999 -9999 -9999 -9999 -9999 -9999 -9999 -9999 -9999 -9999 -9999 -9999 -9999 -9999 -9999 -9999 -9999 -9999 -9999 -9999 -9999 -9999 -9999 -9999 -9999 -9999 -9999 -9999 -9999 -9999 -9999 -9999 -9999 -9999 -9999 -9999 -9999 -9999 -9999 -9999 -9999 -9999 -9999 -9999 -9999 -9999 -9999 -9999 -9999 -9999 -9999 -9999 -9999 -9999 -9999 -9999 -9999 -9999 -9999 -9999 -9999 -9999 -9999 -9999 -9999 -9999 -9999 -9999 -9999 -9999 -9999 -9999 -9999 -9999 -9999 -9999 -9999 -9999 -9999 -9999 -9999 -9999 -9999 -9999 -9999 -9999 -9999 -9999 -9999 -9999 -9999 -9999 -9999 -9999 -9999 -9999 -9999 -9999 -9999 -9999 -9999 -9999 -9999 -9999 -9999 -9999 -9999 -9999 -9999 -9999 -9999 -9999 -9999 -9999 -9999 -9999 -9999 -9999 -9999 -9999 -9999 -9999 -9999 -9999 -9999 -9999 -9999 -9999 -9999 -9999 -9999 -9999 -9999 -9999 -9999 -9999 -9999 -9999 -9999 -9999 -9999 -9999 -9999 -9999 -9999 -9999 -9999 -9999 -9999 -9999 -9999 -9999 -9999 -9999 -9999 -9999 -9999 -9999 -9999 -9999 -9999 -9999 -9999 -9999 -9999 -9999 -9999 -9999 -9999 -9999 -9999 -9999 -9999 -9999 -9999 -9999 -9999 -9999 -9999 -9999 -9999 -9999 -9999 -9999 -9999 -9999 -9999 -9999 -9999 -9999 -9999 -9999 -9999 -9999 -9999 -9999 -9999 -9999 -9999 -9999 -9999 -9999 -9999 -9999 -9999 -9999 -9999 -9999 -9999 -9999 -9999 -9999 -9999 -9999 -9999 -9999 -9999 -9999 -9999 -9999 -9999 -9999 -9999 -9999 -9999 -9999 -9999 -9999 -9999 -9999 -9999 -9999 -9999 -9999 -9999 -9999 -9999 -9999 -9999 -9999 -9999 -9999 -9999 -9999 -9999 -9999 -9999 -9999 -9999 -9999 -9999 -9999 -9999 -9999 -9999 -9999 -9999 -9999 -9999 -9999 -9999 -9999 -9999 -9999 -9999 -9999 -9999 -9999 -9999 -9999 -9999 -9999 -9999 -9999 -9999 -9999 -9999 -9999 -9999 -9999 -9999 -9999 -9999 -9999 -9999 -9999 -9999 -9999 -9999 -9999 -9999 -9999 -9999 -9999 -9999 -9999 -9999 -9999 -9999 -9999 -9999 -9999 -9999 -9999 -9999 -9999 -9999 -9999 -9999 -9999 -9999 -9999 -9999 -9999 -9999 -9999 -9999 -9999 -9999 -9999 -9999 -9999 -9999 -9999 -9999 -9999 -9999 -9999 -9999 -9999 -9999 -9999 -9999 -9999 -9999 -9999 -9999 -9999 -9999 -9999 -9999 -9999 -9999 -9999 -9999 -9999 -9999 -9999 -9999 -9999 -9999 -9999 -9999 -9999 -9999 -9999 -9999 -9999 -9999 -9999 -9999 -9999 -9999 -9999 -9999 -9999 -9999 -9999 -9999 -9999 -9999 -9999 -9999 -9999 -9999 -9999 -9999 -9999 -9999 -9999 -9999 -9999 -9999 -9999 -9999 -9999 -9999 -9999 -9999 -9999 -9999 -9999 -9999 -9999 -9999 -9999 -9999 -9999 -9999 -9999 -9999 -9999 -9999 -9999 -9999 -9999 -9999 -9999 -9999 -9999 -9999 -9999 -9999 -9999 -9999 -9999 -9999 -9999 -9999 -9999 -9999 -9999 -9999 -9999 4498 4489 4488 4533 -9999 -9999 -9999 -9999 -9999 -9999 -9999 -9999 -9999 -9999 -9999 -9999 -9999 -9999 -9999 -9999 -9999 -9999 -9999 -9999 -9999 -9999 -9999 -9999 -9999 -9999
-9999 -9999 -9999 -9999 -9999 -9999 -9999 -9999 -9999 -9999 2308 2256 2345 2398 2376 2529 2816 2856 2861 2903 2923 -9999 -9999 -9999 -9999 -9999 -9999 -9999 -9999 -9999 -9999 -9999 -9999 -9999 -9999 -9999 -9999 -9999 -9999 -9999 -9999 -9999 -9999 -9999 -9999 -9999 -9999 -9999 -9999 -9999 -9999 -9999 -9999 -9999 -9999 -9999 -9999 -9999 -9999 -9999 -9999 -9999 -9999 -9999 -9999 -9999 -9999 -9999 -9999 -9999 -9999 -9999 -9999 -9999 -9999 -9999 -9999 -9999 -9999 -9999 -9999 -9999 -9999 -9999 -9999 -9999 -9999 -9999 -9999 -9999 -9999 -9999 -9999 -9999 -9999 -9999 -9999 -9999 -9999 -9999 -9999 -9999 -9999 -9999 -9999 -9999 -9999 -9999 -9999 -9999 -9999 -9999 -9999 -9999 -9999 -9999 -9999 -9999 -9999 -9999 -9999 -9999 -9999 -9999 -9999 -9999 -9999 -9999 -9999 -9999 -9999 -9999 -9999 -9999 -9999 -9999 -9999 -9999 -9999 -9999 -9999 -9999 -9999 -9999 -9999 -9999 -9999 -9999 -9999 -9999 -9999 -9999 -9999 -9999 -9999 -9999 -9999 -9999 -9999 -9999 -9999 -9999 -9999 -9999 -9999 -9999 -9999 -9999 -9999 -9999 -9999 -9999 -9999 -9999 -9999 -9999 -9999 -9999 -9999 -9999 -9999 -9999 -9999 -9999 -9999 -9999 -9999 -9999 -9999 -9999 -9999 -9999 -9999 -9999 -9999 -9999 -9999 -9999 -9999 -9999 -9999 -9999 -9999 -9999 -9999 -9999 -9999 -9999 -9999 -9999 -9999 -9999 -9999 -9999 -9999 -9999 -9999 -9999 -9999 -9999 -9999 -9999 -9999 -9999 -9999 -9999 -9999 -9999 -9999 -9999 -9999 -9999 -9999 -9999 -9999 -9999 -9999 -9999 -9999 -9999 -9999 -9999 -9999 -9999 -9999 -9999 -9999 -9999 -9999 -9999 -9999 -9999 -9999 -9999 -9999 -9999 -9999 -9999 -9999 -9999 -9999 -9999 -9999 -9999 -9999 -9999 -9999 -9999 -9999 -9999 -9999 -9999 -9999 -9999 -9999 -9999 -9999 -9999 -9999 -9999 -9999 -9999 -9999 -9999 -9999 -9999 -9999 -9999 -9999 -9999 -9999 -9999 -9999 -9999 -9999 -9999 -9999 -9999 -9999 -9999 -9999 -9999 -9999 -9999 -9999 -9999 -9999 -9999 -9999 -9999 -9999 -9999 -9999 -9999 -9999 -9999 -9999 -9999 -9999 -9999 -9999 -9999 -9999 -9999 -9999 -9999 -9999 -9999 -9999 -9999 -9999 -9999 -9999 -9999 -9999 -9999 -9999 -9999 -9999 -9999 -9999 -9999 -9999 -9999 -9999 -9999 -9999 -9999 -9999 -9999 -9999 -9999 -9999 -9999 -9999 -9999 -9999 -9999 -9999 -9999 -9999 -9999 -9999 -9999 -9999 -9999 -9999 -9999 -9999 -9999 -9999 -9999 -9999 -9999 -9999 -9999 -9999 -9999 -9999 -9999 -9999 -9999 -9999 -9999 -9999 -9999 -9999 -9999 -9999 -9999 -9999 -9999 -9999 -9999 -9999 -9999 -9999 -9999 -9999 -9999 -9999 -9999 -9999 -9999 -9999 -9999 -9999 -9999 -9999 -9999 -9999 -9999 -9999 -9999 -9999 -9999 -9999 -9999 -9999 -9999 -9999 -9999 -9999 -9999 -9999 -9999 -9999 -9999 -9999 -9999 -9999 -9999 -9999 -9999 -9999 -9999 -9999 -9999 -9999 -9999 -9999 -9999 -9999 -9999 -9999 -9999 -9999 -9999 -9999 -9999 -9999 -9999 -9999 -9999 -9999 -9999 -9999 -9999 -9999 -9999 -9999 -9999 -9999 4505 4470 4454 4424 4757 4693 -9999 -9999 -9999 -9999 -9999 -9999 -9999 -9999 -9999 -9999 -9999 -9999 -9999 -9999 -9999 -9999 -9999 -9999 -9999 -9999 -9999 -9999 -9999 -9999
-9999 -9999 -9999 -9999 -9999 -9999 -9999 -9999 -9999 -9999 -9999 2319 2082 2137 2363 2515 2707 2719 2453 2662 2603 2792 2864 -9999 -9999 -9999 2953 2943 2957 2977 3052 2985 -9999 -9999 -9999 -9999 -9999 -9999 -9999 -9999 -9999 -9999 -9999 -9999 -9999 -9999 -9999 -9999 -9999 -9999 -9999 -9999 -9999 -9999 -9999 -9999 -9999 -9999 -9999 -9999 -9999 -9999 -9999 -9999 -9999 -9999 -9999 -9999 -9999 -9999 -9999 -9999 -9999 -9999 -9999 -9999 -9999 -9999 -9999 -9999 -9999 -9999 -9999 -9999 -9999 -9999 -9999 -9999 -9999 -9999 -9999 -9999 -9999 -9999 -9999 -9999 -9999 -9999 -9999 -9999 -9999 -9999 -9999 -9999 -9999 -9999 -9999 -9999 -9999 -9999 -9999 -9999 -9999 -9999 -9999 -9999 -9999 -9999 -9999 -9999 -9999 -9999 -9999 -9999 -9999 -9999 -9999 -9999 -9999 -9999 -9999 -9999 -9999 -9999 -9999 -9999 -9999 -9999 -9999 -9999 -9999 -9999 -9999 -9999 -9999 -9999 -9999 -9999 -9999 -9999 -9999 -9999 -9999 -9999 -9999 -9999 -9999 -9999 -9999 -9999 -9999 -9999 -9999 -9999 -9999 -9999 -9999 -9999 -9999 -9999 -9999 -9999 -9999 -9999 -9999 -9999 -9999 -9999 -9999 -9999 -9999 -9999 -9999 -9999 -9999 -9999 -9999 -9999 -9999 -9999 -9999 -9999 -9999 -9999 -9999 -9999 -9999 -9999 -9999 -9999 -9999 -9999 -9999 -9999 -9999 -9999 -9999 -9999 -9999 -9999 -9999 -9999 -9999 -9999 -9999 -9999 -9999 -9999 -9999 -9999 -9999 -9999 -9999 -9999 -9999 -9999 -9999 -9999 -9999 -9999 -9999 -9999 -9999 -9999 -9999 -9999 -9999 -9999 -9999 -9999 -9999 -9999 -9999 -9999 -9999 -9999 -9999 -9999 -9999 -9999 -9999 -9999 -9999 -9999 -9999 -9999 -9999 -9999 -9999 -9999 -9999 -9999 -9999 -9999 -9999 -9999 -9999 -9999 -9999 -9999 -9999 -9999 -9999 -9999 -9999 -9999 -9999 -9999 -9999 -9999 -9999 -9999 -9999 -9999 -9999 -9999 -9999 -9999 -9999 -9999 -9999 -9999 -9999 -9999 -9999 -9999 -9999 -9999 -9999 -9999 -9999 -9999 -9999 -9999 -9999 -9999 -9999 -9999 -9999 -9999 -9999 -9999 -9999 -9999 -9999 -9999 -9999 -9999 -9999 -9999 -9999 -9999 -9999 -9999 -9999 -9999 -9999 -9999 -9999 -9999 -9999 -9999 -9999 -9999 -9999 -9999 -9999 -9999 -9999 -9999 -9999 -9999 -9999 -9999 -9999 -9999 -9999 -9999 -9999 -9999 -9999 -9999 -9999 -9999 -9999 -9999 -9999 -9999 -9999 -9999 -9999 -9999 -9999 -9999 -9999 -9999 -9999 -9999 -9999 -9999 -9999 -9999 -9999 -9999 -9999 -9999 -9999 -9999 -9999 -9999 -9999 -9999 -9999 -9999 -9999 -9999 -9999 -9999 -9999 -9999 -9999 -9999 -9999 -9999 -9999 -9999 -9999 -9999 -9999 -9999 -9999 -9999 -9999 -9999 -9999 -9999 -9999 -9999 -9999 -9999 -9999 -9999 -9999 -9999 -9999 -9999 -9999 -9999 -9999 -9999 -9999 -9999 -9999 -9999 -9999 -9999 -9999 -9999 -9999 -9999 -9999 -9999 -9999 -9999 -9999 -9999 -9999 -9999 -9999 -9999 -9999 -9999 -9999 -9999 -9999 -9999 -9999 -9999 -9999 4864 -9999 -9999 -9999 -9999 -9999 -9999 -9999 4641 4566 4508 4519 4616 -9999 4671 4443 4269 4282 4464 4560 -9999 -9999 -9999 -9999 -9999 -9999 -9999 -9999 -9999 -9999 -9999 -9999 -9999 -9999 -9999 -9999 -9999 -9999 -9999 -9999 -9999 -9999 -9999 -9999
-9999 -9999 -9999 -9999 -9999 -9999 -9999 -9999 -9999 -9999 -9999 2256 2081 2072 2161 2281 2320 2443 2271 2315 2489 2481 2568 2674 2834 3026 2986 2832 2882 2935 2826 2787 2887 -9999 -9999 -9999 -9999 -9999 -9999 -9999 -9999 -9999 -9999 -9999 -9999 -9999 -9999 -9999 -9999 -9999 -9999 -9999 -9999 -9999 -9999 -9999 -9999 -9999 -9999 -9999 -9999 -9999 -9999 -9999 -9999 -9999 -9999 -9999 -9999 -9999 -9999 -9999 -9999 -9999 -9999 -9999 -9999 -9999 -9999 -9999 -9999 -9999 -9999 -9999 -9999 -9999 -9999 -9999 -9999 -9999 -9999 -9999 -9999 -9999 -9999 -9999 -9999 -9999 -9999 -9999 -9999 -9999 -9999 -9999 -9999 -9999 -9999 -9999 -9999 -9999 -9999 -9999 -9999 -9999 -9999 -9999 -9999 -9999 -9999 -9999 -9999 -9999 -9999 -9999 -9999 -9999 -9999 -9999 -9999 -9999 -9999 -9999 -9999 -9999 -9999 -9999 -9999 -9999 -9999 -9999 -9999 -9999 -9999 -9999 -9999 -9999 -9999 -9999 -9999 -9999 -9999 -9999 -9999 -9999 -9999 -9999 -9999 -9999 -9999 -9999 -9999 -9999 -9999 -9999 -9999 -9999 -9999 -9999 -9999 -9999 -9999 -9999 -9999 -9999 -9999 -9999 -9999 -9999 -9999 -9999 -9999 -9999 -9999 -9999 -9999 -9999 -9999 -9999 -9999 -9999 -9999 -9999 -9999 -9999 -9999 -9999 -9999 -9999 -9999 -9999 -9999 -9999 -9999 -9999 -9999 -9999 -9999 -9999 -9999 -9999 -9999 -9999 -9999 -9999 -9999 -9999 -9999 -9999 -9999 -9999 -9999 -9999 -9999 -9999 -9999 -9999 -9999 -9999 -9999 -9999 -9999 -9999 -9999 -9999 -9999 -9999 -9999 -9999 -9999 -9999 -9999 -9999 -9999 -9999 -9999 -9999 -9999 -9999 -9999 -9999 -9999 -9999 -9999 -9999 -9999 -9999 -9999 -9999 -9999 -9999 -9999 -9999 -9999 -9999 -9999 -9999 -9999 -9999 -9999 -9999 -9999 -9999 -9999 -9999 -9999 -9999 -9999 -9999 -9999 -9999 -9999 -9999 -9999 -9999 -9999 -9999 -9999 -9999 -9999 -9999 -9999 -9999 -9999 -9999 -9999 -9999 -9999 -9999 -9999 -9999 -9999 -9999 -9999 -9999 -9999 -9999 -9999 -9999 -9999 -9999 -9999 -9999 -9999 -9999 -9999 -9999 -9999 -9999 -9999 -9999 -9999 -9999 -9999 4255 4197 -9999 -9999 -9999 -9999 -9999 -9999 -9999 -9999 -9999 -9999 -9999 -9999 -9999 -9999 -9999 -9999 -9999 -9999 -9999 -9999 -9999 -9999 -9999 -9999 -9999 -9999 -9999 -9999 -9999 -9999 -9999 -9999 -9999 -9999 -9999 -9999 -9999 -9999 -9999 -9999 -9999 -9999 -9999 -9999 -9999 -9999 -9999 -9999 -9999 -9999 -9999 -9999 -9999 -9999 -9999 -9999 -9999 -9999 -9999 -9999 -9999 -9999 -9999 -9999 -9999 -9999 -9999 -9999 -9999 -9999 -9999 -9999 -9999 -9999 -9999 -9999 -9999 -9999 -9999 -9999 -9999 -9999 -9999 -9999 -9999 -9999 -9999 -9999 -9999 -9999 -9999 -9999 -9999 -9999 -9999 -9999 -9999 -9999 -9999 -9999 -9999 -9999 -9999 -9999 -9999 -9999 -9999 -9999 -9999 -9999 -9999 -9999 -9999 -9999 -9999 -9999 -9999 -9999 -9999 -9999 -9999 -9999 -9999 4948 4747 4749 -9999 -9999 -9999 -9999 -9999 4464 4430 4472 4429 4406 4420 4657 4763 4420 4205 4203 4434 4571 4623 -9999 -9999 -9999 -9999 -9999 -9999 -9999 -9999 -9999 -9999 -9999 -9999 -9999 -9999 -9999 -9999 -9999 -9999 -9999 -9999 -9999 -9999 -9999
-9999 -9999 -9999 -9999 -9999 -9999 -9999 -9999 -9999 -9999 -9999 2155 2093 1893 2045 2141 2066 2303 2044 2228 2204 2163 2325 2636 2807 2914 2699 2540 2610 2823 2834 2575 2683 2747 2913 -9999 2984 -9999 -9999 -9999 -9999 -9999 -9999 -9999 -9999 -9999 -9999 -9999 -9999 -9999 -9999 -9999 -9999 -9999 -9999 -9999 -9999 -9999 -9999 -9999 -9999 -9999 -9999 -9999 -9999 -9999 -9999 -9999 -9999 -9999 -9999 -9999 -9999 -9999 -9999 -9999 -9999 -9999 -9999 -9999 -9999 -9999 -9999 -9999 -9999 -9999 -9999 -9999 -9999 -9999 -9999 -9999 -9999 -9999 -9999 -9999 -9999 -9999 -9999 -9999 -9999 -9999 -9999 -9999 -9999 -9999 -9999 -9999 -9999 -9999 -9999 -9999 -9999 -9999 -9999 -9999 -9999 -9999 -9999 -9999 -9999 -9999 -9999 -9999 -9999 -9999 -9999 -9999 -9999 -9999 -9999 -9999 -9999 -9999 -9999 -9999 -9999 -9999 -9999 -9999 -9999 -9999 -9999 -9999 -9999 -9999 -9999 -9999 -9999 -9999 -9999 -9999 -9999 -9999 -9999 -9999 -9999 -9999 -9999 -9999 -9999 -9999 -9999 -9999 -9999 -9999 -9999 -9999 -9999 -9999 -9999 -9999 -9999 -9999 -9999 -9999 -9999 -9999 -9999 -9999 -9999 -9999 -9999 -9999 -9999 -9999 -9999 -9999 -9999 -9999 -9999 -9999 -9999 -9999 -9999 -9999 -9999 -9999 -9999 -9999 -9999 -9999 -9999 -9999 -9999 -9999 -9999 -9999 -9999 -9999 -9999 -9999 -9999 -9999 -9999 -9999 -9999 -9999 -9999 -9999 -9999 -9999 -9999 -9999 -9999 -9999 -9999 -9999 -9999 -9999 -9999 -9999 -9999 -9999 -9999 -9999 -9999 -9999 -9999 -9999 -9999 -9999 -9999 -9999 -9999 -9999 -9999 -9999 -9999 -9999 -9999 -9999 -9999 -9999 -9999 -9999 -9999 -9999 -9999 -9999 -9999 -9999 -9999 -9999 -9999 -9999 -9999 -9999 -9999 -9999 -9999 -9999 -9999 -9999 -9999 -9999 -9999 -9999 -9999 -9999 -9999 -9999 -9999 -9999 -9999 -9999 -9999 -9999 -9999 -9999 -9999 -9999 -9999 -9999 -9999 -9999 -9999 -9999 -9999 -9999 -9999 -9999 -9999 -9999 -9999 -9999 -9999 4358 4262 -9999 -9999 4052 -9999 -9999 -9999 -9999 -9999 -9999 -9999 -9999 -9999 4389 4312 4085 3984 3934 3948 4224 4293 4068 3909 -9999 -9999 -9999 -9999 -9999 -9999 -9999 -9999 -9999 -9999 -9999 -9999 -9999 -9999 -9999 -9999 -9999 -9999 -9999 -9999 -9999 -9999 -9999 -9999 -9999 -9999 -9999 -9999 -9999 -9999 -9999 -9999 -9999 -9999 -9999 -9999 -9999 -9999 -9999 -9999 -9999 -9999 -9999 -9999 -9999 -9999 -9999 -9999 -9999 -9999 -9999 -9999 -9999 -9999 -9999 -9999 -9999 -9999 -9999 -9999 -9999 -9999 -9999 -9999 -9999 -9999 -9999 -9999 -9999 -9999 -9999 -9999 -9999 -9999 -9999 -9999 -9999 -9999 -9999 -9999 -9999 -9999 -9999 -9999 -9999 -9999 -9999 -9999 -9999 -9999 -9999 -9999 -9999 -9999 -9999 -9999 -9999 -9999 -9999 -9999 -9999 -9999 -9999 -9999 -9999 4798 4527 4436 -9999 -9999 -9999 -9999 -9999 -9999 -9999 -9999 -9999 4651 4694 4667 4655 -9999 -9999 -9999 4357 4318 4296 4287 4315 4342 4435 4540 4582 4310 4146 4146 4275 4366 4659 4803 4462 4460 4654 -9999 -9999 -9999 -9999 -9999 -9999 -9999 -9999 -9999 -9999 -9999 -9999 -9999 -9999 -9999 -9999 -9999 -9999 -9999
-9999 -9999 -9999 -9999 -9999 -9999 -9999 -9999 -9999 -9999 -9999 -9999 2074 1845 1953 2065 1993 2234 2059 2104 2036 2170 2445 2710 2718 2789 2576 2433 2489 2654 2806 2527 2642 2728 2890 2887 2930 2991 3080 3048 -9999 -9999 -9999 -9999 -9999 -9999 -9999 -9999 -9999 -9999 -9999 -9999 -9999 -9999 -9999 -9999 -9999 -9999 -9999 -9999 -9999 -9999 -9999 -9999 -9999 -9999 -9999 -9999 -9999 -9999 -9999 -9999 -9999 -9999 -9999 -9999 -9999 -9999 -9999 -9999 -9999 -9999 -9999 -9999 -9999 -9999 -9999 -9999 -9999 -9999 -9999 -9999 -9999 -9999 -9999 -9999 -9999 -9999 -9999 -9999 -9999 -9999 -9999 -9999 -9999 -9999 -9999 -9999 -9999 -9999 -9999 -9999 -9999 -9999 -9999 -9999 -9999 -9999 -9999 -9999 -9999 -9999 -9999 -9999 -9999 -9999 -9999 -9999 -9999 -9999 -9999 -9999 -9999 -9999 -9999 -9999 -9999 -9999 -9999 -9999 -9999 -9999 -9999 -9999 -9999 -9999 -9999 -9999 -9999 -9999 -9999 -9999 -9999 -9999 -9999 -9999 -9999 -9999 -9999 -9999 -9999 -9999 -9999 -9999 -9999 -9999 -9999 -9999 -9999 -9999 -9999 -9999 -9999 -9999 -9999 -9999 -9999 -9999 -9999 -9999 -9999 -9999 -9999 -9999 -9999 -9999 -9999 -9999 -9999 -9999 -9999 -9999 -9999 -9999 -9999 -9999 -9999 -9999 -9999 -9999 -9999 -9999 -9999 -9999 -9999 -9999 -9999 -9999 -9999 -9999 -9999 -9999 -9999 -9999 -9999 -9999 -9999 -9999 -9999 -9999 -9999 -9999 -9999 -9999 -9999 -9999 -9999 -9999 -9999 -9999 -9999 -9999 -9999 -9999 -9999 -9999 -9999 -9999 -9999 -9999 -9999 -9999 -9999 -9999 -9999 -9999 -9999 -9999 -9999 -9999 -9999 -9999 -9999 -9999 -9999 -9999 -9999 -9999 -9999 -9999 -9999 -9999 -9999 -9999 -9999 -9999 -9999 -9999 -9999 -9999 -9999 -9999 -9999 -9999 -9999 -9999 -9999 -9999 -9999 -9999 -9999 -9999 -9999 -9999 -9999 -9999 -9999 -9999 -9999 -9999 -9999 -9999 -9999 -9999 -9999 -9999 -9999 -9999 -9999 -9999 -9999 -9999 -9999 -9999 -9999 -9999 -9999 4394 4238 4218 4077 3948 4034 4076 -9999 -9999 -9999 -9999 -9999 -9999 4370 4330 4377 4183 3940 3898 3762 4020 4130 4114 3937 3866 4261 4383 -9999 -9999 -9999 -9999 -9999 -9999 -9999 -9999 -9999 -9999 -9999 -9999 -9999 -9999 -9999 -9999 -9999 -9999 -9999 -9999 -9999 -9999 -9999 -9999 -9999 -9999 -9999 -9999 -9999 -9999 -9999 -9999 -9999 -9999 -9999 -9999 -9999 -9999 -9999 -9999 -9999 -9999 -9999 -9999 -9999 -9999 -9999 -9999 -9999 -9999 -9999 -9999 -9999 -9999 -9999 -9999 -9999 -9999 4690 -9999 4601 4505 -9999 -9999 -9999 -9999 -9999 -9999 -9999 -9999 -9999 -9999 -9999 -9999 -9999 -9999 -9999 -9999 -9999 -9999 -9999 -9999 -9999 -9999 -9999 -9999 -9999 -9999 -9999 -9999 -9999 -9999 -9999 -9999 -9999 -9999 -9999 -9999 -9999 -9999 -9999 -9999 4618 4447 4403 4688 -9999 -9999 -9999 -9999 -9999 -9999 -9999 4711 4593 4622 4638 4614 4869 5012 4529 4397 4325 4278 4215 4248 4298 4496 4565 4562 4280 4127 4121 4291 4471 4585 4678 4393 4388 4580 4714 -9999 -9999 -9999 4688 4710 4772 4771 -9999 -9999 -9999 -9999 -9999 -9999 -9999 -9999 -9999 -9999 -9999
-9999 -9999 -9999 -9999 -9999 -9999 -9999 -9999 -9999 -9999 -9999 2081 1941 1825 1881 1976 1889 2042 1888 1908 1911 2154 2345 2437 2385 2560 2422 2215 2277 2528 2529 2341 2494 2659 2851 2595 2768 2876 2929 3013 2977 -9999 -9999 -9999 -9999 -9999 -9999 -9999 -9999 -9999 -9999 -9999 -9999 -9999 -9999 -9999 -9999 -9999 -9999 -9999 -9999 -9999 -9999 -9999 -9999 -9999 -9999 -9999 -9999 -9999 -9999 -9999 -9999 -9999 -9999 -9999 -9999 -9999 -9999 -9999 -9999 -9999 -9999 -9999 -9999 -9999 -9999 -9999 -9999 -9999 -9999 -9999 -9999 -9999 -9999 -9999 -9999 -9999 -9999 -9999 -9999 -9999 -9999 -9999 -9999 -9999 -9999 -9999 -9999 -9999 -9999 -9999 -9999 -9999 -9999 -9999 -9999 -9999 -9999 -9999 -9999 -9999 -9999 -9999 -9999 -9999 -9999 -9999 -9999 -9999 -9999 -9999 -9999 -9999 -9999 -9999 -9999 -9999 -9999 -9999 -9999 -9999 -9999 -9999 -9999 -9999 -9999 -9999 -9999 -9999 -9999 -9999 -9999 -9999 -9999 -9999 -9999 -9999 -9999 -9999 -9999 -9999 -9999 -9999 -9999 -9999 -9999 -9999 -9999 -9999 -9999 -9999 -9999 -9999 -9999 -9999 -9999 -9999 -9999 -9999 -9999 -9999 -9999 -9999 -9999 -9999 -9999 -9999 -9999 -9999 -9999 -9999 -9999 -9999 -9999 -9999 -9999 -9999 -9999 -9999 -9999 -9999 -9999 -9999 -9999 -9999 -9999 -9999 -9999 -9999 -9999 -9999 -9999 -9999 -9999 -9999 -9999 -9999 -9999 -9999 -9999 -9999 -9999 -9999 -9999 -9999 -9999 -9999 -9999 -9999 -9999 -9999 -9999 -9999 -9999 -9999 -9999 -9999 -9999 -9999 -9999 -9999 -9999 -9999 -9999 -9999 -9999 -9999 -9999 -9999 -9999 -9999 -9999 -9999 -9999 -9999 -9999 -9999 -9999 -9999 -9999 -9999 -9999 -9999 -9999 -9999 -9999 -9999 -9999 -9999 -9999 -9999 -9999 -9999 -9999 -9999 -9999 -9999 -9999 -9999 -9999 -9999 -9999 -9999 -9999 -9999 -9999 -9999 -9999 -9999 -9999 -9999 -9999 -9999 -9999 -9999 -9999 -9999 -9999 -9999 -9999 -9999 -9999 -9999 -9999 4500 4272 4288 4102 4016 3804 3667 3630 3723 4109 4151 4231 -9999 4357 4481 4268 4216 4160 4147 3998 3927 3775 3545 3471 3655 3740 3680 4077 3998 3920 3819 3963 4233 4341 -9999 -9999 -9999 -9999 -9999 -9999 -9999 -9999 -9999 -9999 -9999 -9999 -9999 -9999 -9999 -9999 -9999 -9999 -9999 -9999 -9999 -9999 -9999 -9999 -9999 -9999 -9999 -9999 -9999 -9999 -9999 -9999 -9999 -9999 -9999 -9999 -9999 -9999 -9999 -9999 -9999 -9999 -9999 -9999 -9999 -9999 -9999 -9999 -9999 -9999 -9999 4475 4427 4367 4590 4537 4341 4353 -9999 -9999 -9999 -9999 -9999 -9999 -9999 -9999 -9999 -9999 -9999 -9999 -9999 -9999 -9999 -9999 -9999 -9999 -9999 -9999 -9999 -9999 -9999 -9999 -9999 -9999 -9999 -9999 -9999 -9999 -9999 -9999 -9999 -9999 -9999 -9999 -9999 -9999 -9999 4388 4327 4321 4493 4557 4392 4393 -9999 -9999 -9999 -9999 4678 4498 4413 4482 4525 4978 5018 4541 4508 4556 4170 4139 4163 4294 4467 4573 4672 4352 4080 4068 4233 4345 4582 4478 4332 4330 4383 4514 4642 -9999 4666 4593 4549 4618 4558 4400 4404 4438 4521 -9999 -9999 -9999 -9999 -9999 -9999 -9999
-9999 -9999 -9999 -9999 -9999 -9999 -9999 -9999 -9999 -9999 -9999 2120 1963 1770 1840 1964 1780 1814 1733 1891 2031 2071 2263 2207 2194 2330 2131 2125 2253 2456 2193 2262 2580 2709 2548 2409 2705 2697 2800 2859 2739 2755 2807 2611 2626 2688 2675 2588 2819 2917 -9999 -9999 -9999 -9999 -9999 -9999 -9999 -9999 -9999 -9999 -9999 -9999 -9999 -9999 -9999 -9999 -9999 -9999 -9999 -9999 -9999 -9999 -9999 -9999 -9999 -9999 -9999 -9999 -9999 -9999 -9999 -9999 -9999 -9999 -9999 -9999 -9999 -9999 -9999 -9999 -9999 -9999 -9999 -9999 -9999 -9999 -9999 -9999 -9999 -9999 -9999 -9999 -9999 -9999 -9999 -9999 -9999 -9999 -9999 -9999 -9999 -9999 -9999 -9999 -9999 -9999 -9999 -9999 -9999 -9999 -9999 -9999 -9999 -9999 -9999 -9999 -9999 -9999 -9999 -9999 -9999 -9999 -9999 -9999 -9999 -9999 -9999 -9999 -9999 -9999 -9999 -9999 -9999 -9999 -9999 -9999 -9999 -9999 -9999 -9999 -9999 -9999 -9999 -9999 -9999 -9999 -9999 -9999 -9999 -9999 -9999 -9999 -9999 -9999 -9999 -9999 -9999 -9999 -9999 -9999 -9999 -9999 -9999 -9999 -9999 -9999 -9999 -9999 -9999 -9999 -9999 -9999 -9999 -9999 -9999 -9999 -9999 -9999 -9999 -9999 -9999 -9999 -9999 -9999 -9999 -9999 -9999 -9999 -9999 -9999 -9999 -9999 -9999 -9999 -9999 -9999 -9999 -9999 -9999 -9999 -9999 -9999 -9999 -9999 -9999 -9999 -9999 -9999 -9999 -9999 -9999 -9999 -9999 -9999 -9999 -9999 -9999 -9999 -9999 -9999 -9999 -9999 -9999 -9999 -9999 -9999 -9999 -9999 -9999 -9999 -9999 -9999 -9999 -9999 -9999 -9999 -9999 -9999 -9999 -9999 -9999 -9999 -9999 -9999 -9999 -9999 -9999 -9999 -9999 -9999 -9999 -9999 -9999 -9999 -9999 -9999 -9999 -9999 -9999 -9999 -9999 -9999 -9999 -9999 -9999 -9999 -9999 -9999 -9999 -9999 -9999 -9999 -9999 -9999 -9999 -9999 -9999 -9999 -9999 -9999 -9999 -9999 -9999 -9999 -9999 -9999 -9999 -9999 -9999 -9999 -9999 -9999 -9999 -9999 4988 4588 4312 4103 4012 3900 3920 3854 3501 3565 3826 4046 4021 4193 4367 4613 4423 4302 4132 4011 3927 3882 3782 3643 3660 3308 3168 3346 3593 3496 3411 3528 3739 3889 3946 4110 -9999 -9999 -9999 -9999 -9999 -9999 -9999 -9999 -9999 -9999 -9999 -9999 -9999 -9999 -9999 -9999 -9999 -9999 -9999 4429 4343 4306 4464 -9999 -9999 -9999 -9999 -9999 -9999 -9999 -9999 -9999 -9999 -9999 -9999 -9999 -9999 -9999 -9999 -9999 -9999 -9999 -9999 -9999 -9999 -9999 -9999 -9999 4265 4197 4210 4281 4082 4160 4044 4011 4334 4726 -9999 -9999 -9999 -9999 -9999 -9999 -9999 -9999 -9999 -9999 4519 4459 4673 4908 -9999 -9999 -9999 -9999 -9999 -9999 -9999 -9999 -9999 -9999 -9999 -9999 -9999 -9999 -9999 -9999 -9999 -9999 -9999 -9999 -9999 -9999 -9999 4490 4223 4215 4248 4350 4404 4303 4271 4393 4494 4638 4722 4587 4230 4199 4225 4469 4667 4727 4386 4256 4105 3999 4081 4150 4385 4503 4815 4685 4412 4021 4010 4143 4229 4468 4470 4278 4256 4320 4600 4830 5056 4732 4462 4420 4459 4426 4377 4306 4272 4343 -9999 -9999 -9999 -9999 -9999 -9999 -9999
-9999 -9999 -9999 -9999 -9999 -9999 -9999 -9999 -9999 -9999 -9999 -9999 1870 1677 1838 1955 1827 1652 1822 1985 1984 1933 2099 2001 2107 2168 1927 2120 2251 2184 1991 2253 2530 2522 2266 2356 2502 2476 2612 2629 2627 2550 2691 2406 2518 2487 2443 2564 2570 2687 2804 2984 2993 -9999 -9999 -9999 -9999 -9999 -9999 2980 -9999 -9999 -9999 3143 3040 2997 -9999 -9999 -9999 -9999 -9999 -9999 -9999 -9999 -9999 -9999 -9999 -9999 -9999 -9999 -9999 -9999 -9999 -9999 -9999 -9999 -9999 -9999 -9999 -9999 -9999 -9999 -9999 -9999 -9999 -9999 -9999 -9999 -9999 -9999 -9999 -9999 -9999 -9999 -9999 -9999 -9999 -9999 -9999 -9999 -9999 -9999 -9999 -9999 -9999 -9999 -9999 -9999 -9999 -9999 -9999 -9999 -9999 -9999 -9999 -9999 -9999 -9999 -9999 -9999 -9999 -9999 -9999 -9999 -9999 -9999 -9999 -9999 -9999 -9999 -9999 -9999 -9999 -9999 -9999 -9999 -9999 -9999 -9999 -9999 -9999 -9999 -9999 -9999 -9999 -9999 -9999 -9999 -9999 -9999 -9999 -9999 -9999 -9999 -9999 -9999 -9999 -9999 -9999 -9999 -9999 -9999 -9999 -9999 -9999 -9999 -9999 -9999 -9999 -9999 -9999 -9999 -9999 -9999 -9999 -9999 -9999 -9999 -9999 -9999 -9999 -9999 -9999 -9999 -9999 -9999 -9999 -9999 -9999 -9999 -9999 -9999 -9999 -9999 -9999 -9999 -9999 -9999 -9999 -9999 -9999 -9999 -9999 -9999 -9999 -9999 -9999 -9999 -9999 -9999 -9999 -9999 -9999 -9999 -9999 -9999 -9999 -9999 -9999 -9999 -9999 -9999 -9999 -9999 -9999 -9999 -9999 -9999 -9999 -9999 -9999 -9999 -9999 -9999 -9999 -9999 -9999 -9999 -9999 -9999 -9999 -9999 -9999 -9999 -9999 -9999 -9999 -9999 -9999 -9999 -9999 -9999 -9999 -9999 -9999 -9999 -9999 -9999 -9999 -9999 -9999 -9999 -9999 -9999 -9999 -9999 -9999 -9999 -9999 -9999 -9999 -9999 -9999 -9999 -9999 -9999 -9999 -9999 -9999 -9999 -9999 -9999 -9999 -9999 -9999 -9999 -9999 -9999 -9999 -9999 -9999 -9999 -9999 -9999 4558 4539 4449 4139 4105 4102 3934 3609 3503 3692 3832 3840 4047 4104 4213 4300 4349 4309 4146 4073 4013 3987 3991 3871 3792 3515 3374 2979 3149 3268 3413 3737 4003 4050 4057 4202 4410 4469 -9999 -9999 -9999 -9999 -9999 -9999 -9999 -9999 -9999 -9999 -9999 -9999 -9999 -9999 -9999 4471 4396 4291 4222 4147 4150 -9999 -9999 -9999 -9999 -9999 -9999 -9999 4367 -9999 -9999 -9999 -9999 -9999 -9999 -9999 -9999 -9999 -9999 4547 4343 4407 -9999 -9999 -9999 -9999 4219 3880 3893 4021 3837 3825 3879 4067 4486 4443 4323 -9999 -9999 -9999 -9999 -9999 -9999 -9999 -9999 -9999 4247 4503 4853 5233 -9999 -9999 -9999 -9999 -9999 -9999 -9999 -9999 -9999 -9999 -9999 -9999 -9999 -9999 -9999 -9999 -9999 -9999 -9999 -9999 -9999 4402 4229 4171 4152 4163 4298 4410 4627 4181 4110 4256 4381 4587 4637 4475 4112 4135 4195 4345 4488 4498 4313 4188 3860 3846 3941 4089 4254 4473 4513 4546 4434 3986 3952 4045 4170 4459 4455 4160 4161 4281 4500 4530 4572 4520 4377 4349 4412 4796 4696 4203 4172 4161 4170 4446 -9999 -9999 -9999 -9999 -9999
-9999 -9999 -9999 -9999 -9999 -9999 -9999 -9999 -9999 -9999 -9999 -9999 1879 1637 1828 1943 1832 1628 1807 2009 1982 1885 1940 1942 2068 2122 1878 2145 2260 2084 1943 2174 2449 2379 2184 2404 2332 2450 2430 2535 2496 2529 2637 2344 2445 2399 2429 2443 2623 2695 2784 2887 2855 3001 -9999 -9999 -9999 -9999 2943 2856 2907 2984 2988 3019 2921 2865 2996 -9999 -9999 -9999 -9999 -9999 -9999 -9999 -9999 -9999 -9999 3158 -9999 -9999 -9999 -9999 -9999 -9999 -9999 -9999 -9999 -9999 -9999 -9999 -9999 -9999 -9999 -9999 -9999 -9999 -9999 -9999 -9999 -9999 -9999 -9999 -9999 -9999 -9999 -9999 -9999 -9999 -9999 -9999 -9999 -9999 -9999 -9999 -9999 -9999 -9999 -9999 -9999 -9999 -9999 -9999 -9999 -9999 -9999 -9999 -9999 -9999 -9999 -9999 -9999 -9999 -9999 -9999 -9999 -9999 -9999 -9999 -9999 -9999 -9999 -9999 -9999 -9999 -9999 -9999 -9999 -9999 -9999 -9999 -9999 -9999 -9999 -9999 -9999 -9999 -9999 -9999 -9999 -9999 -9999 -9999 -9999 -9999 -9999 -9999 -9999 -9999 -9999 -9999 -9999 -9999 -9999 -9999 -9999 -9999 -9999 -9999 -9999 -9999 -9999 -9999 -9999 -9999 -9999 -9999 -9999 -9999 -9999 -9999 -9999 -9999 -9999 -9999 -9999 -9999 -9999 -9999 -9999 -9999 -9999 -9999 -9999 -9999 -9999 -9999 -9999 -9999 -9999 -9999 -9999 -9999 -9999 -9999 -9999 -9999 -9999 -9999 -9999 -9999 -9999 -9999 -9999 -9999 -9999 -9999 -9999 -9999 -9999 -9999 -9999 -9999 -9999 -9999 -9999 -9999 -9999 -9999 -9999 -9999 -9999 -9999 -9999 -9999 -9999 -9999 -9999 -9999 -9999 -9999 -9999 -9999 -9999 -9999 -9999 -9999 -9999 -9999 -9999 -9999 -9999 -9999 -9999 -9999 -9999 -9999 -9999 -9999 -9999 -9999 -9999 -9999 -9999 4097 -9999 -9999 -9999 -9999 -9999 -9999 -9999 -9999 -9999 -9999 -9999 -9999 -9999 -9999 -9999 -9999 -9999 -9999 -9999 -9999 -9999 -9999 -9999 -9999 -9999 -9999 -9999 -9999 -9999 4498 4335 4270 4258 4103 4016 3931 3776 3548 3496 3694 3712 3820 3950 4031 4074 4212 4475 4467 4161 4119 4064 4061 3835 3676 3563 3340 3280 2983 3024 3358 3468 3629 3841 3794 3806 4070 4167 4250 4632 -9999 -9999 -9999 -9999 -9999 -9999 -9999 -9999 -9999 -9999 -9999 -9999 -9999 -9999 4587 4357 4225 4108 4003 4049 4252 4401 -9999 4507 4343 4317 4281 4296 -9999 -9999 -9999 -9999 -9999 -9999 -9999 -9999 -9999 -9999 4489 4292 4424 4521 4758 -9999 4672 4114 3762 3738 3905 3742 3754 3886 4169 4252 4216 4382 4516 -9999 -9999 -9999 -9999 -9999 -9999 4330 4153 4132 4289 4663 5062 5007 4738 4760 -9999 -9999 -9999 -9999 -9999 -9999 -9999 -9999 -9999 -9999 -9999 -9999 -9999 -9999 -9999 4485 4440 4357 4261 4188 4141 4124 4132 4376 4696 4607 4146 4077 4188 4437 4527 4597 4413 4089 4074 4184 4445 4377 4484 4245 4128 3835 3806 3901 4040 4238 4340 4467 4531 4447 3963 3928 3987 4132 4525 4494 4126 4117 4230 4347 4443 4484 4563 4368 4317 4363 4848 4959 4351 4167 4154 4122 4185 4428 -9999 -9999 -9999 -9999
-9999 -9999 -9999 -9999 -9999 -9999 -9999 -9999 -9999 -9999 -9999 1853 1754 1586 1788 1814 1718 1611 1809 2007 1954 1744 1777 1910 2028 1939 1885 2115 1992 1892 1964 2275 2344 2207 2061 2157 2296 2407 2323 2238 2488 2595 2430 2226 2195 2195 2405 2575 2732 2883 2863 2636 2659 2895 2804 2708 2689 2731 2818 2638 2686 2863 2696 2782 2805 2671 2870 2990 -9999 -9999 -9999 -9999 -9999 -9999 3053 3143 3140 2935 3036 3266 3370 3192 3016 3142 3219 -9999 -9999 -9999 -9999 -9999 -9999 -9999 -9999 -9999 -9999 -9999 -9999 -9999 -9999 -9999 -9999 -9999 -9999 -9999 -9999 -9999 -9999 -9999 -9999 -9999 -9999 -9999 -9999 -9999 -9999 -9999 -9999 -9999 -9999 -9999 -9999 -9999 -9999 -9999 -9999 -9999 -9999 -9999 -9999 -9999 -9999 -9999 -9999 -9999 -9999 -9999 -9999 -9999 -9999 -9999 -9999 -9999 -9999 -9999 -9999 -9999 -9999 -9999 -9999 -9999 -9999 -9999 -9999 -9999 -9999 -9999 -9999 -9999 -9999 -9999 -9999 -9999 -9999 -9999 -9999 -9999 -9999 -9999 -9999 -9999 -9999 -9999 -9999 -9999 -9999 -9999 -9999 -9999 -9999 -9999 -9999 -9999 -9999 -9999 -9999 -9999 -9999 -9999 -9999 -9999 -9999 -9999 -9999 -9999 -9999 -9999 -9999 -9999 -9999 -9999 -9999 -9999 -9999 -9999 -9999 -9999 -9999 -9999 -9999 -9999 -9999 -9999 -9999 -9999 -9999 -9999 -9999 -9999 -9999 -9999 -9999 -9999 -9999 -9999 -9999 -9999 -9999 -9999 -9999 -9999 -9999 -9999 -9999 -9999 -9999 -9999 -9999 -9999 -9999 -9999 -9999 -9999 -9999 -9999 -9999 -9999 -9999 -9999 -9999 -9999 -9999 -9999 -9999 -9999 -9999 -9999 -9999 -9999 -9999 -9999 -9999 -9999 -9999 -9999 -9999 -9999 -9999 -9999 -9999 -9999 -9999 -9999 3979 4090 -9999 -9999 -9999 -9999 -9999 -9999 -9999 -9999 -9999 -9999 -9999 -9999 -9999 -9999 -9999 -9999 -9999 -9999 -9999 -9999 -9999 -9999 -9999 -9999 4235 4111 4140 -9999 -9999 4244 4332 4357 4118 3953 3841 3700 3684 3385 3351 3460 3764 3889 3925 4005 4156 4193 4353 4471 4333 4222 4088 3994 3856 3809 3771 3439 3286 2975 2883 2936 3035 3353 3331 3412 3527 3643 3920 4177 4456 4550 4300 4305 -9999 -9999 -9999 -9999 -9999 -9999 -9999 -9999 -9999 -9999 -9999 4553 4484 4251 4074 3954 3894 3974 4083 4427 4489 4448 4361 4152 4217 4337 4480 -9999 -9999 -9999 -9999 -9999 -9999 -9999 4435 4247 4177 4530 4556 4634 4791 4410 4077 3739 3568 3462 3383 3554 3663 3843 4000 4228 4562 4613 4410 4443 4757 -9999 -9999 4444 3976 3928 4061 4493 4546 4655 4622 4601 4633 -9999 -9999 -9999 -9999 -9999 -9999 -9999 -9999 -9999 -9999 -9999 -9999 -9999 -9999 -9999 -9999 4349 4292 4270 4228 4144 4071 4067 4192 4613 4585 4142 4008 3979 4253 4291 4541 4417 4059 4006 4008 4141 4270 4513 4208 4079 3808 3756 3789 3896 4040 4251 4345 4425 4458 3995 3878 3882 4006 4411 4507 4081 4053 4079 4396 4798 5020 4935 4356 4231 4284 4608 4817 4797 4432 4281 4083 4050 4077 -9999 -9999 -9999 -9999
-9999 -9999 -9999 -9999 -9999 -9999 -9999 -9999 -9999 -9999 1913 1819 1649 1538 1631 1638 1541 1697 1889 2002 1878 1711 1777 1986 1996 1770 1823 2056 1952 1773 2103 2230 2246 2110 1990 2018 2256 2167 2047 2162 2297 2284 2241 2012 2129 2251 2522 2691 2684 2631 2620 2513 2687 2740 2613 2505 2411 2598 2640 2497 2594 2843 2574 2630 2588 2598 2743 2813 2866 3119 3078 3066 3070 2865 2819 3048 2944 2877 3080 3383 3323 3041 2928 3160 3197 3454 3419 3188 3243 3356 -9999 -9999 -9999 -9999 -9999 -9999 -9999 -9999 -9999 -9999 -9999 -9999 -9999 -9999 -9999 -9999 -9999 -9999 -9999 -9999 -9999 -9999 -9999 -9999 -9999 -9999 -9999 -9999 -9999 -9999 -9999 -9999 -9999 -9999 -9999 -9999 3484 -9999 -9999 -9999 -9999 -9999 -9999 -9999 -9999 -9999 -9999 -9999 -9999 -9999 -9999 -9999 -9999 -9999 -9999 -9999 -9999 -9999 -9999 -9999 -9999 -9999 -9999 -9999 -9999 -9999 -9999 -9999 -9999 -9999 -9999 -9999 -9999 -9999 -9999 -9999 -9999 -9999 -9999 -9999 -9999 -9999 -9999 -9999 -9999 -9999 -9999 -9999 -9999 -9999 -9999 -9999 -9999 -9999 -9999 -9999 -9999 -9999 -9999 -9999 -9999 -9999 -9999 -9999 -9999 -9999 -9999 -9999 -9999 -9999 -9999 -9999 -9999 -9999 -9999 -9999 -9999 -9999 -9999 -9999 -9999 -9999 -9999 -9999 -9999 -9999 -9999 -9999 -9999 -9999 -9999 -9999 -9999 -9999 -9999 -9999 -9999 -9999 -9999 -9999 -9999 -9999 -9999 -9999 -9999 -9999 -9999 -9999 -9999 -9999 -9999 -9999 -9999 -9999 -9999 -9999 -9999 -9999 -9999 -9999 -9999 -9999 -9999 -9999 -9999 -9999 -9999 -9999 -9999 -9999 -9999 -9999 -9999 -9999 -9999 -9999 -9999 -9999 -9999 -9999 -9999 -9999 3859 4042 -9999 -9999 -9999 -9999 -9999 -9999 -9999 -9999 -9999 -9999 -9999 -9999 -9999 -9999 -9999 -9999 -9999 -9999 -9999 -9999 -9999 -9999 -9999 -9999 4022 3892 3811 3733 3823 3985 4082 4059 4060 4018 3920 3529 3344 3226 3277 3341 3611 3890 3991 4001 4080 4210 4440 4619 4357 4465 4165 4095 4079 4130 3782 3428 3283 3196 3362 3033 2885 2960 3220 3407 3453 3787 3955 4081 4567 4546 4153 4123 4393 -9999 -9999 -9999 -9999 -9999 -9999 -9999 -9999 -9999 4311 4206 4178 4282 4227 4220 4132 3849 3926 4121 4215 4294 4215 3952 4129 4342 4491 -9999 -9999 -9999 -9999 -9999 -9999 4465 4027 3849 4027 4186 4323 4578 4426 4060 3735 3474 3299 3207 3352 3401 3425 3590 3789 4054 4090 4170 4299 4374 4531 4592 4356 4176 3836 3816 4109 4539 4373 4460 4502 4531 4677 4723 -9999 -9999 -9999 -9999 -9999 -9999 -9999 -9999 -9999 -9999 -9999 -9999 -9999 -9999 4342 4284 4295 4328 4355 3993 3992 4002 4139 4567 4473 4087 3993 3875 3945 4114 4153 4097 3861 3889 3959 4212 4393 4605 4780 4492 3903 3694 3696 3790 4018 4079 4290 4420 4668 4213 3838 3826 3892 4288 4599 4212 4013 3957 4158 4519 4728 4940 4333 4168 4197 4439 4516 4590 4863 4711 4246 4004 4001 4027 -9999 -9999 -9999
-9999 -9999 -9999 -9999 -9999 -9999 -9999 -9999 -9999 -9999 -9999 -9999 1697 1527 1567 1519 1554 1688 1880 1783 1715 1592 1819 2010 1920 1703 1802 1791 1738 1702 1982 2197 2039 1960 1954 1965 2038 1902 2114 2285 2100 1965 1858 1926 2220 2381 2484 2373 2433 2328 2321 2485 2678 2740 2578 2406 2247 2364 2452 2333 2601 2721 2533 2482 2421 2533 2718 2821 2872 3160 2889 2811 2978 2796 2753 2905 2760 2810 3085 3292 3154 3052 2769 3078 3207 3147 3346 3102 2987 3018 3234 3087 3187 -9999 -9999 -9999 -9999 -9999 -9999 -9999 -9999 3282 -9999 -9999 -9999 -9999 -9999 -9999 -9999 -9999 -9999 -9999 -9999 -9999 -9999 -9999 -9999 -9999 -9999 -9999 -9999 -9999 -9999 -9999 -9999 3624 3418 3350 3284 -9999 -9999 -9999 -9999 -9999 -9999 -9999 -9999 -9999 -9999 -9999 -9999 -9999 -9999 -9999 -9999 -9999 -9999 -9999 -9999 -9999 -9999 -9999 -9999 -9999 -9999 -9999 -9999 -9999 -9999 -9999 -9999 -9999 -9999 -9999 -9999 -9999 -9999 -9999 -9999 -9999 -9999 -9999 -9999 -9999 -9999 -9999 -9999 -9999 -9999 -9999 -9999 -9999 -9999 -9999 -9999 -9999 -9999 -9999 -9999 -9999 -9999 -9999 -9999 -9999 -9999 -9999 -9999 -9999 -9999 -9999 -9999 -9999 -9999 -9999 -9999 -9999 -9999 -9999 -9999 -9999 -9999 -9999 -9999 -9999 -9999 -9999 -9999 -9999 -9999 -9999 -9999 -9999 -9999 -9999 -9999 -9999 -9999 -9999 -9999 -9999 -9999 -9999 -9999 -9999 -9999 -9999 -9999 -9999 -9999 -9999 -9999 -9999 -9999 -9999 -9999 -9999 -9999 -9999 -9999 -9999 -9999 -9999 -9999 -9999 -9999 -9999 -9999 -9999 -9999 4026 4131 -9999 -9999 -9999 -9999 -9999 -9999 -9999 -9999 -9999 -9999 4048 3761 3973 3995 4005 -9999 -9999 -9999 -9999 -9999 -9999 -9999 -9999 -9999 -9999 -9999 -9999 -9999 -9999 -9999 -9999 -9999 -9999 4444 -9999 -9999 4398 4259 4143 3970 3714 3564 3597 3633 3690 3773 3568 3507 3277 3190 3249 3627 3734 3665 3767 3943 4059 4351 4367 4367 4257 4213 4359 4515 4456 4272 3911 3599 3439 3421 3404 3882 3382 3140 2841 3132 3561 3699 3890 4087 4599 4261 4112 3943 3878 3988 4016 4133 4232 -9999 -9999 -9999 -9999 -9999 -9999 4366 4191 3901 3714 3698 3693 3782 3786 3839 4213 4508 4350 4140 3795 4029 4184 4285 -9999 -9999 -9999 -9999 -9999 4094 4160 3782 3705 3924 4420 4643 4191 3969 3577 3287 3120 3129 3493 3887 3733 3625 3543 3606 3724 3972 4142 4420 4774 4489 4275 3963 3851 3712 3720 4090 4116 4188 4354 4336 4356 4434 4568 -9999 -9999 -9999 -9999 -9999 -9999 -9999 -9999 -9999 -9999 -9999 -9999 -9999 4375 4280 4219 4159 4147 4139 3914 3918 3934 4111 4230 4576 4496 4460 3973 3731 3665 3634 3559 3516 3601 3790 3989 4194 4383 4639 4520 3902 3662 3640 3648 3861 3982 4202 4282 4377 4298 3815 3765 3784 4203 4649 4395 4185 3890 3913 4277 4551 4852 4370 4103 4079 4170 4207 4301 4614 4687 4377 3988 3947 3963 4241 -9999 -9999
-9999 -9999 -9999 -9999 -9999 -9999 -9999 -9999 -9999 -9999 -9999 -9999 1607 1538 1427 1431 1573 1701 1713 1642 1569 1630 1835 1937 1861 1639 1782 1800 1684 1635 1914 1941 1751 1748 1936 1903 1938 1802 2043 2046 1816 1717 1974 2259 2287 2237 2173 2084 2183 2415 2549 2718 2824 2831 2771 2573 2389 2161 2139 2230 2561 2439 2357 2414 2293 2475 2695 2838 3077 3146 2838 2703 2672 2659 2539 2535 2508 2839 3051 3044 2882 2880 2588 2814 2745 2885 3184 3045 2760 2806 3011 2791 2856 2958 3218 -9999 -9999 -9999 -9999 3045 2927 2961 2999 3146 2975 3154 3301 3480 3383 3660 3813 -9999 -9999 -9999 3659 -9999 -9999 3714 3431 3377 3510 -9999 -9999 -9999 -9999 3656 3525 3425 3239 3138 3378 3537 -9999 -9999 -9999 -9999 -9999 -9999 -9999 -9999 -9999 -9999 -9999 -9999 -9999 -9999 -9999 -9999 -9999 -9999 -9999 -9999 -9999 -9999 -9999 -9999 -9999 -9999 -9999 -9999 -9999 -9999 -9999 -9999 -9999 -9999 -9999 -9999 -9999 -9999 -9999 -9999 -9999 -9999 -9999 -9999 -9999 -9999 -9999 -9999 -9999 -9999 -9999 -9999 -9999 -9999 -9999 -9999 -9999 -9999 -9999 -9999 -9999 -9999 -9999 -9999 -9999 -9999 -9999 -9999 -9999 -9999 -9999 -9999 -9999 -9999 -9999 -9999 -9999 -9999 -9999 -9999 -9999 -9999 -9999 -9999 -9999 -9999 -9999 -9999 -9999 -9999 -9999 -9999 -9999 -9999 -9999 -9999 -9999 -9999 -9999 -9999 -9999 -9999 -9999 -9999 -9999 -9999 -9999 -9999 -9999 -9999 -9999 -9999 -9999 -9999 -9999 -9999 -9999 -9999 -9999 -9999 -9999 -9999 -9999 -9999 4040 4060 3818 3766 4034 4115 4082 -9999 -9999 -9999 -9999 -9999 -9999 -9999 3994 3891 3721 3635 3764 3899 4147 4121 -9999 -9999 -9999 -9999 -9999 -9999 4140 -9999 -9999 -9999 -9999 4170 3954 -9999 -9999 3985 4133 4238 4389 4072 3959 3788 3819 3959 3734 3461 3344 3322 3463 3226 3160 3053 3234 3631 3774 3876 4058 3964 4095 4095 4352 4592 4322 4181 4080 4311 4519 4323 4001 3795 3561 3672 3689 3633 4013 3725 3434 2977 2833 3199 3420 3757 3907 4255 4093 3906 3537 3665 3854 3922 3985 4121 -9999 -9999 -9999 -9999 -9999 3902 3889 3779 3578 3385 3287 3404 3558 3988 4068 4252 4314 4106 3922 3631 3996 4280 4495 4682 4651 4265 4041 3775 3582 3589 3665 3712 3847 4178 4354 4057 3891 3716 3281 3098 3188 3762 4113 4232 4073 3719 3631 3660 3799 3898 4295 4439 4409 4232 3812 3640 3666 3740 4004 4089 4268 4189 4210 4267 4384 4237 -9999 -9999 -9999 -9999 -9999 -9999 -9999 -9999 -9999 -9999 -9999 -9999 4476 4441 4232 4178 4134 4105 4011 3859 3832 3853 4129 4544 4587 4284 4214 4099 3890 3779 3755 3787 3454 3461 3652 3952 4012 4234 4607 4608 4148 3697 3588 3585 3670 3928 4062 4137 4375 4071 3799 3718 3707 3962 4410 4353 4087 3823 3815 4187 4401 4816 4560 4126 3979 3890 3924 4089 4327 4506 4401 3954 3899 3893 -9999 -9999 -9999
-9999 -9999 -9999 -9999 -9999 -9999 -9999 -9999 -9999 -9999 -9999 -9999 1666 1506 1411 1430 1547 1657 1655 1516 1475 1699 1874 1943 1819 1592 1758 1780 1662 1613 1841 1829 1700 1872 1825 1917 1784 1779 2068 2004 1717 1728 2081 2207 2129 2045 1973 2099 2316 2529 2646 2699 2739 2818 2688 2567 2474 2261 2108 2165 2515 2397 2318 2272 2345 2496 2713 2828 3018 3095 2776 2640 2466 2489 2412 2397 2484 2765 2910 2997 2796 2687 2501 2595 2682 2956 3221 2963 2724 2652 2858 2667 2922 3076 3209 3331 -9999 -9999 3377 3076 2886 2787 2953 3008 2944 3214 3341 3356 3335 3672 3826 3798 3744 3614 3482 3560 3838 3724 3422 3282 3537 3767 -9999 3720 3896 3557 3369 3442 3283 3006 3286 3394 3462 3372 3466 -9999 -9999 -9999 -9999 -9999 -9999 -9999 -9999 -9999 -9999 -9999 -9999 -9999 -9999 -9999 -9999 -9999 -9999 -9999 -9999 -9999 -9999 -9999 -9999 -9999 -9999 -9999 -9999 -9999 -9999 -9999 -9999 -9999 -9999 -9999 -9999 -9999 -9999 -9999 -9999 -9999 -9999 -9999 -9999 -9999 -9999 -9999 -9999 -9999 -9999 -9999 -9999 -9999 -9999 -9999 -9999 -9999 -9999 -9999 -9999 -9999 -9999 -9999 -9999 -9999 -9999 -9999 -9999 -9999 -9999 -9999 -9999 -9999 -9999 -9999 -9999 -9999 -9999 -9999 -9999 -9999 -9999 -9999 -9999 -9999 -9999 -9999 -9999 -9999 -9999 -9999 -9999 -9999 -9999 -9999 -9999 -9999 -9999 -9999 -9999 -9999 -9999 -9999 -9999 -9999 -9999 -9999 -9999 -9999 -9999 -9999 -9999 -9999 -9999 -9999 4038 -9999 -9999 4097 4149 3980 3882 3910 3701 3758 3851 3832 3853 4128 -9999 -9999 -9999 -9999 -9999 -9999 4052 3827 3729 3551 3642 3890 3954 3901 3945 4245 -9999 -9999 4019 4002 4172 4326 -9999 -9999 4442 4215 3931 3804 3788 4031 4166 4273 4280 3926 3761 3640 3597 3773 3895 3626 3490 3144 3339 3053 3037 2957 3280 3431 3596 3657 3974 4192 4256 4156 4234 4541 4198 4091 3934 4259 4403 4183 4081 3841 3611 3850 3719 3675 4059 3781 3516 3085 2827 3046 3310 3515 3819 4001 3902 3763 3386 3697 4027 4028 4013 4284 4252 -9999 -9999 4329 3920 3732 3609 3470 3276 3195 3238 3508 3579 3908 4051 4436 4440 4044 3812 3588 3907 4129 4323 4566 4656 4160 3830 3583 3562 3625 3734 3812 3916 4099 4232 4202 4069 3752 3376 3081 3152 3688 4121 4288 4220 3876 3753 3693 3777 3810 4039 4286 4352 4260 3892 3592 3631 3787 4156 4283 4121 4164 4190 4335 4205 4135 4242 4367 4235 -9999 -9999 -9999 -9999 -9999 -9999 -9999 -9999 -9999 4363 4371 4263 4172 4123 4096 4009 3857 3781 3790 4024 4519 4479 4237 4177 4119 4028 3934 3902 3946 3441 3415 3579 3895 3899 4212 4573 4621 4353 3837 3562 3554 3631 3916 4039 4165 4302 4118 3857 3706 3682 3829 4281 4231 4010 3808 3768 4092 4294 4569 4439 4258 4063 3806 3793 4005 4243 4293 4234 3974 3887 3887 4006 -9999 -9999
-9999 -9999 -9999 -9999 -9999 -9999 -9999 -9999 -9999 -9999 -9999 -9999 -9999 1541 1424 1432 1511 1569 1558 1414 1485 1622 1703 1809 1803 1545 1652 1809 1699 1496 1639 1569 1813 1861 1671 1655 1862 1928 1911 1698 1721 1893 1861 1788 1917 2019 2189 2441 2416 2338 2404 2404 2651 2821 2738 2502 2295 2223 2083 2157 2451 2223 2081 2094 2321 2620 2738 2824 2967 3147 2915 2799 2647 2453 2207 2305 2367 2551 2859 2794 2725 2471 2420 2712 2785 3030 3272 3029 2814 2724 2472 2623 2723 2734 2931 3256 3117 3250 3358 3075 2948 2849 2674 2702 3013 3146 3002 3100 3365 3669 3710 3526 3371 3397 3250 3514 3633 3356 3221 3127 3308 3529 3387 3441 3706 3411 3109 3063 3170 2895 3096 3065 3092 3317 3447 3620 -9999 -9999 -9999 -9999 -9999 -9999 -9999 -9999 -9999 -9999 -9999 -9999 -9999 -9999 -9999 -9999 -9999 -9999 -9999 -9999 -9999 -9999 -9999 -9999 -9999 -9999 -9999 -9999 -9999 -9999 -9999 -9999 -9999 -9999 -9999 -9999 -9999 -9999 -9999 -9999 -9999 -9999 -9999 -9999 -9999 -9999 -9999 -9999 -9999 -9999 -9999 -9999 -9999 -9999 -9999 -9999 -9999 -9999 -9999 -9999 -9999 -9999 -9999 -9999 -9999 -9999 -9999 -9999 -9999 -9999 -9999 -9999 -9999 -9999 -9999 -9999 -9999 -9999 -9999 -9999 -9999 -9999 -9999 -9999 -9999 -9999 -9999 -9999 -9999 -9999 -9999 -9999 -9999 -9999 -9999 -9999 -9999 -9999 -9999 -9999 -9999 -9999 -9999 -9999 -9999 -9999 -9999 -9999 -9999 -9999 -9999 -9999 4131 3890 3670 3612 3687 3695 3691 3658 3707 3575 3483 3467 3458 3567 3806 4083 4301 -9999 -9999 -9999 -9999 4191 4070 3740 3548 3409 3376 3551 3627 3832 3928 4188 4428 4026 3844 3769 3918 4099 4405 4542 4178 3889 3691 3567 3635 3910 4263 4399 4096 3848 3556 3318 3316 3542 3579 3566 3484 3142 2936 2841 2862 3009 3064 3231 3428 3493 3724 3975 4151 4304 4439 4382 4020 3828 3788 4045 4329 4229 3942 3779 3723 3997 3785 3757 4307 3991 3771 3446 2991 2818 2987 3329 3666 3522 3350 3232 3316 3667 4070 4220 4062 4317 4556 4651 4527 4087 3805 3421 3321 3120 3286 3458 3378 3744 3907 3893 4124 4461 4414 4015 3806 3683 3981 4132 4442 4716 4610 4249 3830 3618 3486 3637 3920 4032 4102 4183 4315 4557 4479 4049 3602 3148 3097 3470 3914 4215 4303 4351 4302 4256 4139 4157 4235 4372 4573 4440 3875 3477 3620 3794 4252 4135 4005 4398 4516 4538 4227 3996 4000 4113 4103 4155 4204 -9999 4228 4163 4164 4189 4217 4215 4224 4288 4351 4420 4238 4173 4038 3864 3729 3698 3802 4096 4435 4465 4299 4342 4284 4106 4068 4091 3534 3330 3402 3707 3872 4268 4710 4883 4653 3894 3528 3505 3531 3785 3996 4114 4394 4591 4206 3714 3635 3633 3970 4381 4369 3881 3677 3811 3969 4287 4309 4142 4061 3796 3698 3761 3864 3875 3836 3840 3855 3871 4004 4131 -9999
-9999 -9999 -9999 -9999 -9999 -9999 -9999 -9999 -9999 -9999 -9999 -9999 -9999 1341 1412 1453 1477 1455 1408 1391 1438 1518 1543 1646 1647 1608 1486 1652 1620 1436 1551 1775 1623 1544 1610 1815 1655 1637 1619 1518 1628 1638 1867 2104 2275 2365 2303 2168 2068 2141 2242 2485 2557 2710 2685 2353 2125 2038 1889 2177 2191 1938 2115 2198 2361 2600 2942 2986 2793 2961 2798 2678 2479 2482 2123 2313 2471 2619 2923 2699 2544 2259 2446 2632 2697 2965 3019 2730 2748 2739 2396 2507 2709 2780 3118 3034 2969 3138 3242 2969 2794 2745 2511 2735 2846 2730 2830 3121 3304 3513 3357 3152 3097 3188 3039 3313 3422 3212 2912 2996 3288 3110 3135 3302 3596 3286 3040 2908 2808 2885 3040 3186 3181 3450 3741 3663 3682 3832 -9999 -9999 -9999 -9999 -9999 -9999 -9999 -9999 3728 -9999 3771 -9999 -9999 -9999 3746 3761 -9999 -9999 -9999 -9999 -9999 -9999 -9999 -9999 -9999 -9999 -9999 -9999 -9999 -9999 -9999 -9999 -9999 -9999 -9999 -9999 -9999 -9999 -9999 -9999 -9999 -9999 -9999 -9999 -9999 -9999 -9999 -9999 -9999 -9999 -9999 -9999 -9999 -9999 -9999 -9999 -9999 -9999 -9999 -9999 -9999 -9999 -9999 -9999 -9999 -9999 -9999 -9999 -9999 -9999 -9999 -9999 -9999 -9999 -9999 -9999 -9999 -9999 -9999 -9999 -9999 -9999 -9999 -9999 -9999 -9999 -9999 -9999 -9999 -9999 -9999 -9999 -9999 -9999 -9999 -9999 -9999 -9999 -9999 -9999 -9999 -9999 3988 3795 3985 4299 4359 4034 -9999 -9999 4180 4108 3784 3516 3336 3259 3249 3330 3390 3293 3205 3239 3363 3468 3617 3729 3912 4110 -9999 4283 4097 4064 3836 3743 3723 3688 3509 3298 3607 3876 3991 4298 4264 3884 3721 3610 4026 4203 4458 4471 4074 3773 3540 3427 3660 3976 4348 4404 3999 3681 3474 3315 3161 3038 3356 3070 2976 2796 2730 3033 3256 3473 3428 3317 3342 3431 3685 3926 4222 4407 4282 4018 3789 3659 3737 4003 4205 4409 4291 3918 4080 4015 3826 3824 4309 4000 3781 3434 3119 2828 2706 3088 3356 3016 2994 3069 3524 3832 3997 4119 4155 4261 4417 4609 4542 4122 3817 3402 3189 3024 3326 3857 3721 3721 3918 4231 4311 4425 4265 3862 3776 3810 3971 4189 4628 4705 4199 4001 3612 3476 3361 3509 3917 4101 4221 4476 4591 4684 4581 4155 3653 3158 3053 3294 3732 4096 4256 4620 4669 4725 4882 4826 4634 4809 4599 4372 3669 3362 3703 3902 4070 3877 3695 3924 3967 3933 3859 3883 3917 3984 4145 4357 4354 4239 4146 4091 4074 4055 4025 4044 4106 4129 4243 4393 4526 4424 4383 4211 3868 3674 3599 3742 3933 4027 4059 4217 4422 4481 4545 4361 3649 3260 3305 3570 3887 4305 4739 4742 4634 3933 3480 3433 3490 3828 4272 4483 4846 4887 4286 3831 3659 3576 3632 3905 4082 4095 3678 3584 3670 3898 3825 3700 3618 3624 3650 3668 3703 3729 3768 3794 3835 3885 4040 4198 4408
-9999 -9999 -9999 -9999 -9999 -9999 -9999 -9999 -9999 -9999 -9999 -9999 -9999 1219 1309 1266 1327 1428 1377 1337 1354 1425 1437 1451 1488 1574 1407 1544 1487 1504 1644 1570 1539 1674 1779 1589 1448 1423 1665 1873 1900 1982 1908 2098 2267 2223 2010 1888 2123 2366 2366 2287 2346 2658 2663 2381 2200 1927 1789 2065 1868 1949 2101 2194 2481 2833 2815 2714 2609 2859 2526 2423 2282 2308 2017 2197 2286 2573 2886 2588 2449 2229 2174 2420 2503 2816 2849 2689 2384 2349 2268 2578 2883 2989 3076 2824 2812 2811 3041 3098 2949 2830 2521 2574 2506 2771 2935 3037 3359 3432 3275 2997 2899 2939 2872 3183 3087 2826 2736 2827 2911 2880 3187 3352 3570 3246 2968 2865 2627 2948 3033 3203 3323 3603 3724 3912 3854 3952 -9999 -9999 -9999 -9999 -9999 -9999 3926 3825 3639 3486 3746 3777 3812 4042 3767 3615 3707 3553 3784 3669 3507 3645 3713 3839 3930 -9999 -9999 -9999 -9999 -9999 -9999 -9999 -9999 -9999 -9999 -9999 -9999 -9999 -9999 -9999 -9999 -9999 -9999 -9999 -9999 -9999 -9999 -9999 -9999 -9999 -9999 -9999 -9999 -9999 -9999 -9999 -9999 -9999 -9999 -9999 -9999 -9999 -9999 -9999 -9999 -9999 -9999 -9999 -9999 -9999 -9999 -9999 -9999 -9999 -9999 -9999 -9999 -9999 -9999 -9999 -9999 -9999 -9999 -9999 -9999 -9999 -9999 -9999 -9999 -9999 -9999 -9999 -9999 -9999 -9999 -9999 3970 3869 -9999 3951 3729 3715 3568 3488 3786 4124 4012 3800 3941 4141 4073 3892 3633 3339 3215 3202 3069 3111 3003 3017 3197 3408 3344 3361 3546 3741 3885 3919 4305 4305 4184 4066 3964 4001 3830 3607 3598 3357 3410 3728 3892 4219 4085 3712 3556 3520 3778 4093 4408 4305 3943 3666 3432 3319 3434 3717 4103 4174 3836 3672 3536 3327 3295 3016 2995 2742 2601 2821 3064 3315 3400 3746 3890 3583 3558 3539 3701 3856 4136 4294 4484 4140 3820 3651 3569 3855 4093 4237 4552 4187 4521 4144 3951 3933 4382 4135 3956 3509 3259 3035 2840 2790 2920 2933 3340 3495 3487 3588 3789 3915 4213 4579 4624 4495 4383 4085 3653 3170 2994 3102 3330 3909 4083 3995 3955 4094 4137 4285 4136 3699 3639 3847 4184 4032 4289 4325 4238 4112 3946 3829 3381 3356 3774 4013 4351 4676 4798 4440 4277 3979 3582 3160 3025 3134 3525 3964 4160 4451 4531 4686 4753 4615 4336 4255 4163 3958 3411 3409 3766 3824 3517 3437 3518 3596 3636 3726 3878 4092 4298 4468 4383 4332 4362 4208 4112 4052 4027 3970 3921 3884 3968 4048 4158 4296 4328 4259 4193 4105 4026 3949 3665 3523 3470 3429 3422 3503 3760 3994 4152 4150 3545 3182 3261 3738 4063 4359 4589 4646 4308 3705 3375 3376 3565 4017 4454 4528 4813 4818 4434 4283 4020 3608 3504 3484 3566 3724 3582 3509 3487 3503 3524 3561 3570 3590 3678 3707 3720 3766 3796 3824 3891 3970 4146 4273 -9999
-9999 -9999 -9999 -9999 -9999 -9999 -9999 -9999 -9999 -9999 -9999 -9999 -9999 1206 1254 1240 1284 1352 1381 1316 1328 1389 1381 1407 1471 1570 1409 1469 1389 1541 1554 1447 1642 1711 1719 1503 1411 1536 1827 1915 1817 1880 1865 2108 2125 2027 1923 1866 2216 2185 2183 2095 2352 2637 2688 2545 2341 1989 1795 1888 1808 2127 2195 2310 2513 2813 2774 2632 2525 2841 2592 2475 2220 2086 1977 2203 2329 2602 2893 2698 2594 2234 2122 2412 2525 2768 2739 2502 2327 2205 2338 2525 2721 2861 3073 2906 2666 2693 2999 3225 3003 2834 2501 2382 2408 2668 2699 2918 3297 3367 3191 3011 2754 2802 2859 3163 3015 2735 2623 2750 2693 2929 3219 3355 3457 3248 3068 2898 2586 2753 2903 3087 3221 3539 3870 4059 4020 3887 4008 -9999 -9999 -9999 3772 3801 3796 3668 3479 3426 3659 3574 3762 3981 3727 3589 3522 3567 3781 3712 3434 3454 3527 3693 3763 3940 4197 -9999 -9999 -9999 3979 4068 -9999 -9999 -9999 -9999 -9999 -9999 -9999 -9999 -9999 -9999 -9999 -9999 -9999 -9999 -9999 -9999 -9999 -9999 -9999 -9999 -9999 -9999 -9999 -9999 -9999 -9999 -9999 -9999 -9999 -9999 -9999 -9999 -9999 -9999 -9999 -9999 -9999 -9999 -9999 -9999 -9999 -9999 -9999 -9999 -9999 -9999 -9999 -9999 -9999 -9999 -9999 -9999 -9999 -9999 -9999 -9999 -9999 -9999 -9999 -9999 3923 3836 3870 3791 3778 3709 3936 3922 3578 3493 3393 3386 3727 3958 3851 3627 3799 4069 3932 3668 3659 3366 3238 3058 2921 2980 2979 3101 3251 3475 3521 3462 3655 3951 4079 4118 4287 4133 4222 4180 4133 3936 3686 3527 3414 3279 3395 3713 3885 4239 4000 3642 3479 3491 3720 3967 4367 4349 3975 3684 3426 3265 3395 3704 4110 4215 3783 3492 3266 3084 3023 2922 2776 2567 2685 2993 3257 3519 3554 3882 4137 3699 3706 3630 3872 3937 4126 4299 4315 4038 3744 3655 3518 3818 4067 4227 4668 4524 4665 4264 4041 4075 4295 4003 3889 3579 3505 3177 2930 2654 2722 3024 3407 3633 3670 3682 3871 4007 4289 4704 4533 4401 4300 4012 3574 3105 2941 3082 3347 3810 4015 4063 4193 4196 4238 4274 4038 3623 3567 3803 4154 4196 4399 4449 4462 4347 4095 3889 3384 3293 3681 3916 4375 4806 4970 4468 4238 3813 3624 3228 3062 3030 3367 3829 4031 4295 4442 4623 4596 4407 4124 3994 3885 3715 3268 3425 3622 3475 3343 3426 3542 3646 3708 3895 4196 4476 4431 4283 4128 4270 4374 4395 4198 4052 4029 3981 3911 3866 3891 4012 4116 4271 4387 4336 4350 4187 4106 4069 3839 3651 3470 3400 3350 3285 3344 3719 3893 3960 3427 3155 3267 3781 3988 4281 4549 4555 4196 3594 3342 3354 3675 4142 4577 4402 4671 4745 4363 4219 4252 3844 3494 3443 3428 3492 3431 3468 3480 3503 3521 3557 3568 3616 3830 3785 3849 3979 4037 3950 4054 4057 -9999 -9999 -9999
-9999 -9999 -9999 -9999 -9999 -9999 -9999 -9999 -9999 -9999 -9999 1166 1177 1179 1187 1197 1217 1244 1272 1278 1284 1319 1324 1407 1427 1483 1359 1278 1371 1415 1361 1531 1580 1619 1531 1345 1594 1715 1711 1675 1681 1773 1915 1795 1768 1743 1663 1992 1930 1865 1879 2024 2224 2460 2469 2370 2187 1903 1756 1721 2009 2218 2476 2636 2728 2497 2544 2406 2528 2835 2807 2664 2414 2201 1926 2035 2154 2382 2715 2415 2263 2073 1971 2229 2271 2568 2782 2513 2146 2040 2338 2679 2866 2979 2909 2799 2529 2435 2758 3137 3025 2862 2562 2259 2285 2472 2636 2945 3279 3244 3057 2739 2499 2679 2819 3159 3048 2651 2364 2344 2552 2775 3009 3210 3267 2902 2860 2845 2485 2692 2938 3281 3420 3652 3926 3796 3652 3683 3889 4085 4029 3812 3561 3692 3935 3824 3513 3233 3343 3439 3638 3878 3740 3647 3461 3297 3525 3526 3266 3356 3609 3835 3917 4153 4379 4087 3973 3836 3667 3792 3931 -9999 -9999 -9999 -9999 -9999 -9999 -9999 -9999 -9999 -9999 -9999 -9999 -9999 -9999 -9999 -9999 -9999 -9999 -9999 -9999 -9999 -9999 -9999 -9999 -9999 -9999 -9999 -9999 -9999 -9999 -9999 -9999 -9999 -9999 -9999 -9999 -9999 -9999 -9999 -9999 -9999 -9999 -9999 -9999 -9999 -9999 -9999 -9999 -9999 -9999 -9999 -9999 -9999 -9999 -9999 -9999 -9999 3965 3998 3770 3657 3489 3479 3556 3671 3899 3894 3601 3446 3181 3286 3425 3726 3714 3387 3619 3836 3633 3367 3381 3186 3063 2812 2745 2921 3215 3319 3508 3679 3847 3769 3840 4079 4341 4198 3985 3908 4201 4373 4196 4014 3795 3539 3412 3105 3392 3652 3771 4079 3832 3522 3373 3498 3836 4108 4468 4492 4060 3732 3397 3283 3200 3631 3812 4007 4042 3658 3442 3253 3126 2778 2537 2787 3010 3302 3636 3944 3840 3886 4284 3986 3929 3817 3898 4116 4231 4356 4182 3959 3797 3526 3463 3920 4062 4267 4431 4222 4428 4151 4102 4134 4263 4069 3941 3630 3318 3253 3108 2655 2855 3248 3609 3772 4116 3937 4106 4292 4268 4183 4106 4170 4175 3914 3518 3162 3036 3081 3462 3875 4067 4217 4233 4495 4504 4314 3882 3472 3450 3699 4078 4391 4640 4658 4467 4448 4160 3889 3344 3227 3584 3812 4341 4812 4656 4519 4410 4038 3747 3303 3142 2922 3108 3499 3673 3834 4183 4507 4398 4141 3778 3733 3819 3587 3108 3304 3216 3278 3487 3658 4024 4268 4380 4558 4558 4162 4036 3892 3798 4047 4118 4395 4729 4320 4276 4216 3980 3852 3776 3781 4013 4242 4220 4326 4612 4603 4447 4278 4109 3850 3865 3865 3785 3495 3304 3141 3139 3344 3152 3130 3341 3819 4219 4464 4373 4260 3927 3317 3280 3398 3807 4270 4395 4192 4353 4458 4188 3891 3957 3905 3614 3389 3390 3400 3421 3453 3470 3492 3549 3607 3606 3719 4056 3941 4084 4126 4246 4281 -9999 -9999 -9999 -9999 -9999
-9999 -9999 -9999 -9999 -9999 -9999 -9999 -9999 -9999 -9999 1144 1145 1153 1158 1175 1183 1205 1225 1238 1241 1242 1261 1279 1337 1365 1371 1288 1254 1261 1333 1403 1439 1459 1473 1336 1480 1610 1660 1605 1561 1673 1742 1705 1580 1535 1549 1776 1820 1674 1993 2172 2297 2329 2415 2331 2159 1901 1738 1624 1800 2108 2473 2649 2659 2429 2195 2203 2181 2495 2807 2708 2624 2485 2306 1947 1905 2028 2341 2466 2337 2178 1855 2115 2326 2432 2692 2640 2340 2087 1960 2329 2634 2990 3048 2785 2460 2259 2252 2640 2909 2993 2872 2564 2320 2077 2277 2400 2763 3131 3021 2870 2607 2324 2580 2733 2977 2700 2561 2224 2248 2505 2772 3051 3236 3082 2930 2732 2570 2362 2624 2834 3132 3297 3672 3782 3531 3390 3533 3759 4033 3958 3653 3419 3478 3767 3717 3473 3169 3263 3420 3699 3994 3983 3828 3555 3254 3332 3319 3193 3523 3525 3676 3801 4165 4132 3921 3861 3745 3538 3598 3668 3902 -9999 -9999 -9999 -9999 -9999 -9999 -9999 -9999 -9999 -9999 -9999 -9999 -9999 -9999 -9999 -9999 -9999 3795 -9999 -9999 -9999 -9999 -9999 -9999 -9999 -9999 -9999 -9999 -9999 -9999 -9999 -9999 -9999 -9999 -9999 -9999 -9999 -9999 -9999 -9999 -9999 -9999 -9999 -9999 -9999 -9999 -9999 -9999 -9999 -9999 -9999 -9999 -9999 3773 3730 3703 3957 3857 3567 3504 3458 3442 3745 3836 4058 3958 3618 3472 3197 3013 3286 3487 3351 3192 3415 3724 3585 3246 2988 2845 2796 2661 2909 2961 3141 3203 3396 3632 3870 3999 4170 4311 4245 4089 3883 3646 3904 4064 4084 3758 3522 3373 3290 3037 3372 3717 3870 4063 3676 3380 3244 3334 3597 3884 4097 4287 4058 3734 3567 3382 3049 3348 3754 3880 3874 3526 3301 2981 2845 2568 2703 3054 3196 3554 3742 3850 4005 4019 4339 4208 4093 4185 3974 4129 4436 4487 4110 3838 3616 3339 3371 3736 4177 4341 4038 3988 4077 3838 3683 3661 3892 3813 3673 3389 3064 2800 2687 2681 3061 3144 3433 3626 4016 4054 3978 3989 3824 3689 3885 4065 4235 3912 3555 3257 3124 2902 3225 3531 3640 3884 4079 4444 4499 4261 3768 3370 3387 3672 4002 4293 4561 4554 4239 4159 3970 3754 3305 3235 3612 3842 4310 4350 4268 4057 4190 4222 3746 3390 3368 3022 2961 3214 3415 3770 4010 4209 4210 4045 3620 3711 3536 3379 3021 3156 3398 3552 3722 3736 3990 4525 4759 4501 4103 3810 3704 3530 3668 4033 4062 4370 4336 4094 4089 4378 4519 4247 3874 3703 3716 3950 4232 4245 4306 4583 4523 4391 4316 4175 4203 4013 3938 3913 3719 3595 3441 3083 2989 3099 3392 3950 4389 4267 4252 4162 3808 3224 3268 3470 3885 4083 4155 3961 3954 4180 4035 3677 3648 3516 3342 3355 3356 3382 3447 3514 3546 3766 3795 3689 3682 3727 4042 4061 4152 4281 4576 -9999 -9999 -9999 -9999 -9999 -9999
-9999 -9999 -9999 -9999 -9999 -9999 -9999 -9999 -9999 1120 1122 1125 1139 1151 1161 1169 1185 1198 1207 1212 1230 1228 1284 1261 1261 1265 1218 1221 1268 1340 1351 1343 1437 1401 1249 1410 1480 1469 1418 1572 1610 1619 1471 1409 1710 1812 1757 1678 1616 1894 1997 1954 2223 2150 2109 1847 1628 1596 1714 2051 2361 2559 2245 2177 2212 1937 2118 2274 2623 2795 2662 2512 2268 2094 1959 1731 1871 2084 2242 2090 1912 1774 2115 2478 2659 2549 2451 2158 1885 1951 2310 2698 2840 2691 2765 2468 2159 2051 2419 2714 2897 2755 2383 2188 1944 2156 2324 2671 3046 2841 2664 2356 2198 2542 2705 2578 2273 2142 2159 2329 2659 2895 3143 3285 3046 2767 2450 2343 2416 2797 3076 3343 3488 3739 3519 3297 3164 3341 3621 3853 3716 3477 3282 3344 3635 3599 3305 3088 3248 3393 3502 3733 3887 3745 3495 3213 3013 3029 3259 3478 3773 3901 3976 4115 3954 3802 3737 3618 3439 3447 3553 3775 4052 -9999 -9999 -9999 -9999 -9999 -9999 -9999 -9999 -9999 -9999 -9999 -9999 -9999 -9999 -9999 3948 3624 3572 3797 3695 3667 3896 -9999 -9999 -9999 -9999 -9999 -9999 -9999 -9999 -9999 -9999 -9999 -9999 -9999 -9999 3918 3842 4140 4068 3909 3789 3829 -9999 -9999 -9999 -9999 -9999 -9999 3884 4068 3875 3701 3601 3646 3978 3760 3484 3340 3194 3534 3526 3598 3924 3880 3542 3409 3167 2969 2973 3149 2997 3156 3430 3718 3617 3387 3255 3049 2826 2683 2859 3090 3312 3500 3614 3685 3843 3988 4320 4168 3922 3882 3669 3495 3793 3850 4185 3987 3809 3607 3427 3009 3225 3480 3635 3992 3662 3387 3188 3259 3467 3541 3835 4019 3977 3614 3324 3196 2959 3187 3448 3612 3849 3500 3252 3006 2902 2590 2617 3085 3146 3308 3505 3722 3835 4074 4039 4031 4315 4442 4160 4337 4348 4352 4050 3822 3491 3319 3267 3695 4022 4066 3712 3660 3852 3543 3386 3343 3629 3760 3629 3392 3098 2709 2530 2866 3111 3257 3605 3736 3854 3615 3467 3454 3303 3481 3885 4123 4300 4149 3687 3269 3035 2870 3366 3685 3805 4010 4168 4359 4409 4162 3644 3270 3301 3614 3977 4305 4511 4478 4117 4022 3846 3666 3259 3224 3607 3855 4108 3893 4006 3683 3711 3923 3997 3660 3593 3243 2846 3068 3279 3551 3632 3947 3945 3748 3428 3385 3013 2907 3111 3379 3671 3807 3952 4022 4303 4723 4628 4148 3823 3550 3378 3678 3829 4277 4445 4422 4041 3835 3909 4164 4270 4424 3966 3750 3577 3646 3886 4012 4041 4086 4171 4269 4307 4396 4428 4205 4170 4054 4177 4005 3821 3645 3077 2915 3068 3622 4102 3993 3952 4077 3704 3179 3189 3398 3746 3835 3869 3790 3781 3796 3628 3431 3341 3291 3307 3329 3349 3502 3735 3976 3873 3952 3846 3717 3712 3848 4417 4204 4360 4424 -9999 -9999 -9999 -9999 -9999 -9999 -9999
-9999 1080 1059 1065 1069 1076 -9999 -9999 1108 1109 1113 1114 1129 1140 1153 1161 1173 1185 1192 1197 1205 1222 1245 1235 1241 1256 1188 1228 1290 1334 1298 1371 1384 1320 1245 1321 1397 1355 1466 1522 1533 1589 1377 1459 1670 1736 1585 1532 1633 1883 1857 1922 2150 1923 1918 1773 1487 1744 1916 2189 2457 2392 2261 2094 1988 1914 2192 2309 2624 2555 2692 2618 2419 2316 2027 1732 1703 1951 2137 1997 1823 1817 2130 2421 2595 2401 2376 2050 1864 2038 2361 2692 2635 2553 2691 2371 2079 1974 2325 2508 2770 2622 2295 2038 1860 2151 2302 2642 3033 2918 2735 2364 2126 2375 2533 2476 2104 1988 2147 2312 2608 2867 3105 3170 2924 2729 2509 2333 2388 2674 2942 3262 3452 3543 3465 3105 3050 3354 3607 3801 3666 3356 3146 3225 3496 3501 3199 3004 3286 3287 3475 3796 3893 3742 3493 3281 2977 2992 3339 3638 3846 4058 4168 4107 3993 3873 3843 3627 3337 3460 3540 3709 3975 4207 -9999 -9999 -9999 -9999 -9999 -9999 4032 4061 4127 3988 3855 3758 3852 3980 3828 3562 3472 3693 3565 3736 3770 3829 3956 -9999 -9999 -9999 4025 3935 3824 3899 4016 -9999 -9999 4036 3822 3746 3753 3995 4006 3867 3593 3613 3831 4099 3957 3837 3890 3678 3734 3924 3787 3657 3507 3622 3897 3605 3411 3272 3226 3465 3400 3556 3946 3812 3616 3515 3285 3075 2843 2907 2943 3235 3489 3862 3779 3549 3409 3080 2810 2625 3041 3208 3455 3593 3724 3894 4026 4167 4440 4210 3877 3730 3613 3394 3581 3717 4086 3965 3647 3430 3325 2992 3089 3373 3522 3847 3577 3256 3105 3177 3245 3457 3752 3927 3931 3635 3438 3324 2946 3094 3407 3547 3868 3632 3419 3090 2930 2487 2651 2965 3107 3473 3581 3830 3926 4108 3867 3905 4181 4314 4240 4273 4179 4181 4209 3917 3636 3405 3175 3543 3911 3978 3600 3460 3721 3454 3255 3234 3484 3567 3544 3482 3210 2787 2611 2630 2848 3160 3458 3638 3603 3480 3265 3193 3230 3583 4018 4133 4083 4138 3734 3215 2946 2860 3377 3619 3630 3786 3988 4302 4448 4156 3592 3226 3264 3591 3951 4277 4453 4404 4056 3940 3759 3598 3247 3218 3576 3763 3900 3726 3862 3584 3494 3768 3795 3708 3508 3115 2812 3142 3376 3415 3558 3866 3794 3640 3311 3117 2860 2961 3257 3451 3662 3809 4054 4129 4300 4569 4466 4102 3723 3399 3328 3692 4023 4448 4627 4292 3887 3770 3915 4173 4456 4573 4112 3893 3558 3509 3664 3736 3782 3795 3892 3934 3995 4143 4450 4306 4282 4129 4241 4074 3920 3782 3232 2866 3025 3559 3901 3853 3823 3940 3688 3200 3122 3330 3629 3653 3722 3710 3622 3589 3414 3274 3258 3276 3304 3310 3371 3579 3893 4229 4242 4185 3930 3747 3751 3895 4365 4645 4516 4515 -9999 -9999 -9999 -9999 -9999 -9999 -9999
-9999 1112 1102 1075 1052 1064 1058 1060 1062 1064 1074 1089 1122 1131 1137 1142 1152 1161 1167 1178 1183 1191 1194 1192 1221 1220 1140 1150 1165 1208 1191 1222 1265 1218 1206 1175 1193 1231 1251 1301 1370 1400 1306 1550 1558 1628 1469 1505 1738 1634 1750 1982 1973 1789 1644 1464 1525 1759 1942 2129 2096 2071 1912 1941 1782 1871 2263 2420 2215 2134 2409 2560 2549 2480 2228 1921 1785 1676 2008 1889 1701 1922 2143 2434 2497 2237 2155 1877 1808 1998 2350 2473 2236 2358 2642 2248 1928 1824 2162 2542 2535 2528 2279 1921 1810 2218 2424 2630 2605 2718 2627 2531 2160 2120 2294 2239 1877 2026 2359 2476 2678 2842 3051 3117 2862 2540 2355 2227 2297 2668 2948 3224 3376 3225 3372 3023 2870 3116 3447 3723 3580 3279 3032 2977 3181 3305 3124 2868 3055 3249 3475 3642 3683 3500 3282 3071 2930 3142 3362 3359 3554 3855 4038 3995 3805 3894 3782 3424 3295 3558 3668 3923 4153 4020 3899 3979 4227 -9999 3983 3893 3774 3988 4239 4228 3947 3671 3645 3751 3637 3407 3289 3553 3434 3616 3497 3807 3945 3953 3690 3645 3796 3677 3427 3560 3812 3916 3738 3604 3558 3451 3735 3891 3607 3620 3516 3453 3750 3833 3681 3439 3598 3368 3467 3594 3518 3289 3241 3546 3795 3518 3258 3087 3076 3086 3362 3489 3704 3692 3359 3223 3056 2984 2705 3008 3074 3306 3607 3660 3476 3224 3047 2845 2650 2628 2993 3244 3252 3330 3549 3774 4184 4244 4079 3992 3846 3753 3575 3270 3375 3504 3830 4041 3752 3499 3420 3027 3058 3426 3612 3829 3454 3172 2986 3046 3292 3505 3797 3894 3845 3591 3332 3206 2911 2885 3164 3327 3681 3459 3093 2998 2779 2367 2664 3005 3126 3493 3462 3554 3523 3752 3571 3591 3927 4098 4004 3875 3922 4018 3909 3855 3676 3464 3053 3381 3762 3692 3322 3128 3482 3339 3142 2902 3212 3143 3054 3009 2892 2901 2924 2618 2529 2874 3190 3253 3176 3125 2874 2995 3380 3627 3803 3783 3672 3861 3607 3005 2760 2868 3137 3435 3523 3770 4076 4491 4412 4111 3481 3149 3219 3575 3915 4210 4332 4249 3895 3678 3450 3359 3131 3148 3417 3594 3703 3367 3630 3289 3206 3574 3463 3373 3274 2918 2785 3281 3379 3095 3434 3445 3451 3251 2906 2750 2984 3179 3480 3793 3955 3924 3809 4043 4368 3969 3891 3761 3553 3240 3345 3741 4111 4494 4297 4044 3721 3601 3739 4088 4352 4674 4234 4032 3809 3515 3418 3360 3289 3238 3270 3311 3455 3763 4053 4467 4449 4365 4387 4264 4135 3910 3395 2831 3015 3449 3717 3577 3430 3474 3361 3153 3000 3123 3226 3243 3318 3338 3272 3213 3196 3216 3231 3262 3332 3586 3858 3843 3967 4299 4503 4824 4303 3877 3841 3948 4337 4726 4915 -9999 -9999 -9999 -9999 -9999 -9999 -9999 -9999
-9999 1137 1131 1138 1123 1059 1057 1059 1063 1066 1068 1071 1074 1074 1076 1078 1110 1139 1156 1161 1159 1140 1126 1124 1121 1101 1102 1104 1105 1114 1114 1123 1119 1119 1119 1131 1135 1133 1138 1138 1151 1157 1182 1281 1450 1456 1374 1583 1493 1588 1699 1960 1781 1619 1536 1362 1550 1844 1781 1744 1841 1924 1746 1600 1723 2028 2139 2001 1829 1932 2305 2405 2306 2080 2248 2109 1926 1610 1784 1771 1605 1865 2164 2124 2199 2098 2070 1809 1797 1976 2321 2171 2032 2180 2425 2161 1795 1694 2066 2335 2227 2170 2306 1929 1612 2008 2163 2315 2095 2382 2290 2453 2157 1931 2139 2142 1745 1965 2327 2435 2528 2442 2664 2849 2796 2529 2220 2089 2254 2400 2610 2980 3179 3007 3214 2815 2697 2996 3259 3558 3427 3125 2983 2688 2959 3041 2812 2760 2990 3152 3361 3635 3637 3550 3288 2925 2817 3009 3056 3378 3723 3991 4103 3759 3449 3432 3493 3226 3301 3679 3815 4128 4330 4045 3776 3824 4086 4001 3843 3735 3670 3885 4062 3903 3692 3600 3443 3712 3602 3306 3188 3477 3353 3243 3518 3748 3799 3831 3548 3353 3560 3644 3312 3376 3500 3658 3789 3508 3272 3397 3558 3692 3475 3334 3178 3462 3712 3633 3480 3205 3266 3149 3253 3441 3135 3073 3192 3430 3654 3421 3179 2991 2819 3130 3384 3286 3450 3678 3458 3375 3165 2770 2663 3024 3221 3445 3657 3602 3430 3161 2999 2644 2600 2603 2808 2962 3309 3373 3598 3939 4005 3902 3756 3733 3481 3525 3283 3058 3353 3519 3825 3812 3458 3186 3090 2861 3051 3456 3617 3654 3304 2961 2808 2945 3150 3374 3651 3524 3553 3635 3363 3244 2975 2690 3073 3177 3490 3390 3042 2671 2612 2362 2798 3127 3298 3187 3029 3095 3178 3540 3299 3565 3841 3778 3753 3526 3684 3807 3641 3352 3378 3384 2986 3238 3504 3445 3106 2829 3096 3004 2969 2675 2728 2621 2573 2473 2417 2392 2395 2446 2392 2570 2666 2707 2738 2738 2739 2925 3278 3419 3417 3344 3238 3520 3398 2865 2647 2857 3290 3599 3750 3968 4253 4429 4418 3966 3364 3097 3178 3543 3915 4248 4346 4331 3957 3623 3276 3146 2814 3096 3471 3426 3330 3107 3274 3118 2908 3082 3074 2922 2836 2635 2601 2781 2829 2821 2949 3009 3061 2958 2845 2695 3063 3290 3654 3588 3487 3468 3690 3960 4048 3720 3528 3336 3169 3285 3438 3803 4210 4308 4083 3726 3379 3602 3728 3960 4349 4648 4315 4188 3978 3843 3780 3649 3562 3510 3388 3297 3098 3497 3824 3980 4113 4171 4016 3830 3800 3609 3415 2876 2823 3288 3293 3164 3101 3040 2935 2850 2903 2931 2978 3016 3056 3074 3113 3143 3167 3258 3329 3481 3657 3981 4123 3993 4054 4367 4582 -9999 -9999 -9999 -9999 4008 4242 -9999 -9999 -9999 -9999 -9999 -9999 -9999 -9999 -9999 -9999
1186 1206 1225 1199 1161 1080 1068 1068 1072 1078 1083 1082 1087 1088 1088 1088 1082 1092 1097 1105 1109 1130 1138 1141 1142 1139 1138 1129 1124 1117 1131 1136 1138 1142 1152 1154 1178 1176 1185 1195 1190 1193 1174 1186 1245 1252 1383 1431 1542 1531 1521 1698 1691 1558 1507 1310 1536 1544 1484 1459 1672 1605 1427 1545 1764 1647 1761 1655 1632 1838 1899 2028 2194 1869 1819 1997 1942 1626 1655 1728 1552 1730 2040 1931 1900 1887 2050 1835 1625 1798 2059 2035 1770 1911 2075 2002 1625 1627 1810 1854 2033 1999 1980 1904 1513 1799 1987 1897 1742 1956 1926 2082 1811 1936 2099 2022 1625 1843 2055 2213 2230 2216 2554 2742 2809 2478 2203 2076 2069 2408 2641 2918 3065 2803 3002 2608 2631 2975 3276 3419 3240 2964 2755 2537 2718 2587 2561 2792 3033 3184 3500 3556 3174 3114 3270 2989 2601 2718 3052 3173 3446 3816 3920 3684 3568 3269 3106 3006 3315 3542 3656 4038 4152 3880 3601 3655 3921 4110 3822 3647 3490 3802 4040 3897 3613 3331 3327 3671 3595 3319 2990 3240 3110 3071 3369 3359 3352 3659 3488 3228 3275 3364 3116 3227 3528 3668 3597 3326 3234 3367 3678 3527 3258 3124 3145 3415 3678 3572 3438 3202 2970 2928 3096 3266 2906 3088 3202 3499 3504 3170 2935 2852 2668 2852 2920 3043 3304 3568 3322 3181 2897 2667 2724 3074 2997 3285 3603 3476 3332 3050 2754 2451 2399 2618 2988 3107 3259 3382 3744 4010 3733 3586 3514 3677 3348 3204 3033 2929 3186 3320 3717 3588 3345 3124 2881 2782 3141 3487 3654 3627 3236 2954 2770 2812 3190 3498 3350 3193 3225 3524 3365 3211 2892 2573 2920 3066 3337 3401 3114 2813 2648 2308 2717 3113 3214 3092 2750 2959 3139 3344 2966 3203 3413 3291 3265 3460 3508 3411 3337 3195 2882 2938 2825 3091 3012 2949 2818 2574 2546 2443 2414 2368 2322 2303 2312 2320 2328 2337 2342 2353 2306 2381 2392 2407 2474 2527 2585 2701 2797 2953 2944 2903 3052 3373 3346 2863 2602 2762 3001 3241 3369 3646 3985 4164 4062 3617 3317 3098 3075 3367 3836 4091 3955 3896 3803 3708 3448 3305 2759 2910 3031 2937 2818 2693 2664 2759 2793 2583 2497 2497 2489 2484 2485 2453 2460 2474 2542 2592 2570 2570 2566 2591 2953 3090 3295 3100 3362 3535 3712 3600 3714 3689 3468 3068 3151 3555 3699 3938 4299 4121 3987 3593 3270 3515 3720 4249 4489 4530 4205 4177 4390 4268 3975 3978 3876 3857 3800 3734 3262 2959 3191 3626 3831 3872 3640 3553 3399 3299 3071 2838 2769 2861 2829 2790 2791 2795 2801 2827 2949 2994 3031 3044 3064 3079 3104 3152 3245 3558 3727 3830 3879 4170 4057 4045 4147 4526 -9999 -9999 -9999 -9999 -9999 -9999 -9999 -9999 -9999 -9999 -9999 -9999 -9999 -9999 -9999 -9999 -9999
1227 1266 1264 1260 1205 1188 1086 1084 1089 1095 1099 1098 1103 1103 1100 1099 1096 1094 1099 1122 1125 1141 1154 1158 1160 1162 1182 1187 1192 1182 1190 1195 1220 1225 1231 1226 1240 1246 1256 1253 1257 1246 1198 1164 1182 1176 1191 1209 1277 1319 1357 1424 1465 1447 1377 1264 1234 1198 1208 1266 1399 1502 1344 1327 1291 1244 1287 1337 1349 1438 1644 1775 1984 1709 1586 1770 1734 1632 1511 1604 1461 1725 1914 1773 1675 1766 2005 1874 1623 1519 1715 1879 1610 1612 1704 1606 1514 1496 1364 1492 1799 1855 1590 1627 1463 1442 1581 1449 1453 1528 1681 1888 1760 2141 2195 1866 1541 1777 2003 2097 1910 2169 2492 2499 2704 2403 2101 1968 1979 2264 2465 2785 2830 2631 2906 2532 2492 2825 3105 3287 3183 2901 2671 2405 2578 2369 2558 2784 3003 3146 3463 3402 3037 2823 2787 2826 2461 2607 2981 3269 3448 3794 3796 3454 3176 3200 3007 2978 3346 3593 3693 3943 4105 3857 3559 3417 3677 3898 3530 3346 3457 3745 3736 3576 3334 3169 3207 3474 3363 3171 2864 2903 2822 3110 3250 3012 3177 3520 3399 3270 3014 2935 2916 3050 3349 3510 3321 3032 3217 3378 3435 3162 3067 2969 3070 3209 3519 3684 3550 3266 2904 2792 2921 2931 2733 3005 3150 3490 3611 3276 3021 2878 2508 2765 2946 3002 3283 3358 3040 2947 2733 2542 2571 2694 2833 3124 3423 3116 2976 2806 2491 2393 2565 2828 3077 3376 3627 3717 3720 3709 3530 3388 3357 3604 3285 3141 2911 2874 3158 3316 3662 3328 3011 2801 2703 2664 3050 3237 3368 3591 3299 2999 2848 2539 2889 3250 3042 2888 2994 3335 3395 3240 3059 2624 2772 2908 3088 3248 2942 2552 2341 2517 2836 2757 2709 2674 2551 2832 2903 2993 2749 3135 3137 2935 3069 3054 2974 2942 2815 2716 2512 2645 2770 2622 2477 2415 2325 2317 2238 2170 2173 2192 2184 2187 2190 2196 2200 2205 2217 2222 2230 2232 2255 2322 2376 2411 2434 2431 2455 2502 2580 2641 2787 2834 2943 2956 2781 2609 3034 3465 3625 3703 3659 3943 3803 3449 3107 2861 2996 3392 3670 3745 3573 3396 3226 3147 3033 2931 2657 2671 2558 2505 2427 2406 2435 2427 2416 2428 2499 2561 2590 2646 2648 2661 2662 2635 2570 2495 2511 2518 2494 2483 2559 2617 2757 2858 3091 3148 3263 3285 3417 3470 3241 2830 3294 3701 3746 3962 3837 3977 3788 3508 3272 3517 3773 4309 4174 4276 3950 3934 4293 4340 4130 4216 4070 4102 4011 3922 3600 3300 2893 3335 3520 3387 3247 3111 3004 2831 2745 2751 2752 2764 2814 2922 3006 3046 3083 3041 3226 3424 3549 3465 3409 3308 3220 3547 3432 3532 3750 4064 4261 4149 4087 4080 4441 -9999 -9999 -9999 -9999 -9999 -9999 -9999 -9999 -9999 -9999 -9999 -9999 -9999 -9999 -9999 -9999 -9999 -9999
1258 1297 1291 1289 1250 1261 1129 1101 1095 1100 1107 1110 1114 1113 1110 1106 1102 1104 1115 1125 1132 1147 1164 1171 1171 1182 1191 1191 1190 1191 1203 1217 1227 1232 1235 1233 1246 1257 1297 1297 1295 1291 1265 1209 1161 1150 1147 1171 1202 1219 1230 1273 1293 1287 1202 1203 1212 1201 1197 1188 1308 1392 1248 1219 1204 1266 1238 1218 1272 1339 1564 1675 1799 1583 1511 1672 1588 1621 1425 1617 1451 1616 1737 1710 1603 1870 2009 1899 1660 1533 1571 1717 1588 1514 1526 1427 1431 1391 1337 1306 1654 1679 1428 1372 1321 1319 1386 1326 1352 1367 1542 1774 1742 2120 2155 1791 1482 1643 1803 1892 1813 2188 2345 2462 2745 2434 2091 1913 2055 2423 2663 2822 2715 2566 2910 2599 2425 2741 2896 3218 3138 2839 2566 2384 2608 2389 2464 2812 3018 3163 3456 3220 2985 2823 2556 2551 2416 2579 2939 3289 3575 3797 3764 3439 3077 3010 2891 3011 3223 3370 3495 3854 4033 3691 3421 3315 3524 3780 3465 3273 3327 3624 3774 3651 3288 3017 3146 3328 3155 3067 2921 2689 2738 3106 3074 2912 3071 3448 3474 3367 3159 3017 2791 2976 3303 3449 3168 2896 3219 3398 3272 3022 2842 2821 3022 3189 3492 3508 3349 3174 2894 2627 2763 2701 2747 3120 3235 3521 3565 3251 2954 2744 2464 2882 3124 3184 3342 3294 3043 2927 2807 2604 2515 2783 2888 3135 3363 3081 2902 2614 2393 2415 2565 2720 2972 3258 3579 3725 3512 3611 3394 3281 3230 3569 3350 3219 2957 2825 3226 3351 3608 3361 3055 2856 2736 2541 2864 3080 3261 3602 3257 2963 2821 2508 2773 3203 2904 2734 3068 3347 3412 3346 3027 2572 2575 2675 2908 3048 2881 2492 2247 2563 2704 2530 2474 2452 2489 2731 2744 2816 2662 3051 2988 2818 2812 2793 2694 2657 2570 2494 2540 2679 2533 2354 2245 2211 2169 2179 2179 2203 2246 2296 2296 2259 2250 2247 2247 2274 2303 2338 2327 2288 2254 2249 2246 2324 2399 2420 2436 2458 2504 2494 2540 2617 2697 2828 2785 2533 2967 3381 3447 3470 3449 3697 3764 3578 3177 2763 2870 3244 3557 3563 3424 3350 3037 2906 2780 2707 2540 2534 2434 2404 2398 2442 2546 2471 2479 2545 2636 2761 2818 2845 2846 2859 2859 2852 2728 2704 2655 2643 2628 2542 2491 2495 2575 2722 2868 2933 3013 3083 3182 3238 3138 2839 3355 3603 3524 3811 3649 3845 3655 3546 3294 3590 3840 4174 4037 4149 3863 3854 4185 4192 4162 4178 4093 3961 3904 3814 3571 3309 2843 3264 3310 3160 3011 2839 2773 2731 2738 2764 2806 2909 2964 3156 3230 3259 3229 3101 3299 3497 3735 3691 3555 3368 3287 3734 3493 3566 3753 4136 4444 4181 4109 4107 4482 -9999 -9999 -9999 -9999 -9999 -9999 -9999 -9999 -9999 -9999 -9999 -9999 -9999 -9999 -9999 -9999 -9999 -9999
1345 1335 1372 1399 1333 1342 1395 1284 1190 1146 1129 1136 1142 1138 1131 1128 1124 1122 1126 1137 1144 1161 1187 1199 1203 1205 1210 1219 1217 1221 1224 1225 1235 1243 1261 1267 1320 1344 1405 1430 1462 1448 1420 1277 1202 1253 1207 1168 1167 1194 1196 1199 1201 1177 1225 1239 1251 1397 1312 1261 1231 1230 1306 1372 1368 1513 1328 1288 1295 1252 1250 1295 1356 1318 1385 1357 1348 1380 1339 1471 1440 1442 1417 1454 1546 1802 1663 1607 1624 1634 1470 1417 1351 1334 1271 1292 1324 1397 1612 1320 1339 1322 1360 1594 1442 1534 1457 1487 1631 1332 1382 1606 1808 1976 1847 1531 1381 1447 1554 1640 1915 2083 2456 2588 2562 2212 1968 1796 2053 2385 2719 2572 2440 2559 2852 2555 2400 2426 2717 3010 2889 2673 2347 2448 2669 2458 2238 2452 2670 2823 3096 2921 2609 2513 2352 2339 2657 2754 2868 3132 3505 3399 3305 3300 2999 2722 2636 2976 3225 3420 3516 3818 3673 3485 3267 3139 3441 3625 3248 3076 3139 3424 3581 3440 3096 2823 3117 3262 3120 2839 2631 2620 2792 2888 2665 2906 3028 3337 3532 3542 3253 3109 2825 2874 3238 3165 2861 2843 3172 3262 3061 2822 2732 2935 3162 3468 3445 3388 3227 2938 2785 2570 2466 2532 2803 3085 3234 3521 3241 2996 2778 2602 2329 2702 3028 3217 3330 3375 3266 3203 2932 2477 2468 2772 2809 3023 3267 2927 2761 2478 2234 2412 2605 2957 3222 3503 3708 3574 3200 3343 3142 2951 3245 3547 3530 3403 3053 2635 2878 3084 3526 3576 3380 3056 2842 2451 2842 3264 3425 3452 3334 3147 2949 2471 2697 2995 2672 2563 2931 2937 2997 3036 3019 2812 2578 2382 2527 2616 2438 2296 2160 2249 2239 2195 2195 2221 2227 2274 2314 2362 2586 2616 2472 2460 2396 2302 2241 2242 2260 2262 2208 2173 2137 2141 2174 2216 2260 2288 2347 2329 2338 2406 2492 2610 2663 2617 2612 2671 2725 2834 2411 2663 2751 2698 2557 2429 2285 2258 2267 2295 2401 2407 2418 2400 2374 2427 2393 2620 2833 2911 2917 2971 3075 3301 3320 3437 3314 2975 2698 2916 3239 3311 3037 2902 2680 2553 2480 2464 2459 2443 2450 2490 2613 2782 2929 2990 2937 2894 3000 3159 3236 3293 3222 3321 3307 3103 3197 3168 3038 3076 3011 2864 2679 2624 2521 2504 2533 2559 2596 2653 2745 2785 2773 2869 3196 3131 3211 3354 3405 3601 3488 3427 3383 3791 3815 3905 3719 3943 3682 3707 3908 3912 3793 3885 3815 3615 3484 3369 3190 3064 2867 2768 2758 2722 2717 2722 2750 2848 2992 3142 3193 3298 3326 3422 3555 3592 3402 3182 3441 3675 4027 4004 3631 3433 3390 3844 3616 3757 3982 4410 4407 4225 4171 4198 -9999 -9999 -9999 -9999 -9999 -9999 -9999 -9999 -9999 -9999 -9999 -9999 -9999 -9999 -9999 -9999 -9999 -9999 -9999
1425 1347 1423 1501 1443 1358 1451 1516 1350 1287 1173 1170 1173 1166 1164 1165 1156 1145 1152 1179 1183 1200 1239 1230 1236 1231 1248 1257 1256 1254 1259 1266 1258 1265 1312 1314 1325 1340 1391 1451 1414 1373 1339 1249 1276 1310 1363 1335 1362 1261 1236 1183 1184 1161 1187 1285 1405 1366 1459 1470 1382 1423 1509 1632 1789 1626 1355 1335 1432 1336 1334 1310 1258 1217 1269 1305 1298 1240 1259 1272 1274 1246 1272 1264 1266 1428 1305 1274 1290 1306 1301 1303 1299 1369 1498 1441 1525 1665 1798 1599 1408 1372 1406 1585 1592 1823 1767 1811 1591 1346 1372 1463 1626 1637 1464 1378 1567 1376 1549 1643 1822 2142 2286 2291 2387 2123 1816 1726 2048 2418 2595 2403 2230 2519 2532 2357 2235 2400 2760 2934 2766 2472 2182 2378 2694 2608 2263 2183 2387 2550 2936 2789 2585 2462 2123 2269 2592 2784 3172 3433 3502 3335 3185 2825 2659 2476 2660 2950 3181 3484 3624 3714 3539 3314 3037 2957 3321 3551 3143 2951 2867 3052 3418 3376 2987 2682 3013 3337 3266 2958 2688 2444 2596 2503 2733 3027 3190 3243 3025 3181 3181 3002 2641 2821 2988 2837 2603 2859 3116 3003 2791 2565 2612 2797 3206 3214 3012 3301 3365 3212 2980 2645 2463 2565 2986 3218 3252 3396 3114 2818 2484 2398 2180 2520 2857 2993 2940 2922 3057 2938 2602 2349 2351 2622 2788 3030 2996 2911 2761 2396 2250 2601 2736 3013 3270 3567 3437 3251 2922 3108 3047 2824 2979 3300 3462 3275 2920 2560 2727 2922 3293 3576 3249 2829 2666 2369 2673 3172 3188 3040 2826 2758 2726 2379 2539 2704 2426 2521 2603 2601 2560 2638 2596 2600 2649 2551 2232 2226 2083 2052 2061 2066 2064 2065 2069 2073 2080 2099 2105 2113 2137 2139 2161 2164 2141 2108 2112 2119 2136 2127 2164 2248 2272 2334 2414 2402 2445 2511 2555 2720 2780 2823 2840 3075 3177 3079 3066 3036 2995 2584 2575 2889 3221 3121 2906 2872 2707 2641 2487 2381 2288 2266 2262 2327 2411 2340 2296 2297 2338 2437 2469 2557 2667 2792 2837 2920 3010 3009 2838 2650 2947 2838 2624 2528 2434 2379 2378 2399 2555 2708 2884 2910 2948 3062 3308 3444 3443 3370 3477 3507 3591 3780 3595 3739 3649 3382 3627 3512 3500 3511 3457 3028 3050 3173 3010 2749 2641 2600 2546 2535 2526 2533 2553 2567 2675 2774 2887 2979 3117 3199 3169 3123 3340 3410 3404 3504 3451 3593 3380 3532 3567 3591 3461 3512 3369 3254 3027 2981 2836 2686 2688 2695 2706 2765 2849 3023 3102 3211 3255 3560 3630 3686 3671 3504 3888 3904 3378 3386 3646 3615 3913 4199 3787 3541 3436 3626 3730 3807 3982 4478 4644 4339 4237 4239 -9999 -9999 -9999 -9999 -9999 -9999 -9999 -9999 -9999 -9999 -9999 -9999 -9999 -9999 -9999 -9999 -9999 -9999 -9999
-9999 1471 1402 1500 1511 1470 1432 1463 1569 1378 1284 1244 1209 1222 1215 1216 1195 1193 1195 1245 1240 1325 1271 1263 1272 1298 1285 1303 1305 1309 1309 1318 1300 1316 1372 1351 1356 1350 1403 1451 1371 1355 1290 1210 1353 1429 1574 1620 1543 1340 1431 1448 1416 1357 1468 1609 1599 1497 1623 1852 1609 1677 1767 1931 1732 1613 1421 1350 1540 1737 1780 1757 1638 1509 1399 1446 1397 1386 1343 1296 1295 1297 1327 1324 1305 1276 1519 1398 1411 1426 1510 1622 1789 1798 1593 1473 1585 1678 1893 1773 1607 1597 1684 1523 1794 2052 2095 1932 1703 1451 1393 1333 1335 1346 1352 1602 1680 1413 1373 1457 1659 1788 2060 2140 1981 1742 1688 1836 2129 2382 2240 2287 2108 2176 2112 2127 2233 2580 2660 2686 2616 2346 2069 2357 2663 2553 2162 2185 2418 2567 2872 2743 2437 2231 2052 2394 2543 2647 2962 3222 3120 3022 2847 2670 2404 2502 2727 3090 3410 3547 3457 3343 3197 3095 2889 2780 3117 3415 3106 2933 2576 2899 3217 3205 2781 2521 2921 3246 3319 3006 2691 2431 2330 2405 2566 2822 2977 2892 2647 2888 3152 3022 2623 2597 2843 2660 2481 2882 2862 2683 2350 2351 2664 2837 3104 2900 2708 3063 3211 2912 2648 2392 2250 2576 2926 3177 3121 3062 2941 2800 2674 2554 2184 2293 2698 2716 2616 2592 2689 2710 2645 2224 2374 2656 2793 2657 2522 2539 2548 2161 2382 2721 2855 3139 3193 3255 3079 2965 2648 2995 2818 2586 2898 3230 3295 3214 2947 2556 2552 2752 3130 3396 3241 2872 2668 2303 2701 2863 2746 2533 2373 2283 2244 2228 2257 2226 2168 2131 2054 2058 2068 2086 2133 2125 2119 2073 2035 2074 2100 2149 2202 2266 2328 2447 2440 2445 2475 2398 2331 2205 2146 2183 2212 2222 2277 2285 2355 2379 2411 2422 2439 2518 2327 2481 2777 2832 2875 2957 3005 2846 2884 3255 3350 3325 3472 3431 3113 2791 2628 2593 2820 2972 3272 3396 3147 3286 3090 3047 2774 2762 2550 2487 2429 2420 2422 2416 2343 2408 2325 2298 2296 2297 2315 2388 2455 2595 2606 2562 2526 2495 2523 2386 2353 2354 2359 2460 2448 2500 2548 2578 2584 2638 2725 2679 2883 3200 3275 3377 3616 3851 3902 3929 3973 3946 3858 3649 3758 3848 3822 3801 3501 3093 3338 3533 3325 3135 3035 2984 2860 2733 2795 2725 2690 2598 2555 2551 2554 2559 2578 2609 2618 2656 2781 2846 2856 2935 2982 3120 2991 3113 3162 3198 3022 2982 2905 2758 2668 2667 2671 2696 2802 2908 3042 3116 3197 3116 3340 3627 3549 3730 3825 4003 3933 3710 3911 3798 3361 3613 4027 3938 3870 4230 3995 3653 3503 3823 3900 3884 4104 4439 4510 4346 4271 4325 -9999 -9999 -9999 -9999 -9999 -9999 -9999 -9999 -9999 -9999 -9999 -9999 -9999 -9999 -9999 -9999 -9999 -9999 -9999
-9999 -9999 1481 1469 1559 1481 1469 1501 1542 1411 1299 1269 1229 1305 1267 1243 1219 1236 1291 1285 1273 1356 1303 1279 1293 1384 1347 1329 1333 1388 1333 1356 1351 1327 1369 1373 1405 1397 1457 1463 1371 1348 1319 1213 1287 1376 1539 1737 1550 1379 1466 1613 1608 1437 1521 1764 1608 1540 1676 1942 1728 1772 1923 2016 1722 1769 1500 1447 1413 1713 1851 1942 1828 1690 1482 1469 1501 1569 1556 1427 1380 1352 1400 1347 1332 1351 1590 1470 1611 1642 1713 1816 1823 1739 1468 1624 1625 1686 1938 1897 1754 1727 1800 1517 1837 2058 2097 2015 1760 1577 1494 1396 1364 1383 1434 1548 1763 1478 1385 1374 1502 1759 1946 1967 1818 1616 1798 1930 2195 2201 2153 2169 2019 2014 2115 2277 2393 2584 2566 2551 2464 2226 2029 2366 2572 2381 2088 2119 2447 2612 2896 2704 2377 2215 2016 2379 2699 2756 2963 3096 2936 2960 2757 2458 2286 2508 2699 3058 3410 3322 3286 3163 2931 2856 2718 2723 3106 3259 2922 2757 2470 2789 3152 3175 2728 2438 2782 3134 3283 3040 2763 2497 2346 2246 2535 2851 2980 2942 2566 2794 3013 2911 2600 2513 2797 2634 2448 2871 2713 2546 2234 2523 2813 2979 3134 2823 2610 2963 3126 2951 2593 2297 2187 2519 2909 2968 2873 2830 2706 2580 2598 2540 2168 2201 2487 2491 2413 2441 2477 2487 2594 2347 2150 2460 2598 2424 2361 2316 2318 2083 2468 2780 2869 3003 2981 3060 2856 2751 2539 2909 2641 2502 2818 3016 3092 3066 2706 2420 2474 2725 3119 3180 3231 2844 2609 2268 2706 2601 2525 2291 2165 2118 2101 2104 2055 2040 2029 2024 2004 2002 2007 2009 2016 2022 2026 2035 2059 2110 2161 2240 2305 2378 2525 2712 2693 2717 2772 2649 2509 2232 2257 2257 2268 2302 2353 2380 2443 2451 2477 2496 2575 2641 2439 2466 2851 2990 3081 3214 3223 3076 2989 3194 3553 3573 3570 3408 3024 2711 2684 2875 2913 3076 3280 3444 3293 3473 3306 3162 2990 2904 2732 2669 2582 2495 2446 2429 2354 2414 2362 2345 2336 2303 2303 2309 2317 2344 2367 2391 2447 2429 2358 2345 2350 2353 2372 2465 2479 2478 2522 2595 2744 2836 2979 2884 2800 2959 3022 3174 3446 3706 3737 3720 3916 4096 3976 3808 3862 3795 3651 3566 3379 3109 3403 3593 3507 3225 3223 3143 3073 2931 3044 2995 2921 2839 2684 2628 2591 2567 2566 2573 2575 2580 2592 2619 2629 2666 2732 2825 2801 2821 2864 2870 2790 2763 2682 2657 2661 2672 2736 2880 2945 2996 3050 3306 3386 3205 3374 3721 3683 3787 3895 4104 3989 3757 3888 3742 3398 3723 4154 4242 4081 4362 4191 3863 3647 4121 4156 4048 -9999 -9999 -9999 -9999 -9999 -9999 -9999 -9999 -9999 -9999 -9999 -9999 -9999 -9999 -9999 -9999 -9999 -9999 -9999 -9999 -9999 -9999 -9999 -9999 -9999
-9999 -9999 -9999 1501 1487 1560 1525 1554 1540 1442 1358 1305 1267 1359 1350 1305 1394 1394 1425 1350 1350 1469 1372 1315 1329 1431 1470 1382 1392 1468 1396 1442 1464 1421 1440 1483 1576 1570 1463 1399 1350 1335 1307 1222 1348 1415 1572 1712 1631 1458 1549 1755 1914 1624 1657 1919 1728 1609 1767 2046 2055 2027 2203 2057 1893 1911 1806 1720 1511 1468 1769 1905 2146 1942 1657 1645 1680 1857 1810 1719 1679 1601 1461 1485 1646 1758 1684 1598 1749 1809 1765 1654 1523 1516 1635 1799 1855 1830 2011 2007 1968 1913 1688 1562 1763 1907 1984 2055 1953 1825 1754 1530 1610 1689 1766 1521 1724 1641 1510 1457 1380 1552 1679 1704 1546 1815 2048 2091 1979 1895 1856 1929 2018 2230 2327 2423 2398 2340 2327 2313 2294 2068 1977 2313 2480 2314 1916 2203 2493 2521 2770 2581 2273 2097 2060 2332 2701 2816 2714 2853 2656 2723 2539 2176 2229 2589 2744 3094 2987 2888 2825 2661 2508 2416 2513 2677 3070 3146 2734 2578 2303 2574 2854 3019 2763 2318 2582 2912 3073 2971 2612 2279 2147 2048 2299 2544 2697 2747 2408 2610 2848 2820 2508 2320 2455 2372 2437 2781 2425 2242 2225 2588 2849 2794 2774 2573 2490 2722 2698 2671 2468 2145 2153 2535 2800 2586 2443 2304 2268 2095 2108 2125 2106 1962 2032 2025 2061 2031 2094 2113 2123 2137 2014 2208 2193 2153 2102 2226 2230 2123 2314 2530 2540 2574 2556 2579 2600 2462 2465 2637 2465 2328 2512 2599 2634 2648 2554 2228 2556 2581 2620 2785 2825 2836 2591 2217 2385 2132 2051 1984 1979 1974 1973 1980 2017 2009 2070 2104 2131 2168 2206 2188 2180 2158 2178 2180 2171 2313 2504 2618 2683 2771 2860 3044 3113 3190 3032 2581 2344 2418 2538 2483 2493 2497 2500 2509 2550 2582 2693 2791 2843 2859 2713 2345 2667 2855 3161 3403 3528 3318 3239 3313 3682 3715 3505 3192 2889 2626 2758 3172 3281 3412 3429 3585 3597 3631 3630 3489 3409 3189 3160 3152 3032 2992 2782 2510 2459 2464 2537 2560 2517 2434 2380 2334 2326 2320 2321 2327 2334 2349 2338 2345 2365 2406 2458 2496 2536 2563 2696 2856 3033 3172 3419 3039 2815 3160 3296 3531 3371 3349 3468 3693 3740 4014 4121 4079 3944 3678 3322 3224 3253 3331 3553 3658 3858 3562 3555 3519 3224 3369 3502 3342 3172 3319 3157 3072 3072 3171 2786 2782 2805 2772 2711 2675 2661 2623 2608 2612 2619 2623 2628 2635 2656 2672 2673 2755 2894 2974 2990 3206 3274 3337 3261 3320 3674 3375 3401 3817 4097 3865 3914 4143 4296 3972 3963 3798 3495 3793 4054 4106 4337 -9999 4446 4296 4330 -9999 -9999 -9999 -9999 -9999 -9999 -9999 -9999 -9999 -9999 -9999 -9999 -9999 -9999 -9999 -9999 -9999 -9999 -9999 -9999 -9999 -9999 -9999 -9999 -9999 -9999 -9999 -9999
-9999 -9999 -9999 1596 1569 1543 1620 1649 1517 1434 1387 1356 1310 1409 1433 1400 1462 1568 1482 1417 1455 1529 1430 1350 1381 1463 1503 1482 1442 1495 1525 1502 1495 1544 1579 1588 1536 1491 1444 1391 1354 1345 1300 1263 1349 1398 1495 1643 1774 1580 1559 1725 1899 1844 1833 2041 1912 1634 1687 2028 2178 2286 2275 2128 2191 2194 2034 1922 1687 1462 1666 1845 2122 2104 1799 1871 1962 2031 2066 1920 1839 1677 1467 1598 1678 1878 1688 1792 1930 1961 1800 1587 1566 1605 1802 1895 1919 1989 2004 1847 1751 1723 1604 1679 1825 2008 2061 2071 1965 1823 1750 1747 1874 2079 1964 1663 1688 1968 1669 1553 1426 1392 1387 1451 1571 1714 1808 1918 1808 1754 1916 2098 2222 2364 2318 2295 2249 2196 2169 2146 2089 1956 1990 2246 2169 2061 1879 2160 2350 2375 2422 2446 2094 1899 2101 2483 2625 2606 2572 2521 2509 2603 2488 2112 2141 2517 2711 2770 2619 2721 2594 2244 2327 2491 2741 2832 3053 3061 2748 2589 2179 2298 2586 2782 2602 2254 2255 2619 2635 2527 2420 2319 2245 2030 2018 2263 2430 2603 2294 2335 2529 2485 2566 2246 2246 2141 2394 2552 2295 2150 2081 2392 2436 2420 2390 2313 2322 2316 2293 2366 2074 2177 2284 2402 2393 2238 2105 1840 1811 1843 1833 1836 1844 1827 1842 1845 1887 1881 1918 1960 1929 1932 1907 1932 1907 1930 1941 1938 1938 2021 2047 2040 2027 2080 2154 2145 2155 2148 2183 2182 2155 2121 2193 2247 2265 2223 2204 2072 2133 2150 2197 2298 2360 2397 2398 2139 2047 1954 1959 2031 2071 2130 2160 2179 2323 2389 2299 2284 2317 2335 2320 2404 2646 2402 2401 2428 2434 2282 2353 2624 2819 3180 3312 3300 3421 3305 2932 2507 2331 2595 2943 2941 2752 2747 2772 2777 2784 2885 2903 3104 3175 3180 2847 2483 2591 2736 2918 3186 3488 3623 3591 3499 3752 3610 3435 3068 2756 2775 2882 3091 3346 3673 3900 3884 3831 3595 3473 3392 3400 3453 3386 3269 2929 2629 2565 2711 2807 2702 2733 3027 2970 2841 2703 2564 2506 2494 2442 2427 2447 2470 2459 2488 2506 2511 2539 2601 2682 2749 2929 3105 3370 3439 3251 2923 2839 3107 3250 3540 3741 3687 3551 3790 3876 4082 4261 4058 3730 3441 3289 3423 3585 3326 3684 3824 4042 3780 3822 3679 3449 3696 3746 3420 3486 3760 3627 3483 3376 2990 2852 3093 3173 3156 2973 3086 3110 3003 2958 2881 2799 2929 2903 2862 2862 2904 2951 3143 3161 3282 3234 3383 3643 3728 3664 3391 3561 3618 3463 3673 3951 4004 4034 4208 4202 4223 3943 3805 3599 3846 4103 4130 4247 -9999 -9999 -9999 -9999 -9999 -9999 -9999 -9999 -9999 -9999 -9999 -9999 -9999 -9999 -9999 -9999 -9999 -9999 -9999 -9999 -9999 -9999 -9999 -9999 -9999 -9999 -9999 -9999 -9999 -9999 -9999 -9999
-9999 -9999 -9999 -9999 1669 1660 1605 1648 1640 1514 1435 1387 1350 1402 1518 1571 1462 1636 1625 1506 1568 1598 1468 1385 1409 1511 1632 1586 1541 1581 1619 1596 1571 1627 1753 1618 1553 1510 1473 1485 1405 1390 1309 1262 1441 1489 1588 1703 1846 1787 1671 1785 2042 2157 2149 2142 1947 1934 1830 1773 1947 2177 2419 2292 2059 1926 1892 1716 1479 1695 1891 1988 2231 2132 2033 2094 2152 2015 1903 1800 1745 1623 1516 1686 1823 2124 1857 2084 2251 2085 1795 1593 1759 1838 1899 2196 2268 2325 2237 1945 1827 1725 1642 1796 1954 2184 2285 2187 2077 1994 1968 1954 2141 1986 1848 1616 1904 2115 1822 1699 1536 1444 1419 1406 1376 1396 1627 1716 1652 1758 2017 2221 2161 2136 2132 2194 2219 2062 1970 1955 1896 1781 1957 2035 2001 1882 1819 2081 2190 2196 2141 2167 2018 1817 2076 2242 2303 2234 2284 2314 2270 2514 2500 2119 2010 2374 2559 2545 2483 2615 2413 2080 2373 2692 2847 2946 2856 2853 2665 2483 2107 2129 2397 2517 2340 2130 2111 2250 2110 1948 1928 1801 1731 1808 1874 2071 2125 2221 2234 2024 2210 2181 2326 2175 2035 2007 2266 2326 2208 2032 1955 2019 2030 2090 2111 2132 2078 1952 1935 1932 1936 1903 1923 1926 1919 1851 1822 1898 1973 1977 2026 2052 2069 1957 1911 1925 1968 1926 1917 1939 1957 1942 1978 1990 2002 1920 2027 2051 2096 2091 2025 1998 1964 1910 1959 1973 1969 1967 2018 2032 1987 1969 1984 1970 1939 1938 1938 1943 1937 1940 1950 1936 2034 2028 2010 1985 1993 2209 2271 2451 2513 2593 2599 2403 2213 2600 2741 2675 2629 2664 2706 2533 2754 2808 2697 2700 2801 2719 2452 2289 2456 2901 3212 3551 3476 3139 2750 2374 2452 2755 3042 3283 3097 3135 3159 2986 3017 3173 3173 3352 3294 3112 2842 2415 2689 2863 3173 3367 3584 3904 3985 3824 3910 3604 3477 3103 2732 3060 3271 3610 3553 3692 3907 3844 3726 3440 3307 3232 3048 3003 2996 2908 2680 2579 2777 3073 3093 2780 2794 3187 3300 3239 3048 3037 2909 2786 2805 2568 2589 2657 2709 2763 2757 2813 2711 2888 2971 3100 3187 3364 3385 3242 2919 2927 3218 3063 3086 3284 3569 3861 3759 3831 4067 4072 4202 3915 3629 3365 3423 3566 3731 3415 3604 3735 4028 4119 3895 3697 3647 3805 3600 3714 3827 3739 3483 3090 2919 2992 3183 3377 3484 3511 3262 3568 3458 3229 3374 3296 2968 3038 3377 3263 3165 3213 3181 3417 3255 3502 3426 3498 3819 4030 3987 3693 3501 3884 3770 3657 3816 3962 4036 4095 4223 4241 4141 3979 3696 3729 3948 4088 4279 4373 -9999 -9999 -9999 -9999 -9999 -9999 -9999 -9999 -9999 -9999 -9999 -9999 -9999 -9999 -9999 -9999 -9999 -9999 -9999 -9999 -9999 -9999 -9999 -9999 -9999 -9999 -9999 -9999 -9999 -9999 -9999
-9999 -9999 -9999 -9999 -9999 1708 1650 1641 1698 1540 1471 1460 1377 1405 1498 1540 1478 1640 1673 1564 1626 1539 1462 1405 1435 1487 1607 1647 1579 1608 1645 1632 1632 1680 1777 1700 1598 1531 1511 1476 1383 1367 1323 1262 1453 1579 1648 1700 1848 1897 1793 1717 1926 2079 2221 2176 2140 2097 1973 1750 1955 2200 2426 2297 1981 1779 1718 1662 1501 1732 1893 1999 2266 2257 2125 2202 2209 2078 1960 1847 1777 1625 1569 1710 1795 2088 1975 2226 2371 2168 1828 1635 1864 1988 2021 2227 2487 2522 2268 2086 1864 1765 1733 1880 2023 2264 2381 2307 2218 2094 2132 2135 2198 1913 1775 1748 2055 2206 1944 1859 1625 1475 1434 1421 1409 1388 1560 1628 1589 1802 2138 2277 2165 1974 1990 2092 2179 2106 1925 1794 1771 1759 1989 2023 1894 1817 1826 2035 2058 2083 2106 2141 1956 1838 1960 2120 2114 2121 2137 2207 2217 2350 2365 2035 1970 2357 2476 2391 2470 2570 2365 2006 2312 2660 2667 2749 2676 2635 2697 2501 2107 1926 2269 2314 2104 2034 1992 2017 1864 1695 1700 1665 1727 1686 1811 1805 1858 1985 2082 1974 1972 1976 2116 2179 1938 1914 2226 2142 1988 1904 1846 1869 1893 1905 1929 1974 1959 1826 1857 1844 1881 1786 1784 1810 1804 1826 1892 1978 2037 2055 2262 2236 2213 2208 2107 2130 2048 2087 2049 2097 2131 2132 1973 2148 2149 1987 2098 2076 2126 2244 2203 2224 2153 2037 1938 1947 1980 1951 1924 1953 1977 1990 1938 1950 1983 2079 2048 2150 2152 2095 2055 1979 1949 1964 1968 1992 2127 2408 2501 2707 2759 2802 2698 2283 2288 2633 2942 2921 2872 2886 2674 2630 2789 3031 2878 2882 2946 2930 2629 2366 2329 2777 3119 3408 3431 3022 2740 2394 2524 2794 2961 3226 3285 3328 3318 3144 3159 3265 3369 3470 3386 3243 2831 2437 2645 2752 2976 3160 3447 3757 3898 4016 3845 3476 3354 3012 2821 3018 3190 3447 3636 3793 3753 3631 3578 3605 3496 3392 3166 2889 2820 2727 2545 2708 2925 2990 3060 2752 2788 3097 3237 3441 3255 3079 2927 2999 2819 2603 2723 2783 2867 2969 2935 2999 2784 2983 3152 3185 3392 3483 3239 3080 2860 3096 3379 3236 3122 3268 3443 3786 3862 3828 4117 4244 4125 3843 3650 3347 3472 3612 3803 3469 3700 3805 4012 4168 3904 3762 3774 3685 3712 3881 3835 3550 3241 2902 2905 3232 3387 3547 3638 3761 3408 3653 3512 3281 3589 3444 3123 3030 3458 3489 3306 3311 3334 3574 3309 3472 3506 3578 3773 4001 4113 3850 3588 3823 3945 3733 3916 4095 4232 4342 -9999 4187 4057 3975 3750 3768 3935 4125 4247 4243 -9999 -9999 -9999 -9999 -9999 -9999 -9999 -9999 -9999 -9999 -9999 -9999 -9999 -9999 -9999 -9999 -9999 -9999 -9999 -9999 -9999 -9999 -9999 -9999 -9999 -9999 -9999 -9999 -9999 -9999 -9999
-9999 -9999 -9999 -9999 -9999 -9999 1739 1762 1743 1585 1525 1480 1421 1422 1487 1532 1605 1804 1772 1776 1737 1589 1495 1442 1472 1530 1625 1704 1639 1691 1681 1776 1824 1875 1801 1688 1586 1564 1633 1501 1485 1516 1325 1327 1494 1558 1620 1789 1896 2010 1925 1951 1884 2009 2127 2323 2301 2288 2138 1859 2070 2365 2380 2253 2052 1911 1807 1658 1624 1878 2146 2151 2275 2329 2321 2387 2376 2135 1975 1788 1728 1636 1795 1830 2000 2284 2353 2394 2475 2319 1874 1926 2266 2380 2516 2442 2665 2789 2640 2332 1942 1762 1939 2157 2375 2577 2678 2604 2565 2432 2545 2386 2109 1845 1723 1944 2218 2506 2249 2104 1859 1625 1526 1460 1418 1396 1495 1506 1624 1778 1961 2083 1976 1808 1745 1758 1760 1735 1778 1637 1756 1983 2039 1969 1695 1674 1894 1911 1888 1858 1886 1929 1871 1724 1778 1900 1866 1883 1902 1963 2062 2212 2083 1908 1979 2231 2204 2146 2316 2344 2201 1916 2244 2465 2431 2524 2422 2286 2335 2291 2078 1771 1800 1815 1793 1815 1762 1667 1664 1970 2022 1903 2008 1846 1923 1821 1783 1713 1703 1728 1702 1720 1732 1733 1859 1786 1806 1730 1841 1885 1898 1809 1739 1736 1743 1733 1752 1826 1790 1831 1853 1849 1983 2191 2284 2308 2371 2112 2384 2323 2371 2562 2455 2455 2602 2451 2235 2560 2356 2454 2605 2373 2013 2306 2475 2311 2254 2167 2115 2036 2221 2268 2279 2349 2338 2358 2314 2350 2244 2196 2187 2190 2185 2229 2287 2312 2198 2594 2692 2641 2579 2257 2260 2203 2227 2270 2381 2667 2713 3002 3097 2765 2567 2235 2566 2723 3068 3250 3349 2999 2974 2962 2895 3091 3305 3287 3243 3290 2984 2589 2383 2621 2778 3072 3260 3378 3045 2810 2548 2751 3136 3487 3591 3714 3670 3488 3515 3521 3687 3664 3342 3164 2712 2504 2870 3046 3331 3406 3522 3739 3891 3705 3347 3098 2953 2809 3026 3211 3233 3272 3476 3737 3612 3534 3257 3268 3195 3057 2840 2721 2576 2601 2799 3022 3258 3086 3218 2827 2813 3138 3281 3602 3428 3289 3326 3177 2792 2828 2976 3058 3031 3336 3401 3379 3024 3091 3272 3426 3649 3379 2985 2918 3087 3318 3558 3496 3328 3314 3508 3674 3815 3973 4059 4264 4154 3872 3554 3374 3634 3766 3998 3627 3682 3798 3990 4230 4099 4003 3801 3930 3831 3614 3479 3122 2916 3056 3222 3546 3807 3812 4018 4060 3618 3924 3735 3424 3707 3709 3278 3105 3468 3835 3796 3772 3803 3775 3637 3534 3676 3615 3870 4158 4078 3828 3739 3780 3831 3871 3924 -9999 -9999 -9999 -9999 4210 4125 4087 3963 3949 3999 4011 4146 4194 4315 -9999 -9999 -9999 -9999 -9999 -9999 -9999 -9999 -9999 -9999 -9999 -9999 -9999 -9999 -9999 -9999 -9999 -9999 -9999 -9999 -9999 -9999 -9999 -9999 -9999 -9999 -9999 -9999 -9999 -9999
-9999 -9999 -9999 -9999 -9999 -9999 1861 1828 1756 1613 1553 1510 1452 1467 1537 1577 1658 1759 1903 1784 1724 1616 1535 1478 1532 1544 1580 1661 1716 1810 1779 1856 1918 1878 1822 1805 1694 1725 1610 1567 1590 1583 1327 1310 1389 1428 1570 1661 1829 2003 2089 2177 2107 2031 2090 2361 2447 2202 2105 1931 2183 2295 2301 2301 2228 2069 1786 1648 1714 1981 2138 2268 2430 2521 2483 2355 2237 2062 1996 1895 1753 1823 2034 2104 2094 2297 2610 2622 2376 2217 1901 1827 2076 2237 2488 2841 2894 2733 2396 2376 1998 1808 1912 2088 2335 2500 2615 2972 2824 2771 2685 2371 2113 1799 1873 2147 2492 2649 2259 2043 1838 1936 1800 1673 1454 1390 1434 1505 1599 1664 1764 1647 1567 1500 1537 1521 1514 1523 1632 1672 1787 1793 1706 1720 1618 1727 1726 1717 1766 1736 1752 1681 1741 1702 1728 1732 1719 1735 1862 1744 1935 2064 1972 1748 1934 1980 1941 2111 2012 2052 2058 1828 2111 2131 2176 2220 2199 2159 1896 1796 1670 1626 1733 1761 1751 1708 1703 1870 1926 2154 2055 2238 2397 2376 2430 2123 2027 2070 1856 1836 1972 2127 2081 1940 1786 1826 1976 1986 2298 2395 2223 2125 2180 2042 1984 1970 2015 2051 2096 2209 2228 1989 1889 2249 2526 2700 2662 2297 2548 2633 2351 2492 2767 2560 2813 2653 2365 2670 2805 2806 2484 2129 2267 2570 2694 2776 2528 2381 2364 2312 2084 2402 2477 2656 2735 2772 2614 2675 2576 2691 2562 2393 2610 2503 2678 2693 2328 2505 2900 3022 2737 2504 2656 2477 2632 2625 2585 2672 2811 3247 3094 2757 2590 2258 2622 2985 3170 3324 3516 3396 3362 3340 3225 3376 3554 3655 3630 3437 3002 2573 2405 2617 2899 3272 3416 3493 3183 2764 2526 2693 2928 3164 3543 3726 3999 3650 3796 3940 3672 3412 3110 2971 2752 2533 2944 3156 3438 3579 3714 3723 3580 3278 3010 2923 3039 3249 3114 3466 3601 3491 3784 3625 3302 3188 3041 2924 2924 2747 2645 2812 2901 2870 3045 3261 3379 3325 3345 2973 2807 3146 3279 3576 3782 3493 3321 3024 2779 3045 3223 3232 3372 3392 3528 3372 3159 3335 3512 3600 3682 3341 2971 2986 3283 3443 3700 3694 3520 3366 3662 3717 3766 3953 4160 4075 3924 3661 3424 3523 3712 3807 4012 3750 3667 3818 4110 4198 4020 3926 3889 3703 3470 3131 3005 3032 3388 3093 3172 3669 3812 4009 4009 4151 3786 3946 3900 3647 3856 3726 3525 3307 3435 3766 4055 4014 3874 3916 3783 3752 3827 3703 3770 4010 4239 4108 3959 3879 3924 3973 4039 -9999 -9999 -9999 -9999 -9999 -9999 4157 4170 4261 4096 4138 4267 -9999 -9999 -9999 -9999 -9999 -9999 -9999 -9999 -9999 -9999 -9999 -9999 -9999 -9999 -9999 -9999 -9999 -9999 -9999 -9999 -9999 -9999 -9999 -9999 -9999 -9999 -9999 -9999 -9999 -9999 -9999 -9999
-9999 -9999 -9999 -9999 -9999 -9999 -9999 1756 1664 1592 1603 1583 1582 1490 1540 1585 1706 1828 1863 1816 1779 1667 1533 1556 1634 1688 1718 1699 1694 1783 1916 1847 1780 1784 1707 1751 1743 1650 1593 1537 1528 1542 1367 1342 1490 1525 1579 1634 1749 1974 2016 2249 2367 2330 2262 2387 2484 2363 2251 2056 2348 2468 2193 2080 1966 1855 1731 1651 1672 1842 2053 2208 2383 2435 2461 2493 2515 2362 2084 1905 1825 1886 2128 2152 2242 2457 2715 2532 2257 2247 2188 1922 2280 2381 2394 2742 2742 2559 2380 2055 1959 1906 1931 2231 2618 2967 3002 3087 2718 2426 2407 2348 1969 2047 2148 2478 2793 2521 2114 2092 2390 2367 2068 1958 1782 1478 1425 1423 1527 1458 1446 1414 1408 1430 1469 1447 1436 1448 1468 1519 1529 1545 1566 1577 1514 1569 1612 1543 1549 1552 1504 1498 1523 1533 1528 1519 1714 1720 1668 1660 1724 1733 1772 1672 1899 1798 1899 1786 1830 1837 1830 1759 1852 1932 1955 1961 1975 1920 1616 1644 1810 2069 2059 2007 2157 2133 2085 2150 2214 2323 2159 2459 2552 2770 2627 2286 2239 2435 2131 2235 2385 2457 2503 2173 1858 1849 2167 2397 2597 2703 2546 2543 2491 2430 2119 2268 2382 2365 2488 2605 2487 2155 1966 2124 2368 2668 2808 2535 2549 2867 2538 2578 2933 2795 3027 2883 2633 2857 3029 2850 2464 2135 2551 2810 2975 2959 2782 2560 2604 2534 2229 2191 2396 2680 2829 3009 3006 3028 2890 3056 2712 2595 2923 2787 3071 2994 2619 2409 2818 3023 2953 2853 2845 2694 2817 3009 3039 2977 2934 3247 2949 2625 2475 2289 2566 2914 3186 3325 3644 3829 3696 3554 3540 3730 3729 3890 3596 3203 2877 2582 2460 2811 3123 3425 3467 3046 2792 2560 2592 2882 3215 3474 3508 3578 3861 3959 3763 3828 3591 3232 3065 3068 2725 2611 2764 2851 3057 3275 3557 3451 3251 2973 3104 3232 3303 3592 3371 3536 3702 3826 3757 3543 3392 3364 3001 2737 2680 2743 3042 2945 3204 3289 3173 3442 3471 3478 3286 2898 2870 3078 3151 3337 3611 3540 3382 3104 2905 3220 3348 3536 3638 3684 3651 3502 3380 3609 3787 3825 3529 3282 3017 3038 3439 3778 3816 3861 3658 3458 3666 3929 3956 4113 4158 4031 3870 3542 3511 3736 3924 3920 4134 3890 3727 3843 4017 4210 4051 3909 3633 3305 3069 3089 3179 3485 3730 3303 3161 3461 3680 3897 3988 4149 4068 -9999 -9999 -9999 -9999 3579 3609 3539 3336 3622 3792 3860 4016 3935 3861 3883 3889 3856 3796 3898 -9999 -9999 4057 3996 4056 -9999 -9999 -9999 -9999 -9999 -9999 -9999 -9999 -9999 -9999 -9999 -9999 -9999 -9999 -9999 -9999 -9999 -9999 -9999 -9999 -9999 -9999 -9999 -9999 -9999 -9999 -9999 -9999 -9999 -9999 -9999 -9999 -9999 -9999 -9999 -9999 -9999 -9999 -9999 -9999 -9999 -9999 -9999 -9999 -9999 -9999
-9999 -9999 -9999 -9999 -9999 -9999 -9999 1844 1871 1696 1797 1831 1769 1824 1581 1682 1754 1857 1818 1709 1661 1614 1578 1709 1782 1896 1904 1859 1799 1886 1870 1803 1709 1675 1686 1635 1610 1584 1545 1513 1478 1546 1318 1434 1597 1721 1867 1754 1803 1900 2010 2210 2351 2586 2642 2658 2530 2329 2199 2214 2475 2455 2205 2104 2018 1910 1752 1757 1729 1889 2195 2246 2267 2276 2315 2393 2450 2440 2243 2074 1973 2214 2128 2399 2568 2716 2956 2739 2589 2454 2147 2078 2239 2336 2647 2935 2698 2527 2352 2423 2246 2003 2189 2571 2796 2892 3033 2972 2727 2516 2239 2108 2128 2351 2445 2844 3001 2591 2339 2392 2702 2522 2420 2332 1912 1728 1563 1511 1406 1484 1519 1556 1602 1653 1714 1762 1771 1755 1662 1561 1555 1526 1496 1486 1596 1648 1580 1635 1608 1646 1722 1767 1766 1744 1811 1671 1535 1516 1539 1600 1594 1586 1584 1587 1578 1624 1596 1560 1540 1593 1633 1686 1719 1797 1801 1801 1816 1650 1691 1821 2057 2267 2302 2170 2226 2476 2501 2484 2513 2379 2374 2610 2717 2835 2781 2568 2540 2577 2529 2502 2708 2664 2276 1923 1985 2072 2193 2260 2528 2712 2865 2993 2789 2616 2300 2455 2694 2775 2865 2912 2572 2308 2118 2125 2545 2815 2926 2794 2620 2987 2769 2715 3022 3056 3192 3094 3004 3095 2896 2737 2374 2134 2418 2774 2974 3079 2771 2784 2892 2783 2521 2185 2131 2326 2609 2831 3105 3208 3299 3300 2968 2896 3020 3156 3154 2984 2659 2446 2720 2891 3295 3259 3129 2981 3011 3382 3458 3186 3233 3317 2948 2838 2656 2388 2773 3042 3301 3328 3567 3921 3834 3804 3791 3878 3826 3712 3549 3337 3078 2735 2519 2802 3162 3489 3472 3051 2599 2817 2899 3068 3333 3597 3848 3936 3926 3754 3559 3397 3410 3062 2772 2684 2577 2914 3138 3238 3223 3566 3588 3229 3073 3131 3267 3555 3514 3737 3580 3608 3775 3797 3496 3274 3132 3058 2915 2776 3011 3129 3294 3231 3375 3431 3499 3640 3519 3284 3124 2863 2964 3248 3362 3523 3722 3662 3523 3145 3002 3309 3455 3810 3909 4123 3860 3659 3646 3845 4034 3899 3584 3305 3094 3118 3491 3878 3939 3998 3793 3560 3703 3879 4026 3935 3799 3714 3632 3556 3740 3814 3914 3958 4129 3873 3800 3877 4102 3980 3686 3564 3293 3074 3187 3419 3478 3785 3753 3355 3242 3601 3937 3998 4010 4079 -9999 -9999 -9999 -9999 -9999 -9999 -9999 3687 3498 3554 3730 3812 3891 3990 -9999 -9999 -9999 -9999 -9999 -9999 -9999 -9999 -9999 -9999 -9999 -9999 -9999 -9999 -9999 -9999 -9999 -9999 -9999 -9999 -9999 -9999 -9999 -9999 -9999 -9999 -9999 -9999 -9999 -9999 -9999 -9999 -9999 -9999 -9999 -9999 -9999 -9999 -9999 -9999 -9999 -9999 -9999 -9999 -9999 -9999 -9999 -9999 -9999 -9999 -9999 -9999 -9999 -9999 -9999 -9999 -9999
-9999 -9999 -9999 -9999 -9999 -9999 -9999 -9999 1896 1948 1910 1991 1933 2068 1735 1808 1815 1872 1832 1721 1699 1626 1644 1799 1893 2033 2046 1924 1904 1935 1955 1865 1752 1694 1623 1599 1564 1555 1506 1484 1452 1479 1306 1387 1560 1722 2021 1900 1874 1894 1977 2219 2399 2524 2575 2674 2442 2268 2250 2275 2517 2484 2248 2204 2118 1994 1829 1812 1741 1954 2188 2277 2285 2271 2311 2401 2447 2524 2386 2215 2059 2306 2291 2381 2567 2821 3031 2948 2512 2342 2076 2197 2447 2465 2624 3011 2772 2604 2540 2621 2282 2045 2097 2419 2577 2871 3064 3025 2630 2446 2306 2243 2413 2528 2636 2926 3040 2641 2615 2588 2806 2683 2489 2309 1949 1986 1719 1626 1463 1427 1447 1620 1760 1847 1925 2007 2039 1948 1799 1783 1773 1758 1681 1706 1831 1828 1778 1833 1781 1864 1955 1837 1961 1921 1921 1760 1619 1610 1543 1522 1559 1560 1561 1538 1603 1540 1540 1596 1569 1568 1598 1669 1694 1758 1759 1740 1680 1593 1723 1812 2000 2301 2444 2286 2354 2593 2709 2623 2546 2323 2394 2584 2668 2878 2745 2596 2661 2708 2709 2680 2771 2595 2266 1894 2027 2168 2335 2453 2618 2763 3045 3138 2894 2712 2334 2539 2867 2989 3011 2817 2608 2300 2094 2135 2402 2646 2792 2943 2691 3017 2823 2788 3064 3205 3316 3279 3178 3030 2760 2665 2376 2176 2461 2722 2898 3076 2802 2825 2893 2859 2532 2174 2208 2294 2437 2668 2936 3026 3285 3354 3183 3151 3197 3316 3123 3017 2757 2508 2798 2929 3340 3488 3306 3187 3107 3454 3561 3384 3405 3293 3154 2832 2627 2446 2851 3191 3392 3536 3587 3818 4005 3963 3937 3878 3754 3575 3304 3102 2934 2643 2523 2867 3245 3512 3452 3094 2637 2892 3096 3163 3335 3561 3815 3890 3803 3554 3485 3291 3254 3118 2817 2618 2717 3029 3293 3401 3406 3552 3458 3128 3105 3241 3399 3644 3704 3796 3682 3641 3782 3688 3476 3287 3110 2995 2838 2837 2990 3117 3394 3439 3523 3637 3716 3642 3446 3246 3180 2896 3009 3264 3396 3651 3845 3672 3508 3190 3052 3395 3563 3927 3969 4043 4065 3886 3765 3991 4094 3979 3668 3385 3146 3191 3670 4075 4245 4164 3941 3631 3874 4143 4151 3870 3749 3654 3614 3617 3827 3889 4161 4176 4048 3880 3859 3917 4129 3903 3654 3480 3183 3150 3379 3616 3610 3786 3829 3387 3286 3612 3847 3945 4009 4150 -9999 -9999 -9999 -9999 -9999 -9999 -9999 -9999 3582 3716 3831 3932 4097 -9999 -9999 -9999 -9999 -9999 -9999 -9999 -9999 -9999 -9999 -9999 -9999 -9999 -9999 -9999 -9999 -9999 -9999 -9999 -9999 -9999 -9999 -9999 -9999 -9999 -9999 -9999 -9999 -9999 -9999 -9999 -9999 -9999 -9999 -9999 -9999 -9999 -9999 -9999 -9999 -9999 -9999 -9999 -9999 -9999 -9999 -9999 -9999 -9999 -9999 -9999 -9999 -9999 -9999 -9999 -9999 -9999 -9999
-9999 -9999 -9999 -9999 -9999 -9999 -9999 -9999 2203 2241 2277 2315 2298 2073 2223 2152 2105 2049 1862 1925 1942 1733 1765 1981 2135 2220 2258 2254 2260 2207 2130 1960 1836 1748 1651 1623 1607 1594 1578 1522 1486 1423 1365 1497 1611 1635 1929 2205 2131 2122 2098 2140 2263 2444 2513 2625 2529 2549 2544 2393 2575 2704 2644 2651 2369 2064 2078 1956 1783 1813 1902 1980 2070 2275 2340 2473 2546 2777 2755 2404 2240 2589 2720 2739 2768 2858 3112 3189 2891 2774 2265 2405 2554 2653 2908 3223 2898 2808 2962 2712 2392 2247 2201 2389 2586 2831 2970 3018 2788 2503 2353 2341 2459 2662 2807 3078 3231 3032 3057 3096 2923 2570 2420 2341 2337 2371 2127 2038 1878 1772 1518 1605 1706 1952 1951 2074 2099 2135 2293 2284 2245 2169 2074 2141 2288 2210 2085 2306 2144 2236 2199 2127 2375 2314 2287 2142 2041 2006 1874 1627 1713 1640 1639 1651 1733 1815 1741 1719 1657 1603 1563 1607 1618 1679 1655 1627 1587 1634 1851 2001 2196 2295 2644 2558 2721 2896 2910 2785 2624 2358 2535 2771 2874 3052 2800 2858 2914 2825 2696 2668 2642 2505 2114 1937 2294 2362 2385 2588 2808 2895 2975 3018 2685 2565 2497 2648 2960 3141 2952 2658 2424 2067 2059 2256 2325 2474 2643 2973 3010 3057 3174 3168 3266 3396 3364 3274 3216 2911 2629 2458 2222 2362 2735 3043 3167 3054 3083 3130 3100 2827 2475 2172 2341 2671 2718 2667 2797 2856 3037 3372 3480 3473 3482 3369 3163 3021 2707 2737 3051 3223 3445 3713 3692 3458 3389 3585 3791 3650 3761 3533 3178 2851 2622 2540 2878 3234 3626 3710 3774 3903 3709 3619 3669 3448 3478 3518 3204 2945 2799 2592 2725 3049 3312 3112 3031 2780 2639 3005 3181 3492 3687 3859 3761 3625 3354 3385 3211 3170 3076 2843 2623 2671 2971 3121 3260 3365 3601 3528 3252 3107 3166 3332 3473 3632 3783 4081 3890 3740 3821 3681 3358 3080 2959 3013 2779 3130 3346 3200 3472 3757 3925 3996 3985 3700 3443 3213 3133 2908 2989 3351 3525 3798 4028 4045 3816 3389 3176 3428 3592 3842 4110 4215 4294 4259 3920 3962 4230 4230 3828 3435 3232 3251 3563 3981 4422 4573 4336 3842 3923 4294 4217 4032 3999 3986 3895 3876 3875 4008 4144 4070 4000 3901 3827 3776 3726 3770 3436 3300 3239 3429 3735 3869 3777 3987 3861 3579 3450 3639 3926 3988 -9999 -9999 -9999 -9999 -9999 -9999 -9999 -9999 -9999 -9999 3924 3877 4085 -9999 -9999 -9999 -9999 -9999 -9999 -9999 -9999 -9999 -9999 -9999 -9999 -9999 -9999 -9999 -9999 -9999 -9999 -9999 -9999 -9999 -9999 -9999 -9999 -9999 -9999 -9999 -9999 -9999 -9999 -9999 -9999 -9999 -9999 -9999 -9999 -9999 -9999 -9999 -9999 -9999 -9999 -9999 -9999 -9999 -9999 -9999 -9999 -9999 -9999 -9999 -9999 -9999 -9999 -9999 -9999 -9999 -9999 -9999 -9999
-9999 -9999 -9999 -9999 -9999 -9999 -9999 2373 2369 2474 2425 2474 2275 1998 2171 2298 2328 2149 2093 2137 2171 2017 1804 1941 2002 2125 2228 2308 2270 2153 2143 2112 1949 1858 1693 1584 1545 1527 1499 1483 1423 1349 1435 1611 1682 1643 1777 1950 2160 2298 2302 2318 2340 2512 2602 2792 2887 2915 2848 2656 2761 2967 2754 2645 2282 2474 2239 2141 1868 2093 2215 2202 2189 2150 2224 2463 2626 3008 2992 2591 2433 2784 3088 3258 3247 3406 3420 3118 2703 2500 2311 2565 2866 3006 3312 3418 3212 3251 2960 2734 2382 2187 2485 2732 2809 2964 3123 3093 2832 2564 2702 2831 2584 2856 2875 3173 3238 2996 3034 2963 2899 2867 2819 2765 2751 2712 2547 2348 1944 1577 1493 1643 1600 1694 1692 1712 1734 1808 2029 2335 2447 2637 2607 2614 2653 2472 2371 2591 2619 2613 2244 2364 2659 2719 2703 2583 2420 2224 1776 1897 2203 2098 2056 2138 1987 2190 2038 2200 2147 2052 2008 1754 1618 1583 1607 1734 1682 1836 2031 2159 2395 2637 2795 2828 2802 2887 2890 2736 2633 2478 2673 2796 2869 3065 2881 2828 2776 2718 2495 2443 2469 2379 2165 1964 2317 2469 2593 2651 2746 2843 2933 3092 2903 2811 2844 2981 2984 2930 2933 2872 2512 2087 2207 2530 2728 2749 2813 3044 3129 3258 3268 3257 3244 3179 3128 3001 2832 2722 2444 2298 2353 2514 2567 2861 3055 3250 3246 3147 2944 2628 2406 2188 2352 2638 2933 3136 3212 3211 3083 3233 3381 3426 3282 3010 2954 2916 2642 2931 3028 3072 3288 3445 3659 3757 3750 3755 3797 3741 3760 3519 3176 2865 2648 2610 2876 3050 3241 3280 3527 3680 3485 3302 3325 3174 3063 3163 3122 2770 2604 2784 2917 3171 2937 2704 2681 2781 2809 2894 2956 3157 3329 3454 3621 3483 3249 3024 3055 2958 2782 2661 2690 2815 3096 3422 3581 3617 3738 3445 3147 3239 3397 3697 3602 3638 3839 4246 4113 3920 3805 3549 3184 3101 3383 3314 2853 3197 3588 3589 3672 3968 3957 4123 4105 3911 3574 3419 3409 3188 2906 3187 3308 3511 3810 4083 4164 3780 3417 3372 3448 3700 3868 3937 4037 4096 4208 4224 4321 4325 3997 3594 3298 3307 3563 4092 4354 4431 4322 4298 4373 -9999 -9999 -9999 -9999 -9999 4142 3960 3984 4209 4000 3955 3865 3820 3898 3896 3652 3418 3351 3336 3470 3698 3888 3991 4028 4137 4015 3732 3675 3907 3992 -9999 -9999 -9999 -9999 -9999 -9999 -9999 -9999 -9999 -9999 -9999 -9999 -9999 -9999 -9999 -9999 -9999 -9999 -9999 -9999 -9999 -9999 -9999 -9999 -9999 -9999 -9999 -9999 -9999 -9999 -9999 -9999 -9999 -9999 -9999 -9999 -9999 -9999 -9999 -9999 -9999 -9999 -9999 -9999 -9999 -9999 -9999 -9999 -9999 -9999 -9999 -9999 -9999 -9999 -9999 -9999 -9999 -9999 -9999 -9999 -9999 -9999 -9999 -9999 -9999 -9999 -9999 -9999 -9999 -9999 -9999 -9999 -9999 -9999
-9999 -9999 -9999 -9999 -9999 -9999 2506 2433 2567 2651 2609 2514 2424 2277 2148 2202 2385 2284 2247 2231 2198 2021 1945 2022 2057 2186 2362 2409 2389 2170 1901 1877 1817 1798 1631 1545 1486 1472 1479 1473 1383 1356 1380 1479 1532 1556 1639 1772 1900 2041 2153 2345 2527 2564 2526 2672 2884 3196 3157 3090 3180 3142 2772 2651 2549 2730 2423 2243 2024 2302 2694 2597 2513 2675 2433 2523 2706 3047 3116 2983 2840 2797 3010 3398 3470 3622 3326 2978 2661 2601 2821 2626 2657 2787 3181 3506 3333 3313 3066 2706 2320 2350 2453 2537 2780 3082 3281 3338 3102 2789 2926 3130 2925 3021 3213 3328 2957 2717 2551 2514 2387 2453 2637 2643 2743 2767 2526 2327 1902 1511 1768 1892 1942 2171 2006 2215 2251 2019 1817 2105 2264 2391 2526 2658 2819 2830 2722 2912 2870 2646 2495 2753 2892 2810 2709 2363 2203 2130 1740 2007 2382 2522 2565 2468 2264 2539 2382 2405 2594 2486 2363 2259 2111 2096 2093 2039 1721 2057 2288 2282 2272 2434 2548 2602 2699 2961 2850 2668 2600 2569 2775 3035 3123 3035 2718 2434 2376 2398 2554 2277 2284 2289 2046 2011 2183 2243 2364 2575 2847 2986 3175 3260 3211 3191 3049 2866 2783 2715 2665 2657 2395 2105 2205 2506 2719 2787 2813 2849 3006 3139 3190 3079 3029 2996 2918 2888 2742 2475 2301 2373 2526 2867 2957 3078 3135 3111 3008 2934 2944 2840 2452 2267 2489 2785 2825 2832 2784 2754 2986 3198 3246 3305 3386 3212 3034 2920 2703 2949 3288 3331 3235 3379 3562 3568 3507 3440 3431 3462 3412 3432 3099 2702 2540 2619 2866 2998 3148 3235 3497 3416 3194 3264 3011 3144 2843 2883 2830 2622 2897 3132 3115 2807 2744 2916 3044 3067 3171 3242 3195 3190 3308 3580 3512 3348 3067 2889 2737 2736 2911 2961 2729 2875 3295 3568 3733 3877 3674 3351 3168 3449 3667 3997 3837 3689 3812 4291 4426 4097 3882 3502 3116 3432 3643 3425 2963 3212 3570 3764 3813 4038 4095 4192 4194 3858 3691 3891 3854 3392 2950 3285 3438 3795 3796 3889 3915 4109 3752 3664 3713 3860 3878 4014 4105 4235 4453 4473 4242 4144 3904 3695 3371 3361 3544 3823 3979 4084 4132 4352 -9999 -9999 -9999 -9999 -9999 -9999 -9999 4215 4450 4082 4092 4220 4173 4112 4377 4249 3830 3425 3405 3461 3938 3880 3922 4161 4172 4073 3962 3803 3804 -9999 -9999 -9999 -9999 -9999 -9999 -9999 -9999 -9999 -9999 -9999 -9999 -9999 -9999 -9999 -9999 -9999 -9999 -9999 -9999 -9999 -9999 -9999 -9999 -9999 -9999 -9999 -9999 -9999 -9999 -9999 -9999 -9999 -9999 -9999 -9999 -9999 -9999 -9999 -9999 -9999 -9999 -9999 -9999 -9999 -9999 -9999 -9999 -9999 -9999 -9999 -9999 -9999 -9999 -9999 -9999 -9999 -9999 -9999 -9999 -9999 -9999 -9999 -9999 -9999 -9999 -9999 -9999 -9999 -9999 -9999 -9999 -9999 -9999 -9999 -9999
-9999 -9999 -9999 -9999 -9999 -9999 2560 2515 2675 2754 2669 2610 2536 2388 2264 2195 2344 2393 2426 2324 2251 2059 1970 2030 2099 2278 2449 2509 2466 2252 1958 1742 1678 1656 1593 1628 1580 1491 1467 1435 1396 1366 1415 1395 1472 1514 1549 1712 1845 2021 2138 2349 2513 2462 2513 2727 2998 3244 3300 3334 3379 3228 2886 2831 2694 2841 2530 2417 2149 2375 2860 2869 2793 2779 2637 2441 2569 3014 3255 3189 3063 3055 3072 3385 3491 3603 3388 3093 2717 2697 3050 2891 2720 2819 3133 3523 3305 3221 3086 2715 2404 2542 2647 2705 2792 3072 3257 3409 3089 2883 2916 3262 3137 3156 3326 3312 3039 2802 2658 2549 2518 2248 2338 2353 2535 2587 2419 2240 1853 1474 1819 2161 2206 2355 2176 2363 2455 2224 1901 2001 2104 2162 2298 2487 2814 2932 2947 3073 2863 2676 2726 2928 2770 2624 2575 2301 1980 1909 1764 2129 2504 2674 2682 2616 2437 2639 2442 2468 2750 2642 2589 2496 2299 2186 2040 1887 1813 2144 2504 2537 2492 2552 2673 2671 2826 2940 2872 2783 2707 2659 2747 2968 3105 2952 2817 2547 2398 2241 2465 2322 2191 2201 2001 2008 2147 2203 2361 2596 2882 2964 3132 3183 3239 3227 2990 2828 2713 2646 2615 2531 2466 2147 2176 2444 2586 2668 2689 2805 2965 3107 3183 3056 2950 2894 2827 2726 2578 2380 2400 2474 2656 2770 2884 3071 3185 3095 2915 2829 2823 2801 2497 2296 2489 2590 2584 2652 2661 2805 3041 3098 3249 3346 3469 3206 3037 2945 2738 3072 3275 3265 3380 3417 3565 3510 3411 3330 3262 3342 3239 3239 2947 2602 2489 2702 2976 3204 3295 3369 3496 3369 3086 3034 3017 2917 2787 2730 2635 2727 2966 3116 2986 2739 2923 2989 3086 3285 3251 3453 3397 3279 3438 3677 3480 3343 3130 2813 2824 2931 3129 3183 2799 2871 3345 3748 3923 4051 3802 3377 3192 3544 3710 4086 3954 3739 3787 4286 4267 3962 3790 3455 3155 3606 3614 3366 2963 3247 3588 3753 3957 3936 4294 4425 4172 3846 3850 4025 3823 3333 2990 3218 3370 3713 4026 4103 4012 4157 3920 3713 3821 3879 3948 4156 4268 4405 4633 4454 4327 4245 4040 3811 3436 3383 3441 3790 3975 4111 4209 -9999 -9999 -9999 -9999 -9999 -9999 -9999 -9999 -9999 4544 4179 4174 4223 4045 3955 4149 4040 3668 3451 3453 3596 3953 4096 4000 4145 -9999 4163 4036 3872 3913 -9999 -9999 -9999 -9999 -9999 -9999 -9999 -9999 -9999 -9999 -9999 -9999 -9999 -9999 -9999 -9999 -9999 -9999 -9999 -9999 -9999 -9999 -9999 -9999 -9999 -9999 -9999 -9999 -9999 -9999 -9999 -9999 -9999 -9999 -9999 -9999 -9999 -9999 -9999 -9999 -9999 -9999 -9999 -9999 -9999 -9999 -9999 -9999 -9999 -9999 -9999 -9999 -9999 -9999 -9999 -9999 -9999 -9999 -9999 -9999 -9999 -9999 -9999 -9999 -9999 -9999 -9999 -9999 -9999 -9999 -9999 -9999 -9999 -9999 -9999 -9999
-9999 -9999 -9999 -9999 -9999 -9999 2730 2709 2748 2994 2911 2844 2626 2537 2463 2393 2467 2610 2530 2308 2199 2023 2114 2067 2130 2355 2651 2519 2357 2110 1910 2013 1873 1861 1827 1797 1788 1767 1653 1449 1412 1530 1727 1580 1447 1423 1527 1731 1789 2009 2104 2352 2287 2463 2575 2794 2764 2882 2861 2939 3288 3604 3385 3297 3131 3231 3045 2922 2510 2421 2778 2993 3281 3126 3065 2765 2736 2704 2915 3210 3379 3489 3551 3585 3630 3824 3610 3230 2872 2992 3267 3355 2992 3102 3386 3667 3419 3228 3039 2932 2603 2745 3106 2997 3045 3240 3341 3539 3276 3225 3216 3258 3552 3460 3571 3516 3178 2992 3018 2958 2662 2377 2114 2038 2120 2153 2225 2209 1751 1547 1839 2066 2228 2565 2578 2759 2712 2388 2117 1995 2117 2461 2488 2422 2698 2886 3173 3231 2963 2979 3172 2900 2492 2327 2246 2020 1840 1908 1819 2128 2333 2488 2613 2737 2873 2925 2744 2792 3037 2951 2870 2585 2272 2089 1849 1801 2148 2335 2378 2429 2691 2963 3035 3007 3146 3177 3224 2986 2843 3010 3030 3072 2935 2646 2600 2374 2401 2176 2086 2060 2014 1999 1983 2182 2362 2402 2480 2609 2740 2827 2884 2983 3116 3187 2993 3034 2854 2598 2492 2357 2278 2159 2206 2381 2450 2535 2600 2720 2819 3023 3263 3161 2922 2719 2676 2662 2370 2580 2771 2796 2834 2895 2993 3206 3301 3140 2991 2764 2654 2416 2366 2234 2323 2548 2635 2753 2632 2651 2854 3030 3226 3345 3529 3283 3246 3190 2855 2931 3170 3292 3424 3597 3450 3389 3295 3084 3035 3103 3119 2875 2690 2612 2686 2862 3072 3361 3483 3332 3155 2987 2833 2749 2704 2710 2741 2817 2918 3087 3123 2810 2784 3008 2974 3255 3329 3341 3555 3731 3640 3462 3629 3808 3467 3356 3032 2777 3105 3254 3437 3384 2963 2934 3253 3596 4114 4318 3969 3470 3321 3625 3902 4343 4305 4090 4097 4313 3969 3654 3462 3292 3486 3826 3487 3261 2967 3122 3335 3468 3823 4015 4122 4257 4401 4147 3920 3622 3462 3197 3284 3594 3536 3661 4007 4301 4181 4154 4089 3959 3888 4087 -9999 -9999 -9999 -9999 -9999 -9999 4722 4604 4245 4003 3804 3544 3646 3890 4042 4125 -9999 -9999 -9999 -9999 -9999 -9999 -9999 -9999 -9999 -9999 -9999 4507 4212 4088 3924 3714 3606 3566 3524 3509 3668 3800 3946 -9999 -9999 -9999 -9999 -9999 -9999 -9999 -9999 -9999 -9999 -9999 -9999 -9999 -9999 -9999 -9999 -9999 -9999 -9999 -9999 -9999 -9999 -9999 -9999 -9999 -9999 -9999 -9999 -9999 -9999 -9999 -9999 -9999 -9999 -9999 -9999 -9999 -9999 -9999 -9999 -9999 -9999 -9999 -9999 -9999 -9999 -9999 -9999 -9999 -9999 -9999 -9999 -9999 -9999 -9999 -9999 -9999 -9999 -9999 -9999 -9999 -9999 -9999 -9999 -9999 -9999 -9999 -9999 -9999 -9999 -9999 -9999 -9999 -9999 -9999 -9999 -9999 -9999 -9999 -9999 -9999 -9999 -9999 -9999
-9999 -9999 -9999 -9999 -9999 -9999 -9999 3064 3055 3083 3076 3047 2995 2817 2574 2483 2658 2719 2517 2388 2284 2179 2256 2196 2279 2459 2671 2297 2166 2065 2232 2353 2210 2207 1965 2156 2135 2087 1822 1513 1532 1732 1944 1859 1626 1573 1498 1547 1593 1704 1831 2088 2038 2221 2243 2297 2473 2492 2498 2795 3139 3479 3799 3812 3755 3494 3130 2942 2646 2376 2812 3081 3521 3613 3376 3164 3092 3087 3022 3153 3249 3452 3654 3864 4015 4100 3618 3228 3197 3442 3826 3523 3259 3282 3661 3739 3360 3178 3377 3414 2919 2865 3357 3342 3462 3615 3730 3695 3492 3559 3567 3641 3658 3609 3682 3591 3479 3427 3140 2971 2685 2563 2462 2344 2028 1850 1712 1700 1700 1581 1857 1814 1992 2374 2677 2840 2705 2429 2320 2015 2037 2450 2736 2755 2750 2811 3099 3428 3341 3288 3202 2968 2582 2391 2016 2234 1986 2189 2163 1917 2058 2260 2238 2401 2671 3007 3093 3179 3036 2837 2723 2714 2575 2422 2024 1857 1910 1981 1988 2078 2430 2827 3148 3231 3337 3517 3466 3210 3232 3293 3216 2849 2697 2438 2210 2104 2102 2228 2328 2278 2092 1985 2129 2218 2295 2353 2358 2495 2628 2681 2857 3112 3094 3038 2852 2800 2766 2650 2576 2347 2282 2410 2479 2518 2617 2551 2669 2930 3073 3147 3304 3172 2966 2730 2558 2499 2377 2484 2582 2630 2711 2916 3068 3196 3232 3054 2940 2800 2704 2667 2472 2248 2353 2506 2710 2898 3052 2996 2902 2894 3184 3359 3528 3626 3362 3217 3037 3007 3220 3337 3556 3397 3129 3215 3212 3138 2882 2768 2836 2618 2581 2882 2977 2992 3319 3549 3381 3233 2905 2740 2927 3006 3077 3166 2975 3132 3176 3245 2854 2917 3079 3184 3209 3134 3237 3561 3842 3876 3812 3621 3827 3759 3429 3283 2954 2881 3270 3463 3733 3449 3053 2977 3415 3859 4297 4391 3976 3573 3382 3813 3977 4241 4699 4672 4539 4291 4036 3612 3428 3503 3858 3682 3245 3098 3242 3482 3215 3281 3702 4093 4225 4216 4341 4087 3996 3817 3605 3413 3748 3944 3785 3752 3943 4138 4261 4291 4293 -9999 -9999 -9999 -9999 -9999 -9999 -9999 -9999 -9999 4799 4599 4228 4098 4005 3967 3898 4066 4165 -9999 -9999 -9999 -9999 -9999 -9999 -9999 -9999 -9999 -9999 -9999 -9999 4739 4269 4053 3854 3758 3622 3599 3680 3877 4056 4120 -9999 -9999 -9999 -9999 -9999 -9999 -9999 -9999 -9999 -9999 -9999 -9999 -9999 -9999 -9999 -9999 -9999 -9999 -9999 -9999 -9999 -9999 -9999 -9999 -9999 -9999 -9999 -9999 -9999 -9999 -9999 -9999 -9999 -9999 -9999 -9999 -9999 -9999 -9999 -9999 -9999 -9999 -9999 -9999 -9999 -9999 -9999 -9999 -9999 -9999 -9999 -9999 -9999 -9999 -9999 -9999 -9999 -9999 -9999 -9999 -9999 -9999 -9999 -9999 -9999 -9999 -9999 -9999 -9999 -9999 -9999 -9999 -9999 -9999 -9999 -9999 -9999 -9999 -9999 -9999 -9999 -9999 -9999 -9999 -9999
-9999 -9999 -9999 -9999 -9999 -9999 -9999 -9999 3076 3016 2943 2905 2827 2798 2717 2752 2765 2687 2575 2428 2325 2425 2393 2473 2539 2717 2526 2245 2095 2249 2480 2599 2369 2234 2262 2446 2421 2235 1936 1679 1506 1662 1930 2044 1855 1780 1718 1897 1920 1667 1606 1717 1852 1895 1923 2010 2261 2506 2687 3058 3291 3423 3610 3630 3687 3720 3343 3196 2851 2590 3002 3177 3476 3652 3639 3591 3623 3457 3354 3536 3436 3586 3694 3870 4009 4046 3656 3303 3645 3805 4184 3899 3546 3485 3702 3918 3498 3362 3640 3400 3036 3072 3514 3737 3605 4007 4122 3758 3577 3402 3325 3491 3368 3276 3317 3379 3439 3493 3304 3230 3039 2975 2664 2535 2403 2170 2079 1947 1656 1568 2090 2116 2037 2030 2280 2576 2667 2776 2486 2216 2060 2297 2528 2880 3042 3145 3237 3359 3039 2925 2710 2584 2382 2193 2316 2450 2138 2364 2500 2329 2218 2069 2246 2478 2668 2773 2885 3187 3239 2943 2951 2936 2580 2269 2336 2255 1944 1997 2277 2106 2259 2570 2812 3004 3278 3278 3384 3330 3201 2962 3005 2792 2600 2262 2275 2534 2585 2655 2631 2744 2445 2275 2018 2314 2602 2683 2704 2864 2998 2995 3018 3178 2953 2790 2677 2577 2507 2468 2444 2261 2523 2753 2843 2919 2982 2861 2781 2827 3008 3236 3412 3313 3075 2918 2758 2623 2451 2745 2861 2939 2975 2897 3151 3270 3186 3086 2919 2787 2728 2574 2367 2273 2396 2613 2708 2863 3007 3111 3274 3192 3100 3131 3426 3579 3275 3305 3345 3226 3426 3487 3516 3466 3280 3064 2953 2818 2768 2605 2594 2642 2864 2951 3145 3372 3408 3439 3085 2923 2773 3026 3008 3134 3409 3439 3323 3289 3399 3054 2836 3045 3154 3458 3530 3326 3386 3606 3950 4033 3952 3768 4086 3805 3565 3417 2909 3015 3560 3732 3855 3507 3150 3081 3521 3938 4430 4365 4142 3716 3479 3878 4093 4493 4938 4729 4508 4235 3815 3669 3653 3798 3994 3498 3156 3214 3533 3791 3492 3360 3508 3872 4215 4396 4393 4301 4288 4006 3831 3613 3968 -9999 4266 3941 3902 4005 4072 4227 -9999 -9999 -9999 -9999 -9999 -9999 -9999 -9999 -9999 -9999 -9999 4670 4267 4189 4404 4389 4303 4274 -9999 -9999 -9999 -9999 -9999 -9999 -9999 -9999 -9999 -9999 -9999 -9999 -9999 -9999 -9999 -9999 -9999 -9999 3864 3791 3885 -9999 -9999 -9999 -9999 -9999 -9999 -9999 -9999 -9999 -9999 -9999 -9999 -9999 -9999 -9999 -9999 -9999 -9999 -9999 -9999 -9999 -9999 -9999 -9999 -9999 -9999 -9999 -9999 -9999 -9999 -9999 -9999 -9999 -9999 -9999 -9999 -9999 -9999 -9999 -9999 -9999 -9999 -9999 -9999 -9999 -9999 -9999 -9999 -9999 -9999 -9999 -9999 -9999 -9999 -9999 -9999 -9999 -9999 -9999 -9999 -9999 -9999 -9999 -9999 -9999 -9999 -9999 -9999 -9999 -9999 -9999 -9999 -9999 -9999 -9999 -9999 -9999 -9999 -9999 -9999 -9999 -9999 -9999 -9999 -9999 -9999 -9999 -9999
-9999 -9999 -9999 -9999 -9999 -9999 -9999 -9999 -9999 3031 2924 2891 2813 2786 2771 2837 2786 2718 2664 2475 2438 2595 2546 2702 2740 2720 2428 2213 2162 2390 2582 2549 2289 2254 2455 2449 2328 2197 1970 1677 1499 1627 1931 2153 1948 1875 1852 2068 2069 1910 1792 1679 1792 1852 1896 2162 2300 2570 2687 3004 3255 3335 3468 3532 3524 3610 3507 3438 3244 2861 2945 3128 3280 3437 3525 3687 3674 3555 3371 3630 3519 3454 3644 3860 3951 4002 3719 3437 3615 3781 4030 3975 3631 3593 3784 3905 3585 3466 3701 3391 3085 3195 3655 3763 3700 3936 4112 3838 3474 3184 3096 3269 3277 3051 3083 3204 3290 3303 3220 3097 3078 3016 2832 2722 2571 2433 2037 1870 1505 1666 2076 2339 2309 2214 2156 2377 2466 2778 2614 2223 2093 2217 2399 2671 2850 2938 3134 3342 2988 2830 2561 2376 2276 2159 2443 2430 2250 2485 2690 2453 2431 2206 2106 2266 2452 2603 2717 3034 3304 3058 3109 3067 2738 2480 2516 2423 2159 2004 2389 2320 2175 2439 2871 3053 3051 3078 3324 3274 3101 2828 2856 2711 2566 2195 2377 2685 2794 2920 2816 2857 2530 2376 2063 2285 2642 2820 2965 3056 3194 3200 3215 3198 2952 2803 2835 2763 2618 2689 2631 2263 2491 2745 2875 3015 3123 3016 2908 2939 3023 3274 3325 3264 3029 2767 2586 2516 2546 2871 3041 3137 3158 3048 3158 3212 3173 3117 2916 2700 2604 2479 2328 2314 2413 2602 2781 2953 3104 3162 3329 3280 3252 3178 3385 3565 3426 3536 3426 3356 3385 3519 3608 3354 3279 3048 2951 2724 2625 2703 2801 2735 3008 2977 3139 3461 3569 3292 2945 2808 2893 3173 3179 3112 3298 3582 3477 3469 3363 2980 2885 3176 3277 3486 3684 3414 3418 3588 3963 4027 3973 3869 4122 3781 3441 3299 2885 3036 3665 3827 3931 3554 3180 3151 3431 4013 4377 4246 4004 3739 3518 3855 4091 4529 4832 4580 4431 4102 3804 3737 3816 3990 4113 3377 3189 3323 3829 4057 3702 3486 3395 3768 4119 4313 4392 4366 -9999 -9999 -9999 -9999 -9999 -9999 -9999 4124 3953 4020 4168 4427 -9999 -9999 -9999 -9999 -9999 -9999 -9999 -9999 -9999 -9999 4706 4510 4292 4222 4436 4564 4656 -9999 -9999 -9999 -9999 -9999 -9999 -9999 -9999 -9999 -9999 -9999 -9999 -9999 -9999 -9999 -9999 -9999 -9999 -9999 3902 3878 -9999 -9999 -9999 -9999 -9999 -9999 -9999 -9999 -9999 -9999 -9999 -9999 -9999 -9999 -9999 -9999 -9999 -9999 -9999 -9999 -9999 -9999 -9999 -9999 -9999 -9999 -9999 -9999 -9999 -9999 -9999 -9999 -9999 -9999 -9999 -9999 -9999 -9999 -9999 -9999 -9999 -9999 -9999 -9999 -9999 -9999 -9999 -9999 -9999 -9999 -9999 -9999 -9999 -9999 -9999 -9999 -9999 -9999 -9999 -9999 -9999 -9999 -9999 -9999 -9999 -9999 -9999 -9999 -9999 -9999 -9999 -9999 -9999 -9999 -9999 -9999 -9999 -9999 -9999 -9999 -9999 -9999 -9999 -9999 -9999 -9999 -9999 -9999 -9999
-9999 -9999 -9999 -9999 -9999 -9999 -9999 -9999 -9999 -9999 -9999 -9999 -9999 -9999 -9999 -9999 -9999 2873 2741 2584 2642 2812 2837 2751 2700 2554 2347 2237 2364 2601 2709 2494 2445 2574 2474 2284 2036 1925 1741 1576 1506 1675 1948 2233 2261 2225 2190 2251 2358 2292 2230 2254 1851 1795 1850 2116 2419 2706 2722 2667 2840 3126 3348 3364 3324 3346 3456 3493 3364 3209 2934 2945 3190 3382 3615 3870 3838 3644 3468 3684 3818 3662 3687 3835 4016 4242 3952 3700 3642 3676 3776 3983 3850 3739 3805 3864 3678 3696 3731 3401 3251 3318 3568 3914 3923 3747 3658 3482 3355 3169 3000 2838 2857 2759 2703 2956 2938 2828 3013 2839 2527 2579 2934 2971 2638 2272 1978 1744 1662 1782 1806 2117 2304 2563 2589 2406 2450 2774 2723 2446 2269 2375 2535 2644 2775 2818 3107 3415 3248 3110 2795 2451 2310 2445 2640 2369 2395 2547 2887 2686 2772 2399 2194 2495 2835 3039 3083 3054 3209 3306 3158 2888 2806 2615 2447 2358 2014 2121 2458 2561 2186 2447 2644 2634 2775 3123 3417 3269 3128 2773 2533 2365 2260 2398 2718 2784 2963 3145 3154 2911 2784 2601 2166 2288 2646 2853 3060 3063 3179 3275 3445 3144 3054 3050 3147 2940 2903 2775 2595 2273 2449 2687 2757 2811 2965 3126 3172 3174 3274 3377 3091 2985 2908 2784 2634 2504 2616 2798 3055 3141 3372 3306 3316 3219 3136 2896 2681 2465 2411 2419 2450 2317 2391 2537 2703 2851 3071 3192 3448 3619 3446 3420 3407 3546 3615 3747 3675 3661 3536 3493 3284 3104 2869 2711 2699 2833 2856 3025 3146 2897 3086 3295 3205 3444 3410 3082 2819 2893 3202 3242 3494 3474 3462 3673 3581 3473 3206 2892 3018 3353 3486 3744 3961 3744 3624 3572 3869 4282 4357 4222 3841 3557 3117 2980 2963 3028 3461 3646 3961 3626 3265 3224 3557 4121 4393 4246 4034 3809 3543 3800 3949 4171 4487 4313 4282 4094 3871 3926 4178 4436 3841 3237 3365 3567 4009 4338 3963 3776 3484 3583 3924 4076 -9999 -9999 -9999 -9999 -9999 -9999 -9999 -9999 -9999 -9999 4080 4176 4403 -9999 -9999 -9999 -9999 -9999 -9999 -9999 -9999 -9999 -9999 -9999 4523 4456 4368 4290 4493 4722 5013 -9999 -9999 -9999 -9999 -9999 -9999 -9999 -9999 -9999 -9999 -9999 -9999 -9999 -9999 -9999 -9999 -9999 -9999 -9999 -9999 -9999 -9999 -9999 -9999 -9999 -9999 -9999 -9999 -9999 -9999 -9999 -9999 -9999 -9999 -9999 -9999 -9999 -9999 -9999 -9999 -9999 -9999 -9999 -9999 -9999 -9999 -9999 -9999 -9999 -9999 -9999 -9999 -9999 -9999 -9999 -9999 -9999 -9999 -9999 -9999 -9999 -9999 -9999 -9999 -9999 -9999 -9999 -9999 -9999 -9999 -9999 -9999 -9999 -9999 -9999 -9999 -9999 -9999 -9999 -9999 -9999 -9999 -9999 -9999 -9999 -9999 -9999 -9999 -9999 -9999 -9999 -9999 -9999 -9999 -9999 -9999 -9999 -9999 -9999 -9999 -9999 -9999 -9999 -9999 -9999 -9999 -9999 -9999 -9999 -9999
-9999 -9999 -9999 -9999 -9999 -9999 -9999 -9999 -9999 -9999 -9999 -9999 -9999 -9999 -9999 -9999 -9999 -9999 2969 2801 2910 2938 2827 2707 2685 2498 2271 2467 2573 2741 2982 2659 2653 2763 2523 2250 2110 2033 1883 1892 1551 1474 1707 2005 2413 2448 2402 2474 2594 2697 2699 2528 2165 1833 1804 2088 2306 2351 2371 2352 2687 2920 2986 2943 3058 3005 3098 3197 3428 3401 3173 3063 3200 3356 3576 3824 3985 3912 3652 3844 3936 4196 3986 4008 4128 4216 4177 4064 3876 3874 4209 4266 4238 4264 3989 4035 3889 4150 4001 3629 3503 3580 3714 3932 3838 3557 3454 3156 3028 2838 2760 2625 2531 2504 2467 2519 2511 2484 2611 2609 2444 2242 2559 2642 2463 2101 1604 1539 1717 1998 2195 1988 2017 2217 2500 2762 2758 2968 2815 2541 2403 2630 2772 2894 3115 3150 3224 3429 3115 2907 2559 2292 2495 2673 2973 2597 2493 2700 2983 3117 2786 2382 2298 2482 2863 3199 3343 3515 3384 3126 2998 2645 2352 2194 2011 2076 2279 2464 2801 2828 2472 2281 2545 2685 3026 3118 3262 2960 2799 2755 2820 2393 2324 2726 2869 3031 3139 3382 3049 2666 2423 2298 2344 2239 2577 2706 2624 2803 2910 3005 3304 3305 3392 3329 3282 3105 2968 2600 2443 2466 2516 2490 2555 2631 2736 2875 2934 3107 3277 3454 3162 3047 2965 2970 2633 2507 2833 3066 3072 3131 3485 3540 3316 3055 2934 2653 2523 2682 2686 2953 2848 2488 2337 2488 2745 3048 3180 3261 3265 3436 3599 3711 3745 3780 3837 3868 3744 3569 3305 3173 2993 2804 2778 2884 3010 3075 3152 3178 3261 3169 3192 3470 3532 3527 3197 2926 2921 3066 3323 3573 3799 3807 3793 3721 3449 3345 3073 2987 3179 3302 3459 3873 4273 4265 4125 3813 3826 4176 4412 4076 3703 3300 3018 3176 3436 3480 3281 3393 3944 3761 3367 3320 3623 4302 4566 4457 4182 3919 3637 3832 3924 4235 4542 4518 4291 4197 3965 4397 4502 4033 3536 3233 3530 3702 4019 4282 4279 4073 3712 3569 3831 3998 -9999 -9999 -9999 -9999 -9999 -9999 -9999 -9999 -9999 -9999 -9999 -9999 -9999 -9999 -9999 -9999 -9999 -9999 -9999 -9999 -9999 -9999 -9999 -9999 -9999 -9999 -9999 -9999 -9999 -9999 -9999 -9999 -9999 -9999 -9999 -9999 -9999 -9999 -9999 -9999 -9999 -9999 -9999 -9999 -9999 -9999 -9999 -9999 -9999 -9999 -9999 -9999 -9999 -9999 -9999 -9999 -9999 -9999 -9999 -9999 -9999 -9999 -9999 -9999 -9999 -9999 -9999 -9999 -9999 -9999 -9999 -9999 -9999 -9999 -9999 -9999 -9999 -9999 -9999 -9999 -9999 -9999 -9999 -9999 -9999 -9999 -9999 -9999 -9999 -9999 -9999 -9999 -9999 -9999 -9999 -9999 -9999 -9999 -9999 -9999 -9999 -9999 -9999 -9999 -9999 -9999 -9999 -9999 -9999 -9999 -9999 -9999 -9999 -9999 -9999 -9999 -9999 -9999 -9999 -9999 -9999 -9999 -9999 -9999 -9999 -9999 -9999 -9999 -9999 -9999 -9999 -9999 -9999 -9999 -9999 -9999 -9999 -9999 -9999 -9999 -9999
-9999 -9999 -9999 -9999 -9999 -9999 -9999 -9999 -9999 -9999 -9999 -9999 -9999 -9999 -9999 -9999 -9999 -9999 -9999 3145 3220 3207 3145 2992 2869 2535 2460 2563 2676 3004 2911 2711 2831 2944 2683 2477 2337 2302 2275 2049 1831 1701 1513 1758 1898 2018 2247 2475 2563 2788 2865 2538 2240 2074 1997 1858 2063 2044 2078 2212 2438 2552 2640 2770 2883 3148 3262 3379 3550 3488 3300 3358 3379 3305 3418 3644 3744 4025 3885 3874 3888 4238 4081 3779 3723 3803 4006 4156 4161 4186 4285 4110 4029 4228 4185 4059 4128 4214 4098 3810 3766 4068 4377 4089 3810 3634 3577 3362 3301 3166 3060 2998 2793 2652 2507 2451 2260 2149 2079 2053 2029 1942 1889 1839 1806 1641 1946 2061 2321 2377 2541 2403 2497 2537 2475 2803 3032 3275 2970 2648 2539 2848 3158 3251 3242 3345 3400 3074 2817 2705 2568 2512 2722 2790 2945 2725 2577 2755 3131 2877 2579 2427 2642 2738 2680 2959 3119 3256 3030 2756 2611 2415 2149 2178 2175 2347 2459 2673 3001 3068 2836 2537 2465 2658 2960 3267 3407 3037 2961 3040 2726 2495 2460 2476 2797 2995 3048 3331 3118 2839 2500 2329 2608 2285 2402 2404 2643 2948 3172 3189 3319 3554 3289 3122 2916 2769 2654 2482 2545 2556 2575 2911 3021 2912 2908 3087 3246 3291 3540 3692 3438 3488 3333 2978 2573 2711 3076 3390 3521 3519 3534 3325 2973 2726 2605 2704 2902 3092 3100 3143 3090 2815 2655 2407 2634 2724 2824 2875 3081 3261 3482 3598 3831 4026 3833 3675 3442 3283 3163 3074 2937 2786 2989 3020 3070 3333 3594 3526 3519 3482 3588 3659 3635 3348 2994 2938 3085 3054 3319 3666 3914 4085 3915 3773 3562 3360 3098 3328 3677 3688 3548 3719 4076 4404 4528 4262 4096 4449 4375 4064 3734 3193 3188 3405 3950 3858 3643 3666 4020 3867 3510 3414 3668 4179 4339 4221 4073 3859 3768 4008 4052 4199 -9999 -9999 4407 4615 4394 4355 4175 3843 3510 3249 3528 3659 3741 3941 4168 4266 3890 3663 3774 3908 4303 -9999 -9999 -9999 -9999 -9999 -9999 -9999 -9999 -9999 -9999 -9999 -9999 -9999 -9999 -9999 -9999 -9999 -9999 -9999 -9999 -9999 -9999 -9999 -9999 -9999 -9999 -9999 -9999 -9999 -9999 -9999 -9999 -9999 -9999 -9999 -9999 -9999 -9999 -9999 -9999 -9999 -9999 -9999 -9999 -9999 -9999 -9999 -9999 -9999 -9999 -9999 -9999 -9999 -9999 -9999 -9999 -9999 -9999 -9999 -9999 -9999 -9999 -9999 -9999 -9999 -9999 -9999 -9999 -9999 -9999 -9999 -9999 -9999 -9999 -9999 -9999 -9999 -9999 -9999 -9999 -9999 -9999 -9999 -9999 -9999 -9999 -9999 -9999 -9999 -9999 -9999 -9999 -9999 -9999 -9999 -9999 -9999 -9999 -9999 -9999 -9999 -9999 -9999 -9999 -9999 -9999 -9999 -9999 -9999 -9999 -9999 -9999 -9999 -9999 -9999 -9999 -9999 -9999 -9999 -9999 -9999 -9999 -9999 -9999 -9999 -9999 -9999 -9999 -9999 -9999 -9999 -9999 -9999 -9999 -9999 -9999 -9999 -9999 -9999 -9999
-9999 -9999 -9999 -9999 -9999 -9999 -9999 -9999 -9999 -9999 -9999 -9999 -9999 -9999 -9999 -9999 -9999 -9999 -9999 -9999 3262 3178 2994 2862 2825 2488 2564 2608 2738 2969 3073 2794 2915 3045 2824 2625 2508 2420 2261 2053 1882 1787 1514 1602 1857 1970 2226 2466 2716 2909 2849 2567 2384 2272 2094 1847 1978 2160 2207 2430 2351 2444 2640 2758 3014 3214 3414 3494 3668 3570 3420 3499 3532 3395 3561 3726 3849 4097 4196 4040 3949 4260 4064 3729 3600 3682 3928 3956 3977 4083 4177 3923 3932 4141 4039 3955 4094 4223 3974 3802 3888 4079 4458 4260 4089 3770 3565 3451 3483 3337 3305 3233 2989 2680 2727 2578 2505 2241 2152 2109 2012 1901 1813 1795 1728 1581 1991 2225 2573 2666 2707 2592 2730 2690 2716 2816 3055 3342 3048 2758 2674 2807 3163 3399 3508 3628 3419 3126 2911 2830 2571 2688 2938 2968 2959 2694 2694 2827 3101 2774 2479 2515 2676 2922 2811 3025 3161 3108 2812 2721 2639 2262 2257 2440 2188 2366 2698 2822 3066 3169 2849 2622 2442 2547 2810 3113 3408 3147 3148 3094 2773 2666 2643 2396 2792 3108 3216 3404 3052 2698 2405 2433 2745 2502 2321 2322 2528 2843 2932 2986 3172 3465 3281 3219 3102 2979 2739 2569 2721 2478 2721 3028 3202 3129 3042 3207 3366 3471 3602 3771 3635 3616 3295 2905 2601 2759 3126 3351 3637 3628 3334 3194 2886 2655 2722 2874 3048 3202 3307 3219 3021 2833 2754 2430 2567 2718 2920 2957 3073 3252 3392 3485 3673 3911 3899 3752 3530 3330 3215 3164 3014 2807 3112 3158 3147 3454 3721 3708 3580 3630 3757 3754 3701 3314 2936 3067 3279 3144 3324 3747 4058 4223 4072 3783 3490 3325 3202 3314 3682 3737 3611 3651 3928 4223 4398 4595 4510 4411 4173 3939 3656 3147 3232 3430 4125 4132 3825 3780 4024 3938 3563 3467 3702 4132 4381 4237 4068 3884 3869 4067 -9999 -9999 -9999 -9999 -9999 4769 4482 4109 3984 3699 3420 3259 3446 3497 3687 3936 4269 4346 3925 3726 3805 3975 -9999 -9999 -9999 -9999 -9999 -9999 -9999 -9999 -9999 -9999 -9999 -9999 -9999 -9999 -9999 -9999 -9999 -9999 -9999 -9999 -9999 -9999 -9999 -9999 -9999 -9999 -9999 -9999 -9999 -9999 -9999 -9999 -9999 -9999 -9999 -9999 -9999 -9999 -9999 -9999 -9999 -9999 -9999 -9999 -9999 -9999 -9999 -9999 -9999 -9999 -9999 -9999 -9999 -9999 -9999 -9999 -9999 -9999 -9999 -9999 -9999 -9999 -9999 -9999 -9999 -9999 -9999 -9999 -9999 -9999 -9999 -9999 -9999 -9999 -9999 -9999 -9999 -9999 -9999 -9999 -9999 -9999 -9999 -9999 -9999 -9999 -9999 -9999 -9999 -9999 -9999 -9999 -9999 -9999 -9999 -9999 -9999 -9999 -9999 -9999 -9999 -9999 -9999 -9999 -9999 -9999 -9999 -9999 -9999 -9999 -9999 -9999 -9999 -9999 -9999 -9999 -9999 -9999 -9999 -9999 -9999 -9999 -9999 -9999 -9999 -9999 -9999 -9999 -9999 -9999 -9999 -9999 -9999 -9999 -9999 -9999 -9999 -9999 -9999 -9999 -9999
-9999 -9999 -9999 -9999 -9999 -9999 -9999 -9999 -9999 -9999 -9999 -9999 -9999 -9999 -9999 -9999 -9999 -9999 -9999 -9999 3053 2853 2738 2636 2634 2520 2709 2891 2946 2938 3191 3065 3284 3351 3090 2658 2355 2284 2056 1845 1710 1658 1577 1565 1886 2030 2293 2504 2719 2706 2860 2956 2824 2470 2295 1935 2173 2443 2561 2664 2716 2792 2801 2903 3150 3531 3541 3436 3490 3753 3745 3754 3750 3683 4060 4092 4042 3987 4082 3966 4012 4063 3919 3612 3433 3554 3775 3712 3756 3873 3894 3625 3653 3775 3708 3827 4009 4089 4098 4076 3979 3992 3947 4216 4220 3912 3904 3737 3804 3579 3661 3320 3230 3119 3208 2983 2675 2347 2563 2494 2380 2127 2284 2323 2048 1603 1832 1955 2164 2463 2936 3086 3118 3127 3148 3154 3254 3473 3273 3118 3022 2801 3004 3169 3457 3638 3704 3317 3055 2979 2710 2933 3308 3456 3132 2783 3004 3138 3208 2880 2622 2821 2800 3100 3201 3359 3219 2838 2584 2489 2402 2311 2420 2725 2449 2334 2509 2730 2953 3092 3182 2936 2639 2634 2759 3035 3348 3540 3446 3166 2947 2987 2811 2464 2773 2915 3047 3271 2959 2633 2662 2774 3026 2863 2698 2570 2504 2687 2874 2987 3315 3649 3615 3505 3278 2972 2696 2896 2895 2594 2986 3181 3325 3528 3327 3385 3533 3826 3998 3772 3542 3427 3263 2966 2702 2900 3204 3390 3726 3589 3299 3007 2782 2938 3049 3150 3381 3259 3128 2890 2577 2531 2493 2634 2857 2942 3158 3166 3264 3336 3506 3653 3970 4235 3979 3880 3586 3562 3352 3405 3034 2911 3306 3497 3354 3523 3823 4015 3871 3786 3825 3577 3421 3083 2969 3275 3633 3423 3343 3772 4198 4438 4362 3932 3555 3454 3481 3306 3639 3917 3749 3670 4083 4353 4386 4670 4831 4330 4072 3755 3441 3197 3367 3539 4261 4429 3953 3901 3996 4195 3768 3612 3933 4270 4304 4386 4334 -9999 -9999 -9999 -9999 -9999 -9999 -9999 4402 4359 4138 3778 3650 3509 3297 3490 3646 3637 3597 3837 4112 4271 4199 3917 4038 -9999 -9999 -9999 -9999 -9999 -9999 -9999 -9999 -9999 -9999 -9999 -9999 -9999 -9999 -9999 -9999 -9999 -9999 -9999 -9999 -9999 -9999 -9999 -9999 -9999 -9999 -9999 -9999 -9999 -9999 -9999 -9999 -9999 -9999 -9999 -9999 -9999 -9999 -9999 -9999 -9999 -9999 -9999 -9999 -9999 -9999 -9999 -9999 -9999 -9999 -9999 -9999 -9999 -9999 -9999 -9999 -9999 -9999 -9999 -9999 -9999 -9999 -9999 -9999 -9999 -9999 -9999 -9999 -9999 -9999 -9999 -9999 -9999 -9999 -9999 -9999 -9999 -9999 -9999 -9999 -9999 -9999 -9999 -9999 -9999 -9999 -9999 -9999 -9999 -9999 -9999 -9999 -9999 -9999 -9999 -9999 -9999 -9999 -9999 -9999 -9999 -9999 -9999 -9999 -9999 -9999 -9999 -9999 -9999 -9999 -9999 -9999 -9999 -9999 -9999 -9999 -9999 -9999 -9999 -9999 -9999 -9999 -9999 -9999 -9999 -9999 -9999 -9999 -9999 -9999 -9999 -9999 -9999 -9999 -9999 -9999 -9999 -9999 -9999 -9999 -9999 -9999
-9999 -9999 -9999 -9999 -9999 -9999 -9999 -9999 -9999 -9999 -9999 -9999 -9999 -9999 -9999 -9999 -9999 -9999 -9999 -9999 3259 3040 2888 2847 2809 2656 2940 3044 3097 3306 3382 3415 3506 3435 3160 2784 2350 2171 2200 2152 2057 1999 1730 1536 1792 1862 1971 2122 2176 2350 2428 2511 2715 2672 2479 2014 2491 2941 2975 3041 3171 3124 3181 3225 3449 3331 3257 3252 3493 3774 3647 3695 3924 4019 3919 3837 3733 3640 3643 3567 3569 3574 3677 3487 3320 3281 3570 3489 3582 3732 3894 3565 3281 3304 3359 3594 3802 3839 3782 3783 3737 3685 3784 4001 4165 4065 4074 4004 4007 3905 3764 3629 3640 3387 3264 2951 2650 2908 2833 2779 2584 2388 2638 2553 2268 1941 1616 1662 2081 2493 2905 3170 3203 3080 2837 3001 3163 3430 3450 3446 3390 3191 3062 3383 3632 3776 3910 3572 3316 3150 2804 3129 3461 3569 3228 2963 3209 3393 3242 2876 2836 3026 3159 3274 3542 3395 3142 2744 2734 2474 2428 2766 2684 2956 2702 2559 2896 2869 3104 3273 3242 2981 2808 2833 2891 2975 3159 3480 3638 3462 3325 2994 2788 2634 2983 3302 3424 3429 3045 2692 2968 3097 3311 3014 2745 2622 2555 2724 2854 2941 3164 3340 3612 3710 3353 3063 2824 3018 2856 2731 3007 3212 3325 3636 3576 3591 3742 4062 3946 3780 3523 3412 3140 2851 2849 3024 3362 3669 3530 3382 3104 2917 3057 3280 3357 3452 3415 3030 2841 2652 2749 2789 2645 2757 3071 3319 3397 3540 3600 3726 3689 3783 4104 4300 3955 3861 3763 3565 3618 3441 2968 3034 3535 3738 3577 3522 3869 4238 4245 3815 3703 3496 3462 3086 3160 3578 3878 3708 3433 3661 4062 4283 4272 3889 3576 3563 3525 3418 3567 3846 3810 3763 4021 4243 4378 4706 4699 4206 4022 3824 3518 3219 3552 3810 4185 4179 4079 4010 4032 4152 3764 3708 4213 4458 4437 -9999 -9999 -9999 -9999 -9999 -9999 -9999 -9999 -9999 -9999 4232 4063 3851 3793 3631 3338 3687 3924 4012 3738 3869 4262 -9999 -9999 -9999 -9999 -9999 -9999 -9999 -9999 -9999 -9999 -9999 -9999 -9999 -9999 -9999 -9999 -9999 -9999 -9999 -9999 -9999 -9999 -9999 -9999 -9999 -9999 -9999 -9999 -9999 -9999 -9999 -9999 -9999 -9999 -9999 -9999 -9999 -9999 -9999 -9999 -9999 -9999 -9999 -9999 -9999 -9999 -9999 -9999 -9999 -9999 -9999 -9999 -9999 -9999 -9999 -9999 -9999 -9999 -9999 -9999 -9999 -9999 -9999 -9999 -9999 -9999 -9999 -9999 -9999 -9999 -9999 -9999 -9999 -9999 -9999 -9999 -9999 -9999 -9999 -9999 -9999 -9999 -9999 -9999 -9999 -9999 -9999 -9999 -9999 -9999 -9999 -9999 -9999 -9999 -9999 -9999 -9999 -9999 -9999 -9999 -9999 -9999 -9999 -9999 -9999 -9999 -9999 -9999 -9999 -9999 -9999 -9999 -9999 -9999 -9999 -9999 -9999 -9999 -9999 -9999 -9999 -9999 -9999 -9999 -9999 -9999 -9999 -9999 -9999 -9999 -9999 -9999 -9999 -9999 -9999 -9999 -9999 -9999 -9999 -9999 -9999 -9999 -9999 -9999 -9999 -9999
-9999 -9999 -9999 -9999 -9999 -9999 -9999 -9999 -9999 -9999 -9999 -9999 -9999 -9999 -9999 -9999 -9999 -9999 -9999 -9999 3295 3269 3204 3052 2941 3036 2882 3346 3474 3689 3746 3810 3588 3375 3023 2773 2540 2557 2630 2620 2296 2119 1881 1602 1649 1713 1863 1903 2037 2102 2159 2405 2692 2520 2389 2113 2346 2559 2555 2698 2944 2845 2999 3013 3117 3046 3219 3375 3676 3500 3368 3471 3758 3729 3468 3378 3415 3218 3295 3200 3204 3230 3234 3209 3088 3082 3343 3252 3246 3380 3524 3234 3092 3203 3457 3735 3670 3489 3261 3423 3484 3382 3634 3821 3724 3641 3625 3763 4069 4061 3978 3912 3859 3506 3296 3000 3100 3251 3274 3174 2862 2870 2855 2660 2362 1918 1679 1631 2096 2503 2626 2691 2738 2708 2549 2926 2990 3007 3087 3262 3377 3528 3397 3397 3609 3705 3866 3560 3239 3155 3001 3228 3587 3717 3376 3118 3373 3550 3317 2975 2995 3263 3395 3706 3958 3522 3201 2984 2985 2576 2690 3066 3041 3270 2858 2787 3133 3301 3389 3471 3581 3226 2989 2967 3062 3221 3418 3622 3646 3341 3116 2875 2784 2756 2978 3349 3527 3390 3109 2855 3081 3214 3497 3190 2903 2783 2855 2739 2983 3064 3248 3331 3620 3735 3489 3186 2947 3051 2892 2819 3118 3427 3510 3806 3797 3728 3859 4092 3788 3566 3310 3204 2996 2929 2956 3040 3258 3477 3410 3283 3048 3094 3259 3527 3642 3486 3165 2866 2730 2888 3125 3087 2902 2759 2940 3236 3296 3341 3376 3492 3672 3841 4148 4314 4412 4469 4297 3957 3517 3321 2995 3172 3602 3967 3783 3594 3925 4408 4413 4158 4025 3724 3394 3199 3237 3510 3809 3945 3636 3639 4067 4332 4470 3954 3667 3671 3725 3565 3616 3829 3979 4055 4176 4597 4604 4365 4297 4242 4054 3759 3382 3295 3727 4115 4261 4476 4341 4272 4189 4046 3858 3855 4226 -9999 4470 -9999 -9999 -9999 -9999 -9999 -9999 -9999 -9999 -9999 -9999 -9999 4201 4094 4020 3762 3445 3570 3842 4021 3928 4078 -9999 -9999 -9999 -9999 -9999 -9999 -9999 -9999 -9999 -9999 -9999 -9999 -9999 -9999 -9999 -9999 -9999 -9999 -9999 -9999 -9999 -9999 -9999 -9999 -9999 -9999 -9999 -9999 -9999 -9999 -9999 -9999 -9999 -9999 -9999 -9999 -9999 -9999 -9999 -9999 -9999 -9999 -9999 -9999 -9999 -9999 -9999 -9999 -9999 -9999 -9999 -9999 -9999 -9999 -9999 -9999 -9999 -9999 -9999 -9999 -9999 -9999 -9999 -9999 -9999 -9999 -9999 -9999 -9999 -9999 -9999 -9999 -9999 -9999 -9999 -9999 -9999 -9999 -9999 -9999 -9999 -9999 -9999 -9999 -9999 -9999 -9999 -9999 -9999 -9999 -9999 -9999 -9999 -9999 -9999 -9999 -9999 -9999 -9999 -9999 -9999 -9999 -9999 -9999 -9999 -9999 -9999 -9999 -9999 -9999 -9999 -9999 -9999 -9999 -9999 -9999 -9999 -9999 -9999 -9999 -9999 -9999 -9999 -9999 -9999 -9999 -9999 -9999 -9999 -9999 -9999 -9999 -9999 -9999 -9999 -9999 -9999 -9999 -9999 -9999 -9999 -9999 -9999 -9999 -9999 -9999 -9999
-9999 -9999 -9999 -9999 -9999 -9999 -9999 -9999 -9999 -9999 -9999 -9999 -9999 -9999 -9999 -9999 -9999 -9999 -9999 -9999 -9999 -9999 3616 3422 3285 3252 3145 3330 3340 3267 3371 3496 3482 3471 3349 3194 3088 3080 2922 2647 2475 2393 2047 1633 1804 1999 2201 2196 2371 2393 2264 2331 2628 2438 2392 2263 2138 2223 2306 2488 2525 2520 2712 2881 3111 3193 3488 3546 3440 3261 3353 3433 3663 3587 3288 3140 3115 3105 3000 2956 2996 3013 2929 2983 2944 2924 3095 3032 2994 3079 3171 3083 3184 3360 3606 3750 3506 3429 3235 3029 3029 2998 3305 3585 3459 3204 3259 3525 3773 3885 3856 4079 3942 3624 3452 3423 3579 3646 3442 3360 3174 3156 2981 2743 2324 2150 1844 1606 1940 2106 2229 2338 2343 2285 2354 2536 2529 2630 2772 3005 3116 3418 3608 3501 3799 3966 3839 3665 3445 3433 3175 3329 3715 3855 3581 3326 3601 3721 3410 3300 3172 3460 3664 3980 3785 3465 3310 3366 3150 2757 2896 3311 3348 3470 3044 3033 3386 3713 3697 3840 3718 3365 3151 3119 3205 3515 3748 4020 3923 3601 3331 3049 2889 2932 3244 3473 3655 3596 3180 3066 3344 3532 3666 3306 3020 2932 3069 2864 2941 3076 3425 3579 3796 3930 3543 3253 3073 3258 3024 2889 3286 3633 3797 4131 3902 4164 4258 4204 3970 3681 3433 3244 3008 3300 3071 3306 3587 3795 3539 3408 3072 3278 3600 3793 3922 3691 3287 2820 2822 3141 3262 3426 3299 2934 2823 2863 3028 3080 3109 3172 3303 3418 3620 3884 4014 4064 4272 3849 3454 3294 3065 3285 3773 4060 3931 3684 3831 4264 4550 4422 4004 3454 3335 3273 3461 3605 3832 4028 4040 3852 4105 4415 4525 4159 3807 3793 3795 3665 3791 4029 4356 4715 4678 4834 4723 4505 4325 4134 3971 3665 3430 3453 3770 3972 4349 4461 4376 4301 4149 4035 3988 4036 4238 -9999 -9999 -9999 -9999 -9999 -9999 -9999 -9999 -9999 -9999 -9999 -9999 -9999 -9999 4111 3943 3714 3666 3930 4069 4176 4174 4308 -9999 -9999 -9999 -9999 -9999 -9999 -9999 -9999 -9999 -9999 -9999 -9999 -9999 -9999 -9999 -9999 -9999 -9999 -9999 -9999 -9999 -9999 -9999 -9999 -9999 -9999 -9999 -9999 -9999 -9999 -9999 -9999 -9999 -9999 -9999 -9999 -9999 -9999 -9999 -9999 -9999 -9999 -9999 -9999 -9999 -9999 -9999 -9999 -9999 -9999 -9999 -9999 -9999 -9999 -9999 -9999 -9999 -9999 -9999 -9999 -9999 -9999 -9999 -9999 -9999 -9999 -9999 -9999 -9999 -9999 -9999 -9999 -9999 -9999 -9999 -9999 -9999 -9999 -9999 -9999 -9999 -9999 -9999 -9999 -9999 -9999 -9999 -9999 -9999 -9999 -9999 -9999 -9999 -9999 -9999 -9999 -9999 -9999 -9999 -9999 -9999 -9999 -9999 -9999 -9999 -9999 -9999 -9999 -9999 -9999 -9999 -9999 -9999 -9999 -9999 -9999 -9999 -9999 -9999 -9999 -9999 -9999 -9999 -9999 -9999 -9999 -9999 -9999 -9999 -9999 -9999 -9999 -9999 -9999 -9999 -9999 -9999 -9999 -9999 -9999 -9999 -9999 -9999 -9999 -9999 -9999 -9999
-9999 -9999 -9999 -9999 -9999 -9999 -9999 -9999 -9999 -9999 -9999 -9999 -9999 -9999 -9999 -9999 -9999 -9999 -9999 -9999 -9999 -9999 -9999 -9999 3551 3320 3307 3344 3244 3097 3150 3225 3230 3300 3138 3256 3246 3254 2922 2540 2237 2188 1928 1628 1778 1944 2333 2391 2415 2562 2466 2466 2620 2609 2547 2384 2297 2142 2219 2316 2286 2337 2678 2813 3094 3301 3478 3521 3289 3140 3310 3388 3559 3639 3388 3215 3095 2988 2893 2863 2858 2899 2782 2822 2836 2780 2938 2884 2847 2983 2913 2874 3218 3467 3767 3707 3351 3241 3154 2943 2911 2926 3193 3412 3222 3079 3203 3482 3709 3776 3811 3984 3952 3728 3554 3586 3663 3745 3408 3276 3026 2937 2966 2842 2526 2343 1906 1672 1737 1852 2004 2109 2121 2199 2401 2450 2478 2754 2899 3113 3204 3407 3682 3571 3710 3807 3900 3805 3619 3595 3293 3416 3825 3983 3745 3470 3652 3849 3530 3493 3300 3552 3636 3958 3968 3552 3435 3499 3158 2850 2963 3416 3449 3592 3190 3143 3397 3637 3885 4018 3717 3436 3205 3172 3272 3603 3999 4173 3994 3760 3399 3089 2928 3032 3419 3564 3746 3641 3219 3176 3497 3691 3656 3344 3040 2972 3241 3009 2921 3093 3500 3725 4095 4044 3649 3295 3177 3341 3127 2923 3325 3738 3924 4355 3979 4250 4496 4200 3910 3671 3410 3250 3084 3289 3162 3351 3694 3964 3655 3533 3067 3402 3718 3804 3885 3605 3285 2835 2978 3341 3312 3599 3504 3160 2902 2922 3035 3109 3230 3314 3381 3549 3618 3763 3880 3967 4090 3823 3522 3354 3074 3331 3844 4222 4107 3727 3890 4428 4641 4555 4003 3571 3462 3378 3708 3703 3768 3980 4088 3938 4078 4334 4337 4089 3832 3829 3791 3706 3820 4034 4295 4777 4778 4834 4814 4490 4330 4068 3951 3787 3541 3512 3844 3937 4315 4218 4353 4355 4188 4145 4127 -9999 -9999 -9999 -9999 -9999 -9999 -9999 -9999 -9999 -9999 -9999 -9999 -9999 -9999 4338 4137 4017 3888 3800 3823 4122 4195 -9999 -9999 -9999 -9999 -9999 -9999 -9999 -9999 -9999 -9999 -9999 -9999 -9999 -9999 -9999 -9999 -9999 -9999 -9999 -9999 -9999 -9999 -9999 -9999 -9999 -9999 -9999 -9999 -9999 -9999 -9999 -9999 -9999 -9999 -9999 -9999 -9999 -9999 -9999 -9999 -9999 -9999 -9999 -9999 -9999 -9999 -9999 -9999 -9999 -9999 -9999 -9999 -9999 -9999 -9999 -9999 -9999 -9999 -9999 -9999 -9999 -9999 -9999 -9999 -9999 -9999 -9999 -9999 -9999 -9999 -9999 -9999 -9999 -9999 -9999 -9999 -9999 -9999 -9999 -9999 -9999 -9999 -9999 -9999 -9999 -9999 -9999 -9999 -9999 -9999 -9999 -9999 -9999 -9999 -9999 -9999 -9999 -9999 -9999 -9999 -9999 -9999 -9999 -9999 -9999 -9999 -9999 -9999 -9999 -9999 -9999 -9999 -9999 -9999 -9999 -9999 -9999 -9999 -9999 -9999 -9999 -9999 -9999 -9999 -9999 -9999 -9999 -9999 -9999 -9999 -9999 -9999 -9999 -9999 -9999 -9999 -9999 -9999 -9999 -9999 -9999 -9999 -9999 -9999 -9999 -9999 -9999 -9999 -9999 -9999
-9999 -9999 -9999 -9999 -9999 -9999 -9999 -9999 -9999 -9999 -9999 -9999 -9999 -9999 -9999 -9999 -9999 -9999 -9999 -9999 -9999 -9999 -9999 -9999 3788 3636 3440 3218 3103 2887 2735 2714 2775 2796 2841 2763 2724 2682 2605 2654 2406 2220 1887 1604 1929 2020 2233 2124 2308 2624 2811 2888 2808 2833 2773 2705 2620 2358 2249 2360 2619 2769 2567 2594 2871 3077 3235 3314 3140 3025 3215 3199 3301 3489 3528 3277 3319 3306 3101 2989 2958 2891 2914 2763 2642 2591 2680 2661 2735 2818 2615 2741 2973 3094 3190 3316 3468 3371 3040 2752 2703 2801 3079 2926 2910 3161 3274 3451 3672 3795 3917 4066 4067 3872 3803 3781 3902 3902 3712 3564 3254 2894 2546 2602 2561 2283 1873 1643 1886 2059 2075 2210 2284 2534 2549 2874 3003 2987 3038 3303 3404 3561 3897 3970 3990 3870 3823 3984 4022 3884 3580 3633 3871 4093 4103 3737 3839 4008 3798 3807 3482 3579 3686 3963 4251 3837 3711 3733 3344 3146 3287 3714 3867 3923 3611 3455 3486 3734 3730 3790 3984 3625 3460 3451 3476 3787 4180 4287 4099 3770 3640 3229 3060 3216 3652 3988 3907 3594 3279 3506 3829 3997 4006 3583 3187 3210 3482 3287 3224 3294 3453 3737 4164 4266 3941 3493 3603 3664 3346 3015 3316 3692 3867 4257 4102 4247 4162 4039 3839 3656 3507 3388 3288 3414 3321 3472 3731 4026 3767 3592 3191 3515 3952 4069 3934 3574 3071 3020 3274 3740 3561 3775 3837 3491 3085 3093 3408 3437 3615 3869 3686 3652 3723 4026 4231 4259 4080 3804 3648 3569 3224 3276 3770 4172 4219 4081 4086 4283 4308 4145 4078 4124 3849 3509 3647 3795 3745 3853 4209 4127 4187 4114 4040 3954 3900 3909 4026 3804 3822 4060 4186 4429 4525 4306 4118 4236 4127 4066 3991 3788 3615 3720 4242 4390 4189 3944 3916 4014 -9999 -9999 -9999 -9999 -9999 -9999 -9999 -9999 -9999 -9999 -9999 -9999 -9999 -9999 -9999 -9999 -9999 -9999 4326 4176 4016 3937 4015 -9999 -9999 -9999 -9999 -9999 -9999 -9999 -9999 -9999 -9999 -9999 -9999 -9999 -9999 -9999 -9999 -9999 -9999 -9999 -9999 -9999 -9999 -9999 -9999 -9999 -9999 -9999 -9999 -9999 -9999 -9999 -9999 -9999 -9999 -9999 -9999 -9999 -9999 -9999 -9999 -9999 -9999 -9999 -9999 -9999 -9999 -9999 -9999 -9999 -9999 -9999 -9999 -9999 -9999 -9999 -9999 -9999 -9999 -9999 -9999 -9999 -9999 -9999 -9999 -9999 -9999 -9999 -9999 -9999 -9999 -9999 -9999 -9999 -9999 -9999 -9999 -9999 -9999 -9999 -9999 -9999 -9999 -9999 -9999 -9999 -9999 -9999 -9999 -9999 -9999 -9999 -9999 -9999 -9999 -9999 -9999 -9999 -9999 -9999 -9999 -9999 -9999 -9999 -9999 -9999 -9999 -9999 -9999 -9999 -9999 -9999 -9999 -9999 -9999 -9999 -9999 -9999 -9999 -9999 -9999 -9999 -9999 -9999 -9999 -9999 -9999 -9999 -9999 -9999 -9999 -9999 -9999 -9999 -9999 -9999 -9999 -9999 -9999 -9999 -9999 -9999 -9999 -9999 -9999 -9999 -9999 -9999 -9999 -9999 -9999 -9999 -9999
-9999 -9999 -9999 -9999 -9999 -9999 -9999 -9999 -9999 -9999 -9999 -9999 -9999 -9999 -9999 -9999 -9999 -9999 -9999 -9999 -9999 -9999 -9999 -9999 4063 3861 3529 3258 3125 2869 2742 2714 2560 2475 2309 2343 2318 2285 2212 2407 2463 2339 2083 1839 1751 1758 1899 1977 2256 2728 2810 3044 3125 3192 3153 3035 2722 2482 2433 2673 2821 3014 3143 2952 2743 2867 2907 2922 2898 2897 3108 3245 3462 3612 3768 3549 3496 3294 3194 3157 3037 2974 2796 2645 2565 2630 2648 2507 2625 2566 2682 2912 2944 2845 2881 3010 3265 3310 3063 2833 2447 2564 2801 2526 2686 3034 3065 3236 3489 3648 3735 3757 3948 3924 3741 3579 3426 3457 3574 3508 3199 2864 2694 2464 2102 1882 1706 1620 2055 2308 2482 2490 2551 2772 2927 3099 3239 3473 3492 3598 3755 3790 3873 3804 3747 3614 3428 3612 3897 3952 3908 3878 3996 4132 4234 4139 4115 4148 3918 3993 3702 3759 3901 3929 4091 4006 3896 3900 3647 3362 3414 3575 3723 4040 3698 3605 3830 3807 4000 3918 4151 3843 3701 3868 3674 3736 3941 4293 4189 3966 3695 3322 3285 3530 3858 4153 4122 3782 3490 3611 3946 4115 4012 3675 3509 3655 3993 3611 3521 3713 3576 3904 4259 4150 3778 3732 3993 3678 3524 3212 3403 3882 3981 4005 4265 4551 4334 3971 3882 3996 3665 3567 3664 3570 3489 3617 4021 3998 3671 3494 3351 3725 4208 3960 3772 3493 3070 3161 3386 3862 4039 3958 3885 3626 3137 3099 3602 3893 4078 4018 3829 3750 3781 3912 4328 4554 4326 4039 3665 3506 3285 3280 3559 3672 3706 3883 4069 4117 4006 3883 3901 4091 4161 3768 3745 3904 3955 4002 4070 4075 4285 4271 4089 4078 4181 4281 4082 3921 3912 4128 4169 4137 4010 3822 3796 3966 4267 4262 4205 3916 3853 4251 4263 4174 4158 3814 3767 3822 -9999 -9999 -9999 -9999 -9999 -9999 -9999 -9999 -9999 -9999 -9999 -9999 -9999 -9999 -9999 -9999 -9999 -9999 -9999 4259 4300 4364 -9999 -9999 -9999 -9999 -9999 -9999 -9999 -9999 -9999 -9999 -9999 -9999 -9999 -9999 -9999 -9999 -9999 -9999 -9999 -9999 -9999 -9999 -9999 -9999 -9999 -9999 -9999 -9999 -9999 -9999 -9999 -9999 -9999 -9999 -9999 -9999 -9999 -9999 -9999 -9999 -9999 -9999 -9999 -9999 -9999 -9999 -9999 -9999 -9999 -9999 -9999 -9999 -9999 -9999 -9999 -9999 -9999 -9999 -9999 -9999 -9999 -9999 -9999 -9999 -9999 -9999 -9999 -9999 -9999 -9999 -9999 -9999 -9999 -9999 -9999 -9999 -9999 -9999 -9999 -9999 -9999 -9999 -9999 -9999 -9999 -9999 -9999 -9999 -9999 -9999 -9999 -9999 -9999 -9999 -9999 -9999 -9999 -9999 -9999 -9999 -9999 -9999 -9999 -9999 -9999 -9999 -9999 -9999 -9999 -9999 -9999 -9999 -9999 -9999 -9999 -9999 -9999 -9999 -9999 -9999 -9999 -9999 -9999 -9999 -9999 -9999 -9999 -9999 -9999 -9999 -9999 -9999 -9999 -9999 -9999 -9999 -9999 -9999 -9999 -9999 -9999 -9999 -9999 -9999 -9999 -9999 -9999 -9999 -9999 -9999 -9999 -9999 -9999
-9999 -9999 -9999 -9999 -9999 -9999 -9999 -9999 -9999 -9999 -9999 -9999 -9999 -9999 -9999 -9999 -9999 -9999 -9999 -9999 -9999 -9999 -9999 -9999 3774 3689 3680 3453 3310 3122 3014 2947 2651 2491 2335 2171 2098 2061 2045 1992 1999 1926 1965 2209 2228 2187 2154 2209 2183 2359 2477 2729 2895 3180 3200 2944 2701 2696 2579 2730 2855 3148 3017 2927 2842 2842 2859 2874 2884 3058 3204 3300 3441 3598 3783 3567 3454 3272 3039 2921 2899 2719 2593 2707 2803 2976 2910 2674 2524 2483 2640 2639 2609 2540 2783 2783 2846 2892 2815 2539 2321 2274 2380 2404 2482 2632 2754 2948 3164 3417 3475 3608 3725 3576 3500 3303 3086 2997 3195 3303 3368 3094 2818 2601 2247 1915 1778 1656 1773 2188 2458 2493 2456 2479 2588 2844 3040 3453 3719 3603 3474 3351 3539 3394 3450 3373 3342 3549 3780 4014 4082 3862 3730 3638 3764 3870 3934 3993 4114 4256 3928 3952 4110 4349 4159 4355 4343 4141 3940 3814 3882 3937 3911 4023 3756 3726 3842 3985 4181 4291 4278 3966 3866 4064 3977 3838 3947 4202 4072 3868 3644 3551 3559 3707 3969 4118 4016 3834 3723 3721 3849 3971 4162 3866 3721 3871 4096 3787 3637 3755 3730 3973 4277 4121 3826 3881 4325 4014 3808 3373 3510 3958 4175 4225 4490 4585 4419 4094 3936 3831 3759 3731 3911 3647 3667 3894 4289 4063 3682 3496 3502 3950 4220 3902 3848 3514 3100 3335 3467 3748 4072 4076 3942 3502 3159 3174 3465 3618 3761 4042 4174 3981 4152 4262 4321 4476 4436 4121 3861 3643 3398 3294 3517 3655 3725 3827 3971 3983 3851 3718 3740 3980 4031 4091 4082 3979 3797 3730 3697 3755 3978 4129 4314 4516 4391 4218 4279 4431 4359 4312 4247 4153 4021 3847 3783 3460 3654 3869 3994 3983 4005 3899 3840 3797 3844 3685 3579 3654 3962 -9999 -9999 -9999 -9999 -9999 -9999 -9999 -9999 -9999 -9999 -9999 -9999 -9999 -9999 -9999 -9999 -9999 -9999 -9999 -9999 -9999 -9999 -9999 -9999 -9999 -9999 -9999 -9999 -9999 -9999 -9999 -9999 -9999 -9999 -9999 -9999 -9999 -9999 -9999 -9999 -9999 -9999 -9999 -9999 -9999 -9999 -9999 -9999 -9999 -9999 -9999 -9999 -9999 -9999 -9999 -9999 -9999 -9999 -9999 -9999 -9999 -9999 -9999 -9999 -9999 -9999 -9999 -9999 -9999 -9999 -9999 -9999 -9999 -9999 -9999 -9999 -9999 -9999 -9999 -9999 -9999 -9999 -9999 -9999 -9999 -9999 -9999 -9999 -9999 -9999 -9999 -9999 -9999 -9999 -9999 -9999 -9999 -9999 -9999 -9999 -9999 -9999 -9999 -9999 -9999 -9999 -9999 -9999 -9999 -9999 -9999 -9999 -9999 -9999 -9999 -9999 -9999 -9999 -9999 -9999 -9999 -9999 -9999 -9999 -9999 -9999 -9999 -9999 -9999 -9999 -9999 -9999 -9999 -9999 -9999 -9999 -9999 -9999 -9999 -9999 -9999 -9999 -9999 -9999 -9999 -9999 -9999 -9999 -9999 -9999 -9999 -9999 -9999 -9999 -9999 -9999 -9999 -9999 -9999 -9999 -9999 -9999 -9999 -9999 -9999 -9999 -9999 -9999 -9999 -9999 -9999 -9999 -9999 -9999
-9999 -9999 -9999 -9999 -9999 -9999 -9999 -9999 -9999 -9999 -9999 -9999 -9999 -9999 -9999 -9999 -9999 -9999 -9999 -9999 -9999 -9999 -9999 3607 3530 3615 3484 3411 3470 3370 3331 3183 2769 2645 2527 2212 2157 2149 2128 1951 1809 1775 1818 2064 2218 2306 2331 2444 2344 2394 2459 2673 2882 3143 3208 2964 2890 2813 2667 2818 3039 3309 3096 2942 2832 2860 2872 2883 2882 3022 3353 3464 3597 3753 3915 3734 3590 3316 3067 2844 2799 2649 2673 2838 2959 3056 2864 2754 2599 2541 2519 2487 2454 2452 2669 2783 2678 2808 2678 2497 2352 2249 2216 2233 2308 2491 2579 2802 3115 3247 3237 3361 3515 3370 3292 3259 3030 2807 2942 3050 3097 3130 2748 2542 2224 2132 1928 1729 1763 2170 2273 2215 2225 2379 2552 2795 2971 3432 3554 3413 3303 3203 3416 3248 3242 3183 3007 3342 3644 3781 3885 3699 3491 3435 3532 3747 3753 3839 3968 4194 4056 4105 4107 4081 4057 4250 4375 4142 4001 3907 3963 4047 3970 4030 3939 4029 4058 3958 4038 4113 4069 3997 3936 3989 4002 3880 4031 4148 4063 3960 3827 3767 3674 3707 3858 3999 4059 3925 3834 3795 3956 3919 4058 3932 3754 3830 4015 3891 3739 3763 3839 3946 4162 4048 3878 3914 4109 4003 3817 3495 3478 3891 4041 4160 4479 4368 4351 4034 3964 3902 3838 3774 4013 3693 3785 4026 4444 4133 3698 3532 3596 4133 4362 3910 3820 3471 3121 3475 3660 3917 4128 4057 3966 3637 3223 3199 3549 3693 3957 4222 4342 4321 4373 4308 4282 4247 4373 4178 3815 3749 3527 3410 3559 3697 3785 3863 4027 3881 3782 3676 3633 3740 3832 3869 3961 3797 3591 3550 3511 3710 4136 4314 4424 4189 4084 3999 4204 4451 4383 4306 4308 4301 4112 4050 3834 3366 3367 3516 3677 3804 3845 3728 3676 3586 3544 3457 3482 3539 3857 -9999 -9999 -9999 -9999 -9999 -9999 -9999 -9999 -9999 -9999 -9999 -9999 -9999 -9999 -9999 -9999 -9999 -9999 -9999 -9999 -9999 -9999 -9999 -9999 -9999 -9999 -9999 -9999 -9999 -9999 -9999 -9999 -9999 -9999 -9999 -9999 -9999 -9999 -9999 -9999 -9999 -9999 -9999 -9999 -9999 -9999 -9999 -9999 -9999 -9999 -9999 -9999 -9999 -9999 -9999 -9999 -9999 -9999 -9999 -9999 -9999 -9999 -9999 -9999 -9999 -9999 -9999 -9999 -9999 -9999 -9999 -9999 -9999 -9999 -9999 -9999 -9999 -9999 -9999 -9999 -9999 -9999 -9999 -9999 -9999 -9999 -9999 -9999 -9999 -9999 -9999 -9999 -9999 -9999 -9999 -9999 -9999 -9999 -9999 -9999 -9999 -9999 -9999 -9999 -9999 -9999 -9999 -9999 -9999 -9999 -9999 -9999 -9999 -9999 -9999 -9999 -9999 -9999 -9999 -9999 -9999 -9999 -9999 -9999 -9999 -9999 -9999 -9999 -9999 -9999 -9999 -9999 -9999 -9999 -9999 -9999 -9999 -9999 -9999 -9999 -9999 -9999 -9999 -9999 -9999 -9999 -9999 -9999 -9999 -9999 -9999 -9999 -9999 -9999 -9999 -9999 -9999 -9999 -9999 -9999 -9999 -9999 -9999 -9999 -9999 -9999 -9999 -9999 -9999 -9999 -9999 -9999 -9999 -9999
-9999 -9999 -9999 -9999 -9999 -9999 -9999 -9999 -9999 -9999 -9999 -9999 -9999 -9999 -9999 -9999 -9999 -9999 -9999 -9999 -9999 -9999 -9999 3574 3485 3137 3112 3087 3022 3009 3119 3098 3218 3068 2701 2556 2452 2318 2106 1913 1704 1722 1926 1996 2078 2228 2529 2923 2747 2792 2901 3003 3126 3267 3336 3144 3187 2950 2842 2861 3170 3329 3193 3039 2868 3161 3316 3161 2958 3056 3258 3381 3553 3735 3592 3437 3412 3415 3033 2734 2650 2772 2977 3106 3135 3208 3179 2976 2875 2776 2512 2598 2561 2478 2401 2420 2424 2420 2380 2762 2923 2668 2514 2470 2326 2229 2375 2632 2827 2895 2824 3066 3194 2951 2825 2919 3065 2927 2514 2548 2786 2839 2951 2788 2657 2317 1896 1696 1699 1864 1962 2222 2381 2624 2936 2977 3055 3331 3303 3123 3023 2888 3062 2903 2871 2867 2817 3078 3440 3496 3391 3249 3109 3225 3407 3556 3542 3508 3536 3642 3711 3758 3756 3884 4004 4071 4141 4032 3926 3902 3909 3775 3637 3575 3622 3658 3620 3647 3609 3584 3697 3670 3671 3646 3593 3487 3626 3618 3646 3630 3730 3858 3807 3840 3854 3801 3735 3573 3720 3663 3547 3597 3789 3813 3885 3976 3982 3934 3918 3910 4029 4116 4104 4147 4017 3956 4073 4317 4225 3747 3561 3825 3937 4090 4240 4421 4267 4274 4206 4091 3952 3930 3926 3828 3890 3994 4477 4105 3854 3712 3654 4086 4482 4032 3806 3506 3312 3411 3534 3698 3814 4163 4130 3755 3422 3304 3497 3599 3735 3961 4099 4144 3998 4058 3946 3982 4367 4407 4024 3954 3725 3603 3870 3880 3982 4030 4100 4075 3942 3737 3537 3412 3442 3509 3572 3536 3381 3218 3366 3783 3969 4011 4160 3785 3564 3632 4008 4218 4087 4335 4385 4246 4075 3893 3818 3607 3471 3283 3189 3325 3432 3456 3336 3290 3320 3511 3578 3489 3667 3997 -9999 -9999 -9999 -9999 -9999 -9999 -9999 -9999 -9999 -9999 -9999 -9999 -9999 -9999 -9999 -9999 -9999 -9999 -9999 -9999 -9999 -9999 -9999 -9999 -9999 -9999 -9999 -9999 -9999 -9999 -9999 -9999 -9999 -9999 -9999 -9999 -9999 -9999 -9999 -9999 -9999 -9999 -9999 -9999 -9999 -9999 -9999 -9999 -9999 -9999 -9999 -9999 -9999 -9999 -9999 -9999 -9999 -9999 -9999 -9999 -9999 -9999 -9999 -9999 -9999 -9999 -9999 -9999 -9999 -9999 -9999 -9999 -9999 -9999 -9999 -9999 -9999 -9999 -9999 -9999 -9999 -9999 -9999 -9999 -9999 -9999 -9999 -9999 -9999 -9999 -9999 -9999 -9999 -9999 -9999 -9999 -9999 -9999 -9999 -9999 -9999 -9999 -9999 -9999 -9999 -9999 -9999 -9999 -9999 -9999 -9999 -9999 -9999 -9999 -9999 -9999 -9999 -9999 -9999 -9999 -9999 -9999 -9999 -9999 -9999 -9999 -9999 -9999 -9999 -9999 -9999 -9999 -9999 -9999 -9999 -9999 -9999 -9999 -9999 -9999 -9999 -9999 -9999 -9999 -9999 -9999 -9999 -9999 -9999 -9999 -9999 -9999 -9999 -9999 -9999 -9999 -9999 -9999 -9999 -9999 -9999 -9999 -9999 -9999 -9999 -9999 -9999 -9999 -9999 -9999 -9999 -9999 -9999
-9999 -9999 -9999 -9999 -9999 -9999 -9999 -9999 -9999 -9999 -9999 -9999 -9999 -9999 -9999 -9999 -9999 -9999 -9999 -9999 -9999 3467 3282 3300 3269 3018 2789 2650 2616 2566 2567 2491 2673 2826 2897 2667 2489 2410 2042 1744 1909 2022 2211 2429 2347 2331 2530 2963 3227 3325 3425 3663 3806 3898 3923 3601 3529 3150 3066 3258 3534 3555 3238 3100 2999 3303 3433 3309 3031 2990 3162 3399 3770 3905 3604 3373 3236 2996 2811 2767 2812 2945 3091 3248 3377 3348 3199 3017 2794 2665 2705 2799 2811 2644 2646 2608 2476 2371 2549 2773 3167 3097 2795 2727 2561 2204 2136 2341 2520 2481 2486 2772 2866 2709 2547 2467 2712 2664 2380 2332 2387 2549 2639 2545 2539 2228 1840 1669 1869 2042 2323 2290 2303 2579 2891 3188 3267 3304 3124 2892 2788 2615 2665 2479 2538 2674 2889 3111 3220 3183 3085 2885 3000 3177 3437 3604 3707 3744 3775 3766 3775 3705 3716 3946 4161 4002 3894 3720 3590 3565 3609 3657 3413 3259 3278 3290 3195 3219 3238 3138 3294 3230 3200 3198 3235 3297 3429 3239 3160 3180 3349 3483 3422 3584 3533 3283 3233 3192 3462 3233 3194 3330 3462 3284 3477 3547 3647 3750 3658 3753 3849 3925 3965 3873 3917 4118 4240 4295 4079 3894 3844 4008 4104 4304 4308 4143 4048 3848 3957 4081 4258 4292 4001 4128 4283 4335 4594 4379 3988 3837 3891 4303 4573 4214 4047 3786 3597 3702 3798 3984 4100 4380 4294 4027 3592 3573 3894 3917 4024 4114 3823 3729 3760 4059 3765 3742 4087 4078 4285 4200 3893 3763 3846 4011 3885 3649 4020 4239 4143 3983 3809 3562 3423 3144 3135 3152 3034 2997 3138 3350 3501 3623 3924 3595 3335 3473 3850 3992 3802 3997 4267 4202 4114 3900 3841 3821 3708 3393 3248 3136 3258 3262 3420 3474 3496 3853 3935 3761 3526 3797 4078 -9999 -9999 -9999 -9999 -9999 -9999 -9999 -9999 -9999 -9999 -9999 -9999 -9999 -9999 -9999 -9999 -9999 -9999 -9999 -9999 -9999 -9999 -9999 -9999 -9999 -9999 -9999 -9999 -9999 -9999 -9999 -9999 -9999 -9999 -9999 -9999 -9999 -9999 -9999 -9999 -9999 -9999 -9999 -9999 -9999 -9999 -9999 -9999 -9999 -9999 -9999 -9999 -9999 -9999 -9999 -9999 -9999 -9999 -9999 -9999 -9999 -9999 -9999 -9999 -9999 -9999 -9999 -9999 -9999 -9999 -9999 -9999 -9999 -9999 -9999 -9999 -9999 -9999 -9999 -9999 -9999 -9999 -9999 -9999 -9999 -9999 -9999 -9999 -9999 -9999 -9999 -9999 -9999 -9999 -9999 -9999 -9999 -9999 -9999 -9999 -9999 -9999 -9999 -9999 -9999 -9999 -9999 -9999 -9999 -9999 -9999 -9999 -9999 -9999 -9999 -9999 -9999 -9999 -9999 -9999 -9999 -9999 -9999 -9999 -9999 -9999 -9999 -9999 -9999 -9999 -9999 -9999 -9999 -9999 -9999 -9999 -9999 -9999 -9999 -9999 -9999 -9999 -9999 -9999 -9999 -9999 -9999 -9999 -9999 -9999 -9999 -9999 -9999 -9999 -9999 -9999 -9999 -9999 -9999 -9999 -9999 -9999 -9999 -9999 -9999 -9999 -9999 -9999 -9999 -9999 -9999 -9999
-9999 -9999 -9999 -9999 -9999 -9999 -9999 -9999 -9999 -9999 -9999 -9999 -9999 -9999 -9999 -9999 -9999 -9999 -9999 -9999 3612 3373 3236 3097 3075 3056 2881 2684 2548 2429 2339 2241 2283 2315 2414 2243 2250 2182 2025 1753 2125 2271 2452 2548 2603 2643 2913 3213 3487 3591 3629 3805 3977 4030 3985 3848 3664 3489 3550 3768 4088 3797 3478 3304 3117 3376 3629 3513 3217 3050 3131 3251 3535 3744 3445 3194 3110 2943 2821 2882 2992 2969 3231 3423 3536 3403 3206 3018 2745 2718 2960 3105 2931 2916 2921 2969 2652 2464 2564 2780 2994 3063 3039 2935 2699 2509 2381 2125 2132 2175 2342 2560 2521 2393 2345 2166 2317 2304 2350 2236 2203 2300 2461 2402 2162 1933 1718 1861 2104 2245 2465 2724 2761 2885 2917 3116 3110 2958 2968 2879 2776 2476 2285 2294 2652 2788 2924 2954 2910 2873 2853 2612 3019 3163 3198 3308 3348 3457 3530 3609 3807 3868 3752 3911 4009 3878 3788 3736 3422 3305 3345 3347 3272 3103 2948 2911 2841 2820 2837 2827 2846 2862 2830 2843 2835 3004 2975 2994 2877 2818 3137 3118 3150 3151 3154 3009 2847 3081 3033 2941 3014 3161 3074 2842 3154 3118 3283 3322 3421 3532 3386 3469 3600 3459 3676 3765 3872 4062 4058 4201 4040 4193 4225 4084 4068 3772 3635 3633 3984 4203 4411 4256 4344 4284 4040 4014 4101 4294 4227 3966 4192 4284 4110 4384 4398 4089 3810 4258 4216 3812 4227 4346 4412 4049 3745 3861 3896 3916 4159 3915 3572 3441 3574 3860 3503 3484 3752 3867 3826 3961 4054 4110 4056 3721 3550 3396 3799 3854 3765 3624 3590 3452 3332 3109 2886 2967 3230 3192 2992 2985 3238 3382 3645 3335 3311 3578 3920 3755 3580 3733 3912 3852 4125 4132 4051 3716 3480 3248 3132 3262 3476 3652 3714 3812 3779 4076 4025 3885 3605 3646 3844 3958 4163 -9999 -9999 -9999 -9999 -9999 -9999 -9999 -9999 -9999 -9999 -9999 -9999 -9999 -9999 -9999 -9999 -9999 -9999 -9999 -9999 -9999 -9999 -9999 -9999 -9999 -9999 -9999 -9999 -9999 -9999 -9999 -9999 -9999 -9999 -9999 -9999 -9999 -9999 -9999 -9999 -9999 -9999 -9999 -9999 -9999 -9999 -9999 -9999 -9999 -9999 -9999 -9999 -9999 -9999 -9999 -9999 -9999 -9999 -9999 -9999 -9999 -9999 -9999 -9999 -9999 -9999 -9999 -9999 -9999 -9999 -9999 -9999 -9999 -9999 -9999 -9999 -9999 -9999 -9999 -9999 -9999 -9999 -9999 -9999 -9999 -9999 -9999 -9999 -9999 -9999 -9999 -9999 -9999 -9999 -9999 -9999 -9999 -9999 -9999 -9999 -9999 -9999 -9999 -9999 -9999 -9999 -9999 -9999 -9999 -9999 -9999 -9999 -9999 -9999 -9999 -9999 -9999 -9999 -9999 -9999 -9999 -9999 -9999 -9999 -9999 -9999 -9999 -9999 -9999 -9999 -9999 -9999 -9999 -9999 -9999 -9999 -9999 -9999 -9999 -9999 -9999 -9999 -9999 -9999 -9999 -9999 -9999 -9999 -9999 -9999 -9999 -9999 -9999 -9999 -9999 -9999 -9999 -9999 -9999 -9999 -9999 -9999 -9999 -9999 -9999 -9999 -9999 -9999 -9999 -9999
-9999 -9999 -9999 -9999 -9999 -9999 -9999 -9999 -9999 -9999 -9999 -9999 -9999 -9999 -9999 -9999 -9999 -9999 -9999 -9999 3530 3374 3263 3087 3002 2929 2854 2631 2581 2628 2530 2358 2149 2150 2240 2089 1986 1953 1967 1747 1950 2044 2205 2365 2525 2665 2938 3264 3516 3601 3617 3724 3865 3918 3889 3818 3672 3556 3655 3812 3970 3800 3488 3354 3219 3432 3572 3481 3232 3127 3207 3283 3391 3703 3527 3237 3119 2895 2887 3047 3141 3034 3298 3642 3680 3452 3226 3003 2770 2796 3077 3289 3108 3080 3107 2984 2677 2482 2609 2845 3000 3147 2923 2857 2817 2577 2497 2325 2139 2092 2278 2370 2341 2224 2206 2069 2144 2193 2348 2231 2141 2169 2278 2294 1981 1817 1723 1986 2265 2383 2645 2904 2954 2955 3082 3192 3058 2786 2788 2713 2710 2561 2320 2255 2586 2592 2753 2713 2705 2705 2671 2596 2961 3027 3036 3131 3233 3295 3412 3517 3726 3894 3827 4011 3986 3922 3932 3893 3469 3220 3208 3196 3099 3006 2886 2871 2897 2846 2771 2719 2686 2712 2732 2729 2712 2771 2744 2756 2744 2676 2944 2885 2920 2940 2907 2864 2720 2837 2822 2783 2912 2968 2931 2687 3030 2952 3129 3162 3329 3339 3243 3272 3415 3280 3559 3530 3703 3807 3807 4012 3951 3939 4041 4017 3935 3659 3506 3544 3880 4011 4243 4140 4372 4117 3837 3851 4011 4114 4276 4131 4231 4097 3966 4210 4337 4060 3952 4124 3988 3686 3973 4118 4220 4225 3854 3953 4053 3982 4100 3828 3537 3345 3444 3603 3358 3394 3561 3753 3689 3854 3818 3947 3916 3604 3461 3335 3747 3658 3583 3469 3356 3248 3158 2959 2883 3101 3489 3433 3243 2927 3122 3260 3432 3181 3358 3575 3798 3612 3491 3695 3877 3723 3989 4042 3892 3635 3411 3146 3139 3369 3489 3755 3738 3891 3831 4104 3987 3847 3698 3724 3816 3976 -9999 -9999 -9999 -9999 -9999 -9999 -9999 -9999 -9999 -9999 -9999 -9999 -9999 -9999 -9999 -9999 -9999 -9999 -9999 -9999 -9999 -9999 -9999 -9999 -9999 -9999 -9999 -9999 -9999 -9999 -9999 -9999 -9999 -9999 -9999 -9999 -9999 -9999 -9999 -9999 -9999 -9999 -9999 -9999 -9999 -9999 -9999 -9999 -9999 -9999 -9999 -9999 -9999 -9999 -9999 -9999 -9999 -9999 -9999 -9999 -9999 -9999 -9999 -9999 -9999 -9999 -9999 -9999 -9999 -9999 -9999 -9999 -9999 -9999 -9999 -9999 -9999 -9999 -9999 -9999 -9999 -9999 -9999 -9999 -9999 -9999 -9999 -9999 -9999 -9999 -9999 -9999 -9999 -9999 -9999 -9999 -9999 -9999 -9999 -9999 -9999 -9999 -9999 -9999 -9999 -9999 -9999 -9999 -9999 -9999 -9999 -9999 -9999 -9999 -9999 -9999 -9999 -9999 -9999 -9999 -9999 -9999 -9999 -9999 -9999 -9999 -9999 -9999 -9999 -9999 -9999 -9999 -9999 -9999 -9999 -9999 -9999 -9999 -9999 -9999 -9999 -9999 -9999 -9999 -9999 -9999 -9999 -9999 -9999 -9999 -9999 -9999 -9999 -9999 -9999 -9999 -9999 -9999 -9999 -9999 -9999 -9999 -9999 -9999 -9999 -9999 -9999 -9999 -9999 -9999 -9999
-9999 -9999 -9999 -9999 -9999 -9999 -9999 -9999 -9999 -9999 -9999 -9999 -9999 -9999 -9999 -9999 -9999 -9999 -9999 -9999 -9999 3652 3432 3166 3095 2929 2959 2927 3038 2975 2684 2636 2476 2389 2162 2069 2169 2107 1849 2035 2117 2122 2079 2141 2320 2434 2741 3147 3427 3428 3414 3336 3406 3511 3538 3576 3572 3564 3593 3646 3704 3781 3780 3770 3779 3820 3865 3783 3451 3353 3424 3519 3674 3716 3630 3370 3207 3015 3337 3629 3749 3455 3453 3784 3769 3491 3347 2984 2861 3021 3342 3472 3312 3296 3077 2839 2589 2495 2558 2781 3118 3096 2775 2558 2541 2408 2357 2249 2285 2052 1964 1965 1946 1941 1927 1908 1879 1864 1934 1985 1944 2102 1962 1972 1832 1699 1910 1997 2173 2358 2617 2965 3109 3235 3095 2921 2865 2860 2562 2378 2344 2500 2451 2132 2147 2192 2173 2340 2363 2392 2463 2586 2702 2757 3008 3194 3378 3449 3567 3722 3884 4135 4249 3900 3984 4059 4078 3988 3588 3236 3166 3102 2986 2941 3040 3082 3166 3155 2913 2787 2971 2913 2762 2716 2618 2559 2543 2424 2423 2407 2584 2510 2538 2519 2462 2487 2408 2363 2377 2479 2482 2471 2458 2484 2671 2751 2838 2830 2926 2923 2829 2960 2940 2874 3112 3249 3500 3308 3424 3663 3708 3629 3799 3958 3633 3440 3332 3331 3562 3773 4016 4221 4274 3901 3644 3688 4194 4325 4248 4196 3950 3657 3660 3887 4030 4196 4088 3820 3696 3437 3656 3883 4025 3998 3902 4060 3862 3814 3812 3696 3430 3273 3139 3372 3106 3168 3323 3374 3497 3534 3559 3732 3659 3505 3365 3262 3468 3361 3314 3170 3045 2930 2869 2931 3190 3352 3789 3871 3542 3193 2928 2975 3046 3162 3289 3303 3376 3376 3313 3632 3680 3470 3803 3833 3712 3489 3193 3106 3237 3502 3683 3846 3867 3972 3951 4128 3995 3903 4016 3957 3852 3949 -9999 -9999 -9999 -9999 -9999 -9999 -9999 -9999 -9999 -9999 -9999 -9999 -9999 -9999 -9999 -9999 -9999 -9999 -9999 -9999 -9999 -9999 -9999 -9999 -9999 -9999 -9999 -9999 -9999 -9999 -9999 -9999 -9999 -9999 -9999 -9999 -9999 -9999 -9999 -9999 -9999 -9999 -9999 -9999 -9999 -9999 -9999 -9999 -9999 -9999 -9999 -9999 -9999 -9999 -9999 -9999 -9999 -9999 -9999 -9999 -9999 -9999 -9999 -9999 -9999 -9999 -9999 -9999 -9999 -9999 -9999 -9999 -9999 -9999 -9999 -9999 -9999 -9999 -9999 -9999 -9999 -9999 -9999 -9999 -9999 -9999 -9999 -9999 -9999 -9999 -9999 -9999 -9999 -9999 -9999 -9999 -9999 -9999 -9999 -9999 -9999 -9999 -9999 -9999 -9999 -9999 -9999 -9999 -9999 -9999 -9999 -9999 -9999 -9999 -9999 -9999 -9999 -9999 -9999 -9999 -9999 -9999 -9999 -9999 -9999 -9999 -9999 -9999 -9999 -9999 -9999 -9999 -9999 -9999 -9999 -9999 -9999 -9999 -9999 -9999 -9999 -9999 -9999 -9999 -9999 -9999 -9999 -9999 -9999 -9999 -9999 -9999 -9999 -9999 -9999 -9999 -9999 -9999 -9999 -9999 -9999 -9999 -9999 -9999 -9999 -9999 -9999 -9999 -9999 -9999 -9999
-9999 -9999 -9999 -9999 -9999 -9999 -9999 -9999 -9999 -9999 -9999 -9999 -9999 -9999 -9999 -9999 -9999 -9999 -9999 -9999 -9999 -9999 3614 3368 3274 3432 3239 3138 3168 3244 2982 2963 2679 2526 2281 2286 2196 2061 1879 2217 2532 2529 2406 2439 2625 2746 2949 3129 3332 3136 3029 2937 3014 3187 3267 3323 3357 3424 3450 3511 3552 3639 3865 3984 4196 4312 4422 4422 4285 4134 4090 4091 3955 3846 3756 3484 3280 3073 3614 3858 3915 3931 3786 3721 3631 3454 3188 2928 3081 3287 3468 3374 3141 3098 2941 2794 2549 2703 2916 2955 3173 3171 2894 2704 2507 2382 2371 2397 2448 2333 2243 2123 2155 2257 2202 2007 2169 2067 1910 1862 1781 1817 1701 1691 1660 1649 1933 2094 2207 2357 2584 2855 2987 3022 2903 2746 2653 2459 2377 2426 2428 2146 2126 2012 2303 2345 2454 2486 2590 2682 2729 2835 2970 3028 3118 3292 3541 3602 3728 3926 3975 3851 3738 3435 3454 3701 3829 3998 3988 3835 3612 3434 3437 3514 3566 3529 3491 3336 2988 3085 3441 3471 3267 3220 2954 2861 2733 2575 2534 2419 2268 2267 2269 2283 2354 2369 2379 2595 2482 2386 2457 2526 2543 2364 2386 2366 2417 2399 2418 2470 2449 2506 2600 2670 2925 3053 3092 3141 3288 3269 3411 3319 3355 3490 3560 3210 3116 3103 3379 3644 3827 3863 3929 3847 3451 3552 4008 4098 3819 3689 3616 3451 3602 3964 3982 3802 3808 3600 3478 3283 3517 3833 3844 3647 3608 3813 3560 3469 3493 3421 3316 3218 2982 3112 2951 2917 3013 3035 3288 3254 3302 3442 3290 3198 3168 3029 2984 2973 2930 2864 2909 2924 3085 3280 3442 3523 3789 3758 3491 3274 3170 3161 2981 2937 2966 3004 3042 3127 3206 3336 3378 3350 3662 3612 3512 3254 3072 3282 3377 3643 3833 3842 3925 3896 3943 4002 4028 4042 4250 3999 4110 -9999 -9999 -9999 -9999 -9999 -9999 -9999 -9999 -9999 -9999 -9999 -9999 -9999 -9999 -9999 -9999 -9999 -9999 -9999 -9999 -9999 -9999 -9999 -9999 -9999 -9999 -9999 -9999 -9999 -9999 -9999 -9999 -9999 -9999 -9999 -9999 -9999 -9999 -9999 -9999 -9999 -9999 -9999 -9999 -9999 -9999 -9999 -9999 -9999 -9999 -9999 -9999 -9999 -9999 -9999 -9999 -9999 -9999 -9999 -9999 -9999 -9999 -9999 -9999 -9999 -9999 -9999 -9999 -9999 -9999 -9999 -9999 -9999 -9999 -9999 -9999 -9999 -9999 -9999 -9999 -9999 -9999 -9999 -9999 -9999 -9999 -9999 -9999 -9999 -9999 -9999 -9999 -9999 -9999 -9999 -9999 -9999 -9999 -9999 -9999 -9999 -9999 -9999 -9999 -9999 -9999 -9999 -9999 -9999 -9999 -9999 -9999 -9999 -9999 -9999 -9999 -9999 -9999 -9999 -9999 -9999 -9999 -9999 -9999 -9999 -9999 -9999 -9999 -9999 -9999 -9999 -9999 -9999 -9999 -9999 -9999 -9999 -9999 -9999 -9999 -9999 -9999 -9999 -9999 -9999 -9999 -9999 -9999 -9999 -9999 -9999 -9999 -9999 -9999 -9999 -9999 -9999 -9999 -9999 -9999 -9999 -9999 -9999 -9999 -9999 -9999 -9999 -9999 -9999 -9999 -9999 -9999
-9999 -9999 -9999 -9999 -9999 -9999 -9999 -9999 -9999 -9999 -9999 -9999 -9999 -9999 -9999 -9999 -9999 -9999 -9999 -9999 -9999 -9999 3789 3615 3520 3687 3559 3466 3336 3272 3134 2881 2710 2540 2415 2514 2160 2028 1875 1930 2174 2198 2472 2673 2890 3004 3159 3006 2936 2856 2822 2770 2948 3180 3274 3298 3265 3255 3264 3466 3686 3639 3730 3858 4218 4528 4828 4903 4754 4458 4267 4223 4109 3998 3805 3567 3440 3258 3445 3786 3831 3998 3988 3748 3616 3499 3245 3190 3620 3614 3461 3301 3079 2962 2823 2704 2741 2891 3168 3336 3404 3284 2990 2672 2630 2689 2741 2710 2801 2580 2471 2410 2424 2499 2388 2129 2400 2175 2135 2257 1975 1982 2078 2119 1893 1646 1885 2021 2265 2516 2842 2952 2962 2799 2677 2588 2539 2369 2185 2063 2081 1992 1865 2168 2444 2512 2623 2717 2813 2863 3048 3116 3209 3289 3480 3600 3661 3624 3631 3511 3297 3088 3011 2994 3168 3423 3577 3896 4141 4194 4162 4040 3928 3851 3770 3690 3491 3266 3142 3288 3440 3621 3807 3668 3418 3190 3266 2999 2786 2399 2304 2524 2561 2664 2627 2682 2784 2906 2812 2770 2749 2627 2516 2627 2746 2662 2532 2609 2689 2596 2660 2587 2410 2464 2608 2755 2703 2936 3072 3002 3092 2895 2918 3070 3186 3038 2929 3064 3237 3355 3437 3480 3543 3597 3693 3724 4008 4019 3787 3698 3429 3294 3524 3762 3669 3490 3421 3564 3497 3140 3371 3558 3548 3333 3432 3545 3409 3297 3224 3101 3036 2987 2870 2770 2837 2891 2858 2805 2903 2935 2961 3028 2968 2910 2867 2847 3008 3021 3074 3160 3238 3107 3096 3474 3698 3785 3905 3791 3526 3451 3498 3415 3133 3130 3031 3010 2957 2991 3010 3071 3133 3204 3320 3256 3181 3047 3271 3486 3576 3650 3592 3517 3698 3568 3647 3686 3691 3781 3919 4130 -9999 -9999 -9999 -9999 -9999 -9999 -9999 -9999 -9999 -9999 -9999 -9999 -9999 -9999 -9999 -9999 -9999 -9999 -9999 -9999 -9999 -9999 -9999 -9999 -9999 -9999 -9999 -9999 -9999 -9999 -9999 -9999 -9999 -9999 -9999 -9999 -9999 -9999 -9999 -9999 -9999 -9999 -9999 -9999 -9999 -9999 -9999 -9999 -9999 -9999 -9999 -9999 -9999 -9999 -9999 -9999 -9999 -9999 -9999 -9999 -9999 -9999 -9999 -9999 -9999 -9999 -9999 -9999 -9999 -9999 -9999 -9999 -9999 -9999 -9999 -9999 -9999 -9999 -9999 -9999 -9999 -9999 -9999 -9999 -9999 -9999 -9999 -9999 -9999 -9999 -9999 -9999 -9999 -9999 -9999 -9999 -9999 -9999 -9999 -9999 -9999 -9999 -9999 -9999 -9999 -9999 -9999 -9999 -9999 -9999 -9999 -9999 -9999 -9999 -9999 -9999 -9999 -9999 -9999 -9999 -9999 -9999 -9999 -9999 -9999 -9999 -9999 -9999 -9999 -9999 -9999 -9999 -9999 -9999 -9999 -9999 -9999 -9999 -9999 -9999 -9999 -9999 -9999 -9999 -9999 -9999 -9999 -9999 -9999 -9999 -9999 -9999 -9999 -9999 -9999 -9999 -9999 -9999 -9999 -9999 -9999 -9999 -9999 -9999 -9999 -9999 -9999 -9999 -9999 -9999 -9999 -9999 -9999
-9999 -9999 -9999 -9999 -9999 -9999 -9999 -9999 -9999 -9999 -9999 -9999 -9999 -9999 -9999 -9999 -9999 -9999 -9999 -9999 -9999 -9999 -9999 -9999 3714 3663 3377 3176 3095 2956 2806 2692 2598 2544 2599 2619 2442 2439 2203 1839 2136 2208 2325 2239 2564 2794 2674 2570 2631 2748 2808 2965 3093 3317 3435 3571 3476 3212 3161 3435 3788 3835 3859 3892 4090 4444 4872 4993 4842 4458 4160 4083 4060 4051 3840 3566 3439 3394 3568 3701 3796 3983 4063 3920 3810 3609 3457 3434 3503 3497 3292 3102 3009 3019 3097 2750 2843 3024 3616 3967 3598 3348 3097 2817 2862 3055 3129 3129 3001 2661 2546 2728 3018 2655 2483 2329 2533 2256 2339 2453 2254 2429 2571 2431 2019 1664 1934 2114 2357 2559 2703 2474 2553 2458 2498 2317 2214 2061 2089 1986 1833 1885 2011 1993 2116 2174 2266 2435 2633 2754 2979 2985 2956 2939 3031 3214 3191 3138 3004 2805 2627 2518 2540 2723 2940 3148 3271 3567 3920 4148 4181 4074 3986 3868 3676 3609 3451 3395 3458 3496 3610 3705 3662 3688 3727 3674 3541 3128 2889 2377 2600 2986 3170 3218 3043 2865 2827 3013 3211 2979 2636 2585 2914 2993 3150 3122 2870 2882 3158 3122 3065 2901 2788 2697 2521 2426 2562 2731 2781 2791 2841 2717 2651 2727 2901 2727 2761 3034 2966 3049 3172 3256 3188 3381 3486 3552 3777 3790 3760 3559 3268 3232 3455 3588 3435 3185 3139 3263 3223 3005 3169 3164 3170 3099 3193 3217 3198 3148 2933 2856 2742 2748 2888 3002 3143 3077 3217 3111 2941 2955 2962 2872 2920 3047 3102 3091 3320 3409 3459 3435 3522 3295 3259 3306 3497 3767 3980 3896 3742 3524 3322 3234 3259 3416 3333 3283 3062 3118 3007 2984 2995 3026 3007 3020 3062 3093 3150 3205 3282 3329 3395 3380 3438 3380 3357 3370 3447 3498 3666 3843 -9999 -9999 -9999 -9999 -9999 -9999 -9999 -9999 -9999 -9999 -9999 -9999 -9999 -9999 -9999 -9999 -9999 -9999 -9999 -9999 -9999 -9999 -9999 -9999 -9999 -9999 -9999 -9999 -9999 -9999 -9999 -9999 -9999 -9999 -9999 -9999 -9999 -9999 -9999 -9999 -9999 -9999 -9999 -9999 -9999 -9999 -9999 -9999 -9999 -9999 -9999 -9999 -9999 -9999 -9999 -9999 -9999 -9999 -9999 -9999 -9999 -9999 -9999 -9999 -9999 -9999 -9999 -9999 -9999 -9999 -9999 -9999 -9999 -9999 -9999 -9999 -9999 -9999 -9999 -9999 -9999 -9999 -9999 -9999 -9999 -9999 -9999 -9999 -9999 -9999 -9999 -9999 -9999 -9999 -9999 -9999 -9999 -9999 -9999 -9999 -9999 -9999 -9999 -9999 -9999 -9999 -9999 -9999 -9999 -9999 -9999 -9999 -9999 -9999 -9999 -9999 -9999 -9999 -9999 -9999 -9999 -9999 -9999 -9999 -9999 -9999 -9999 -9999 -9999 -9999 -9999 -9999 -9999 -9999 -9999 -9999 -9999 -9999 -9999 -9999 -9999 -9999 -9999 -9999 -9999 -9999 -9999 -9999 -9999 -9999 -9999 -9999 -9999 -9999 -9999 -9999 -9999 -9999 -9999 -9999 -9999 -9999 -9999 -9999 -9999 -9999 -9999 -9999 -9999 -9999 -9999 -9999 -9999
-9999 -9999 -9999 -9999 -9999 -9999 -9999 -9999 -9999 -9999 -9999 -9999 -9999 -9999 -9999 -9999 -9999 -9999 -9999 -9999 -9999 -9999 -9999 -9999 -9999 3618 3453 3343 3215 3035 2865 2741 2812 2736 2730 2712 2532 2461 2173 1878 1957 2033 2038 2138 2378 2557 2446 2484 2699 2788 2845 3113 3279 3394 3504 3800 3701 3291 3223 3419 3727 3972 4065 4035 4019 4355 4781 4902 4808 4453 4160 4059 3990 4061 3841 3559 3491 3550 3718 3900 3983 4040 4078 4016 3957 3801 3669 3537 3407 3369 3281 3105 3099 3151 3180 2786 2796 2984 3496 3914 3806 3616 3165 2872 2989 3324 3443 3302 2819 2640 2659 2908 3157 2675 2518 2503 2643 2327 2461 2592 2501 2574 2622 2465 2172 1743 1844 1992 2219 2414 2558 2296 2319 2305 2423 2195 2075 1921 1891 1786 1757 1766 1776 1778 1928 1974 2105 2349 2566 2628 2679 2637 2526 2488 2570 2778 2877 2845 2713 2504 2367 2329 2390 2633 2769 2949 3062 3327 3645 3881 3932 3906 3951 3944 3725 3651 3515 3558 3662 3685 3737 3872 3553 3469 3577 3678 3343 2977 2793 2484 2833 3276 3421 3520 3439 3262 3155 3161 3487 3201 2644 2644 3091 3335 3467 3420 3255 3265 3317 3406 3318 3121 3081 2942 2770 2531 2443 2594 2645 2682 2700 2588 2566 2609 2729 2652 2797 2973 2872 2914 3105 3117 3094 3278 3498 3585 3732 3682 3632 3503 3184 3176 3406 3399 3339 3127 2999 3108 3105 2903 3047 2978 2969 2954 3028 3084 3055 3010 2845 2767 2826 2893 3049 3134 3344 3266 3436 3285 3051 3097 3147 3068 3134 3230 3269 3092 3264 3488 3597 3614 3623 3521 3492 3346 3441 3765 -9999 -9999 3689 3488 3382 3307 3365 3536 3355 3240 3069 3226 3118 2981 3001 3027 3075 3109 3076 3140 3116 3115 3147 3181 3264 3305 3274 3290 3387 3424 3387 3431 3554 3778 4027 -9999 -9999 -9999 -9999 -9999 -9999 -9999 -9999 -9999 -9999 -9999 -9999 -9999 -9999 -9999 -9999 -9999 -9999 -9999 -9999 -9999 -9999 -9999 -9999 -9999 -9999 -9999 -9999 -9999 -9999 -9999 -9999 -9999 -9999 -9999 -9999 -9999 -9999 -9999 -9999 -9999 -9999 -9999 -9999 -9999 -9999 -9999 -9999 -9999 -9999 -9999 -9999 -9999 -9999 -9999 -9999 -9999 -9999 -9999 -9999 -9999 -9999 -9999 -9999 -9999 -9999 -9999 -9999 -9999 -9999 -9999 -9999 -9999 -9999 -9999 -9999 -9999 -9999 -9999 -9999 -9999 -9999 -9999 -9999 -9999 -9999 -9999 -9999 -9999 -9999 -9999 -9999 -9999 -9999 -9999 -9999 -9999 -9999 -9999 -9999 -9999 -9999 -9999 -9999 -9999 -9999 -9999 -9999 -9999 -9999 -9999 -9999 -9999 -9999 -9999 -9999 -9999 -9999 -9999 -9999 -9999 -9999 -9999 -9999 -9999 -9999 -9999 -9999 -9999 -9999 -9999 -9999 -9999 -9999 -9999 -9999 -9999 -9999 -9999 -9999 -9999 -9999 -9999 -9999 -9999 -9999 -9999 -9999 -9999 -9999 -9999 -9999 -9999 -9999 -9999 -9999 -9999 -9999 -9999 -9999 -9999 -9999 -9999 -9999 -9999 -9999 -9999 -9999 -9999 -9999 -9999 -9999
-9999 -9999 -9999 -9999 -9999 -9999 -9999 -9999 -9999 -9999 -9999 -9999 -9999 -9999 -9999 -9999 -9999 -9999 -9999 -9999 -9999 -9999 -9999 -9999 -9999 3789 3541 3388 3291 3140 3119 2998 3019 2939 2857 2624 2426 2351 2158 1891 2028 2177 2220 2189 2086 2119 2244 2509 2857 3187 3215 3315 3836 3740 3649 3952 4057 3603 3413 3379 3678 4089 4242 4148 3967 4235 4634 4748 4647 4454 4306 4189 3932 3702 3540 3526 3574 3713 4028 4419 4493 4416 4289 4258 4232 4027 3767 3567 3403 3334 3209 3145 3354 3334 3118 2815 2790 2923 3219 3561 3783 3724 3322 3132 3344 3584 3639 3254 3220 3096 3227 3218 3322 3002 2919 2913 2644 2586 2833 2842 2651 2522 2362 2351 2179 1866 1671 1755 2012 2083 2184 2013 1965 2006 2033 1930 1794 1777 1941 2011 2107 2059 1915 2026 1938 1840 1946 2108 2188 2200 2241 2130 1962 1930 2089 2244 2301 2311 2354 2304 2262 2326 2349 2357 2444 2575 2670 2896 3133 3331 3428 3547 3726 3877 3806 3810 3877 4071 3844 3656 3472 3382 3271 3184 3269 3186 3073 2635 2436 2494 3002 3438 3597 3791 3778 3743 3657 3544 3596 3202 2931 3061 3657 3864 4052 3749 3463 3462 3779 3837 3679 3570 3353 3204 2945 2707 2510 2544 2517 2444 2506 2560 2571 2523 2518 2704 2721 2743 2601 2793 2828 2907 3120 3318 3453 3518 3548 3445 3365 3268 3046 3002 3207 3149 3106 2892 2759 2798 2797 2739 2704 2697 2674 2685 2716 2821 2780 2737 2731 2805 2897 3033 3222 3356 3491 3576 3549 3477 3204 3210 3455 3460 3472 3555 3413 3391 3264 3349 3442 3648 3786 3746 3636 3438 3525 -9999 -9999 -9999 -9999 3659 3500 3392 3547 3462 3256 3144 3228 3436 3306 3088 3026 3035 3130 3324 3332 3413 3449 3362 3295 3252 3305 3278 3298 3351 3313 3537 3615 3541 3480 3715 3962 -9999 -9999 -9999 -9999 -9999 -9999 -9999 -9999 -9999 -9999 -9999 -9999 -9999 -9999 -9999 -9999 -9999 -9999 -9999 -9999 -9999 -9999 -9999 -9999 -9999 -9999 -9999 -9999 -9999 -9999 -9999 -9999 -9999 -9999 -9999 -9999 -9999 -9999 -9999 -9999 -9999 -9999 -9999 -9999 -9999 -9999 -9999 -9999 -9999 -9999 -9999 -9999 -9999 -9999 -9999 -9999 -9999 -9999 -9999 -9999 -9999 -9999 -9999 -9999 -9999 -9999 -9999 -9999 -9999 -9999 -9999 -9999 -9999 -9999 -9999 -9999 -9999 -9999 -9999 -9999 -9999 -9999 -9999 -9999 -9999 -9999 -9999 -9999 -9999 -9999 -9999 -9999 -9999 -9999 -9999 -9999 -9999 -9999 -9999 -9999 -9999 -9999 -9999 -9999 -9999 -9999 -9999 -9999 -9999 -9999 -9999 -9999 -9999 -9999 -9999 -9999 -9999 -9999 -9999 -9999 -9999 -9999 -9999 -9999 -9999 -9999 -9999 -9999 -9999 -9999 -9999 -9999 -9999 -9999 -9999 -9999 -9999 -9999 -9999 -9999 -9999 -9999 -9999 -9999 -9999 -9999 -9999 -9999 -9999 -9999 -9999 -9999 -9999 -9999 -9999 -9999 -9999 -9999 -9999 -9999 -9999 -9999 -9999 -9999 -9999 -9999 -9999 -9999 -9999 -9999 -9999 -9999
-9999 -9999 -9999 -9999 -9999 -9999 -9999 -9999 -9999 -9999 -9999 -9999 -9999 -9999 -9999 -9999 -9999 -9999 -9999 -9999 -9999 -9999 -9999 -9999 -9999 3867 3788 3548 3516 3430 3352 2940 2685 2540 2612 2501 2289 2256 2000 1927 2019 2148 2388 2424 2186 2290 2457 2647 3007 3370 3473 3647 3737 3963 3821 3910 4155 3815 3623 3391 3652 3954 4100 4091 4035 4220 4525 4617 4510 4432 4357 4286 4103 3766 3582 3741 3750 3964 4293 4543 4569 4489 4410 4378 4332 4074 3752 3558 3462 3379 3256 3345 3430 3421 3177 2820 2928 3074 3152 3337 3672 3854 3658 3477 3734 3691 3561 3487 3405 3349 3433 3546 3451 3250 3188 3014 2995 3009 2831 2659 2368 2228 2119 2030 2041 1834 1665 1693 1675 1701 1779 1736 1724 1745 1746 1814 2004 2087 2249 2346 2357 2257 2236 2517 2465 2490 2460 2222 2289 2263 2300 2269 2177 2111 1981 2048 2135 2235 2166 2064 2087 2113 2202 2261 2301 2312 2368 2601 2814 2917 2959 3082 3238 3422 3585 3672 3771 3750 3507 3352 3156 2956 2875 2812 2833 2756 2635 2520 2432 2356 2793 3156 3298 3642 3985 4117 4098 3957 3795 3458 3379 3436 3613 3592 3384 3194 2988 3090 3308 3383 3548 3421 3166 3070 2864 2699 2811 2839 2665 2776 2800 2888 2870 2681 2580 2499 2463 2537 2520 2492 2712 2818 2948 3012 3231 3327 3375 3302 3162 3127 2928 2907 2978 2866 2816 2670 2679 2703 2734 2742 2977 3053 3017 2985 2832 2748 2730 2848 3018 3019 2962 2969 3069 3268 3434 3529 3637 3526 3515 3573 3570 3677 3650 3582 3547 -9999 3469 3416 -9999 -9999 -9999 -9999 -9999 -9999 -9999 -9999 -9999 -9999 -9999 -9999 3517 3556 3558 3408 3214 3134 3322 3570 3415 3322 3254 3126 3068 3090 3109 3143 3257 3439 3448 3512 3616 3506 3418 3539 3343 3454 3708 3751 3537 3691 3925 -9999 -9999 -9999 -9999 -9999 -9999 -9999 -9999 -9999 -9999 -9999 -9999 -9999 -9999 -9999 -9999 -9999 -9999 -9999 -9999 -9999 -9999 -9999 -9999 -9999 -9999 -9999 -9999 -9999 -9999 -9999 -9999 -9999 -9999 -9999 -9999 -9999 -9999 -9999 -9999 -9999 -9999 -9999 -9999 -9999 -9999 -9999 -9999 -9999 -9999 -9999 -9999 -9999 -9999 -9999 -9999 -9999 -9999 -9999 -9999 -9999 -9999 -9999 -9999 -9999 -9999 -9999 -9999 -9999 -9999 -9999 -9999 -9999 -9999 -9999 -9999 -9999 -9999 -9999 -9999 -9999 -9999 -9999 -9999 -9999 -9999 -9999 -9999 -9999 -9999 -9999 -9999 -9999 -9999 -9999 -9999 -9999 -9999 -9999 -9999 -9999 -9999 -9999 -9999 -9999 -9999 -9999 -9999 -9999 -9999 -9999 -9999 -9999 -9999 -9999 -9999 -9999 -9999 -9999 -9999 -9999 -9999 -9999 -9999 -9999 -9999 -9999 -9999 -9999 -9999 -9999 -9999 -9999 -9999 -9999 -9999 -9999 -9999 -9999 -9999 -9999 -9999 -9999 -9999 -9999 -9999 -9999 -9999 -9999 -9999 -9999 -9999 -9999 -9999 -9999 -9999 -9999 -9999 -9999 -9999 -9999 -9999 -9999 -9999 -9999 -9999 -9999 -9999 -9999 -9999 -9999 -9999
-9999 -9999 -9999 -9999 -9999 -9999 -9999 -9999 -9999 -9999 -9999 -9999 -9999 -9999 -9999 -9999 -9999 -9999 -9999 -9999 -9999 -9999 -9999 -9999 -9999 -9999 3743 3495 3405 3229 3021 2670 2552 2365 2129 2000 2080 2108 2093 2203 1943 2176 2588 2634 2419 2295 2479 2679 2922 3144 3223 3477 3689 3798 3858 4071 4192 3894 3771 3562 3479 3925 4180 4160 4172 4234 4371 4399 4322 4186 4220 4206 4032 3871 3780 3772 3819 4010 4205 4216 4220 4252 4384 4328 4247 4047 3833 3676 3601 3596 3428 3335 3114 3036 2856 2806 3119 3241 3284 3447 3513 3610 3893 3819 3847 3754 3749 3662 3576 3671 3746 3707 3433 3215 3098 2821 2892 2925 2917 2791 2530 2103 1851 1794 1697 1718 1887 2037 2013 1997 1950 2147 2127 1769 1965 2080 2139 2336 2476 2633 2574 2336 2366 2710 3021 2954 2704 2518 2636 2715 2792 2730 2452 2430 2375 2386 2245 2067 2128 2209 2520 2574 2574 2653 2570 2413 2368 2540 2649 2593 2536 2636 2790 2950 3121 3143 3184 3126 2967 2901 2828 2708 2602 2485 2421 2330 2235 2170 2213 2333 2595 2812 2944 3364 4067 4319 4341 4223 4052 3756 3552 3659 3811 3488 3225 3114 2888 2983 3287 3482 3650 3470 3205 3134 2995 2972 3089 2897 2889 2914 3036 2954 3048 2940 2825 2784 2723 2838 2636 2663 2571 2511 2535 2717 2898 2869 3052 2992 2870 2827 2815 2684 2679 2628 2584 2810 2975 3066 3089 2986 3032 3298 3339 3154 3005 2941 2752 2858 3038 3258 3222 3228 3338 3464 3748 3709 3767 3570 3518 -9999 -9999 -9999 -9999 -9999 -9999 -9999 -9999 -9999 -9999 -9999 -9999 -9999 -9999 -9999 -9999 -9999 -9999 -9999 -9999 -9999 -9999 3505 3367 3237 3143 3225 3486 3661 3624 3601 3568 3437 3227 3113 3175 3144 3108 3170 3261 3491 3617 3763 3627 3697 3415 3538 3768 3886 3738 3635 3883 -9999 -9999 -9999 -9999 -9999 -9999 -9999 -9999 -9999 -9999 -9999 -9999 -9999 -9999 -9999 -9999 -9999 -9999 -9999 -9999 -9999 -9999 -9999 -9999 -9999 -9999 -9999 -9999 -9999 -9999 -9999 -9999 -9999 -9999 -9999 -9999 -9999 -9999 -9999 -9999 -9999 -9999 -9999 -9999 -9999 -9999 -9999 -9999 -9999 -9999 -9999 -9999 -9999 -9999 -9999 -9999 -9999 -9999 -9999 -9999 -9999 -9999 -9999 -9999 -9999 -9999 -9999 -9999 -9999 -9999 -9999 -9999 -9999 -9999 -9999 -9999 -9999 -9999 -9999 -9999 -9999 -9999 -9999 -9999 -9999 -9999 -9999 -9999 -9999 -9999 -9999 -9999 -9999 -9999 -9999 -9999 -9999 -9999 -9999 -9999 -9999 -9999 -9999 -9999 -9999 -9999 -9999 -9999 -9999 -9999 -9999 -9999 -9999 -9999 -9999 -9999 -9999 -9999 -9999 -9999 -9999 -9999 -9999 -9999 -9999 -9999 -9999 -9999 -9999 -9999 -9999 -9999 -9999 -9999 -9999 -9999 -9999 -9999 -9999 -9999 -9999 -9999 -9999 -9999 -9999 -9999 -9999 -9999 -9999 -9999 -9999 -9999 -9999 -9999 -9999 -9999 -9999 -9999 -9999 -9999 -9999 -9999 -9999 -9999 -9999 -9999 -9999 -9999 -9999 -9999 -9999 -9999
-9999 -9999 -9999 -9999 -9999 -9999 -9999 -9999 -9999 -9999 -9999 -9999 -9999 -9999 -9999 -9999 -9999 -9999 -9999 -9999 -9999 -9999 -9999 -9999 4049 3934 3637 3468 3367 3200 3010 2672 2438 2342 2038 2084 2239 2316 2230 2118 1945 2093 2509 2764 2513 2418 2387 2510 2799 3039 3111 3296 3498 3643 3738 4001 4166 3969 3877 3701 3492 3855 4095 4130 4134 4234 4288 4245 4113 4036 4180 4357 4172 4028 3832 3744 3714 3774 4026 4107 4144 4251 4363 4313 4232 4043 3861 3736 3665 3641 3507 3351 3092 2985 2851 2835 3144 3393 3487 3494 3608 3639 3752 4015 3906 3703 3648 3549 3649 3641 3681 3573 3301 3207 3144 2824 2822 2744 2797 2688 2466 2151 1859 1717 1767 1961 1997 2145 2173 2179 2226 2253 2040 1838 2101 2307 2383 2503 2560 2772 2658 2334 2373 2737 3113 3189 2934 2720 2852 2979 3038 2792 2638 2680 2673 2736 2409 2335 2344 2191 2459 2687 2745 2976 2894 2694 2657 2577 2534 2423 2405 2600 2753 2894 2854 2849 2884 2886 2737 2714 2786 2595 2465 2390 2258 2173 2196 2249 2271 2400 2633 2812 2924 3305 3955 4284 4344 4141 3951 3875 3777 3874 4032 3552 3318 3250 2904 3124 3698 3816 4004 3623 3390 3312 3117 3149 3187 3076 3054 3064 3178 3073 3129 3053 2961 2860 2905 2931 2612 2661 2737 2647 2576 2530 2595 2664 2806 2784 2735 2668 2693 2573 2594 2590 2718 2916 3043 3158 3199 3143 3075 3302 3401 3237 3058 2889 2765 2894 3077 3269 3335 3360 3462 3550 3671 3760 -9999 -9999 -9999 -9999 -9999 -9999 -9999 -9999 -9999 -9999 -9999 -9999 -9999 -9999 -9999 -9999 -9999 -9999 -9999 -9999 -9999 -9999 -9999 -9999 -9999 3500 3299 3178 3235 3203 3433 3631 3762 3678 3581 3332 3149 3182 3291 3304 3174 3115 3156 3409 3693 3794 3795 3780 3460 3560 3757 3892 3830 3674 -9999 -9999 -9999 -9999 -9999 -9999 -9999 -9999 -9999 -9999 -9999 -9999 -9999 -9999 -9999 -9999 -9999 -9999 -9999 -9999 -9999 -9999 -9999 -9999 -9999 -9999 -9999 -9999 -9999 -9999 -9999 -9999 -9999 -9999 -9999 -9999 -9999 -9999 -9999 -9999 -9999 -9999 -9999 -9999 -9999 -9999 -9999 -9999 -9999 -9999 -9999 -9999 -9999 -9999 -9999 -9999 -9999 -9999 -9999 -9999 -9999 -9999 -9999 -9999 -9999 -9999 -9999 -9999 -9999 -9999 -9999 -9999 -9999 -9999 -9999 -9999 -9999 -9999 -9999 -9999 -9999 -9999 -9999 -9999 -9999 -9999 -9999 -9999 -9999 -9999 -9999 -9999 -9999 -9999 -9999 -9999 -9999 -9999 -9999 -9999 -9999 -9999 -9999 -9999 -9999 -9999 -9999 -9999 -9999 -9999 -9999 -9999 -9999 -9999 -9999 -9999 -9999 -9999 -9999 -9999 -9999 -9999 -9999 -9999 -9999 -9999 -9999 -9999 -9999 -9999 -9999 -9999 -9999 -9999 -9999 -9999 -9999 -9999 -9999 -9999 -9999 -9999 -9999 -9999 -9999 -9999 -9999 -9999 -9999 -9999 -9999 -9999 -9999 -9999 -9999 -9999 -9999 -9999 -9999 -9999 -9999 -9999 -9999 -9999 -9999 -9999 -9999 -9999 -9999 -9999 -9999 -9999 -9999
-9999 -9999 -9999 -9999 -9999 -9999 -9999 -9999 -9999 -9999 -9999 -9999 -9999 -9999 -9999 -9999 -9999 -9999 -9999 -9999 -9999 -9999 -9999 -9999 3670 3397 3134 2926 2850 2925 2655 2326 2394 2445 2399 2600 2685 2620 2314 2053 1948 2021 2444 2710 2874 2803 2811 2728 2742 2860 2941 3111 3306 3508 3664 3994 4174 4255 4335 4130 3774 3652 4012 4135 4127 4210 4079 4040 3929 3961 3849 3902 3841 3741 3630 3512 3428 3395 3596 3838 3965 4158 4304 4363 4318 4106 3927 3867 3813 3760 3647 3470 3196 3109 2965 2924 3241 3334 3644 3869 3870 4005 3897 3755 3578 3311 3204 3109 3130 3273 3424 3301 3103 3200 3320 2840 2512 2358 2516 2467 2258 1989 1711 1798 2074 2249 2436 2475 2419 2594 2500 2177 2008 1915 2240 2507 2640 2850 2989 2771 2641 2383 2328 2545 2776 2889 3103 3107 3219 3326 3296 3005 2991 3023 2973 3079 2784 2676 2555 2336 2451 2703 2952 3494 3244 2905 2858 2729 2400 2123 2152 2316 2609 2706 2544 2615 2706 2548 2337 2370 2539 2409 2245 2357 2336 2353 2297 2483 2548 2419 2661 3052 3153 3357 3669 3916 4024 3914 3964 4116 4257 4200 3912 3750 3534 3316 2953 3185 3467 3757 4003 3872 3788 3798 3550 3550 3524 3454 3427 3423 3479 3427 3417 3207 3102 3037 2906 2680 2555 2816 2974 2923 2779 2717 2649 2568 2569 2576 2668 2682 2625 2793 2953 2906 2795 2921 3083 3243 3309 3282 3348 3474 3459 3254 3128 2903 2785 2863 2963 3102 3167 3235 3383 3593 3670 -9999 -9999 -9999 -9999 -9999 -9999 -9999 -9999 -9999 -9999 -9999 -9999 -9999 -9999 -9999 -9999 -9999 -9999 -9999 -9999 -9999 -9999 -9999 -9999 -9999 -9999 -9999 -9999 -9999 3456 3335 3342 3556 3739 3472 3353 3162 3159 3355 3490 3609 3485 3245 3153 3222 3429 3663 3842 3908 3612 3545 3734 3874 3973 3814 -9999 -9999 -9999 -9999 -9999 -9999 -9999 -9999 -9999 -9999 -9999 -9999 -9999 -9999 -9999 -9999 -9999 -9999 -9999 -9999 -9999 -9999 -9999 -9999 -9999 -9999 -9999 -9999 -9999 -9999 -9999 -9999 -9999 -9999 -9999 -9999 -9999 -9999 -9999 -9999 -9999 -9999 -9999 -9999 -9999 -9999 -9999 -9999 -9999 -9999 -9999 -9999 -9999 -9999 -9999 -9999 -9999 -9999 -9999 -9999 -9999 -9999 -9999 -9999 -9999 -9999 -9999 -9999 -9999 -9999 -9999 -9999 -9999 -9999 -9999 -9999 -9999 -9999 -9999 -9999 -9999 -9999 -9999 -9999 -9999 -9999 -9999 -9999 -9999 -9999 -9999 -9999 -9999 -9999 -9999 -9999 -9999 -9999 -9999 -9999 -9999 -9999 -9999 -9999 -9999 -9999 -9999 -9999 -9999 -9999 -9999 -9999 -9999 -9999 -9999 -9999 -9999 -9999 -9999 -9999 -9999 -9999 -9999 -9999 -9999 -9999 -9999 -9999 -9999 -9999 -9999 -9999 -9999 -9999 -9999 -9999 -9999 -9999 -9999 -9999 -9999 -9999 -9999 -9999 -9999 -9999 -9999 -9999 -9999 -9999 -9999 -9999 -9999 -9999 -9999 -9999 -9999 -9999 -9999 -9999 -9999 -9999 -9999 -9999 -9999 -9999 -9999 -9999 -9999 -9999 -9999 -9999 -9999
-9999 -9999 -9999 -9999 -9999 -9999 -9999 -9999 -9999 -9999 -9999 -9999 -9999 -9999 -9999 -9999 -9999 -9999 -9999 -9999 -9999 -9999 -9999 3550 3437 3216 2981 2712 2601 2420 2285 2177 2409 2606 2908 2928 2821 2624 2257 2030 2043 2140 2412 2614 2828 2982 3079 3017 3000 2991 3062 3219 3330 3483 3515 3690 3869 4071 4256 4202 4018 3806 3867 3962 4203 4353 4171 4049 3853 3701 3601 3501 3422 3374 3322 3277 3266 3248 3237 3727 3934 4064 4245 4397 4357 4079 3975 4024 4008 3957 3817 3626 3360 3285 3167 3142 3504 3630 3613 3656 3613 3585 3574 3606 3519 3266 3163 2943 2784 2940 3070 3052 2819 2782 2890 2736 2414 2139 2233 2133 1904 1761 2237 2204 2133 2396 2636 2721 2735 2733 2437 2265 2164 1907 2247 2461 2600 2664 2859 2926 2790 2568 2517 2378 2464 2598 2703 2812 3013 3092 3323 3404 3456 3384 3419 3240 3159 3011 2707 2448 2643 2869 3127 3476 3267 3009 2886 2890 2692 2355 2260 2099 2206 2248 2288 2369 2384 2279 2153 2135 2215 2354 2644 2798 2848 2718 2539 2785 2900 2658 2774 3283 3379 3468 3427 3535 3638 3895 3979 4072 4004 3951 3663 3478 3338 3252 2994 3136 3343 3457 3658 3752 3788 3830 3775 3954 3588 3281 3170 3093 3148 3187 3188 3118 2956 2729 2719 2571 2753 2754 2867 2972 3064 3015 2811 2849 2895 2944 2812 2679 2694 2959 3207 3022 2958 3172 3365 3423 3461 3532 3608 3424 3309 3149 3099 3141 2887 2907 3170 3246 3233 3234 3456 3564 3714 -9999 -9999 -9999 -9999 -9999 -9999 -9999 -9999 -9999 -9999 -9999 -9999 -9999 -9999 -9999 -9999 -9999 -9999 -9999 -9999 -9999 -9999 -9999 -9999 -9999 -9999 -9999 -9999 -9999 -9999 3569 3323 3597 3648 3381 3250 3155 3336 3510 3609 3828 3620 3461 3378 3172 3274 3588 3822 3956 3836 3644 3703 3834 4034 -9999 -9999 -9999 -9999 -9999 -9999 -9999 -9999 -9999 -9999 -9999 -9999 -9999 -9999 -9999 -9999 -9999 -9999 -9999 -9999 -9999 -9999 -9999 -9999 -9999 -9999 -9999 -9999 -9999 -9999 -9999 -9999 -9999 -9999 -9999 -9999 -9999 -9999 -9999 -9999 -9999 -9999 -9999 -9999 -9999 -9999 -9999 -9999 -9999 -9999 -9999 -9999 -9999 -9999 -9999 -9999 -9999 -9999 -9999 -9999 -9999 -9999 -9999 -9999 -9999 -9999 -9999 -9999 -9999 -9999 -9999 -9999 -9999 -9999 -9999 -9999 -9999 -9999 -9999 -9999 -9999 -9999 -9999 -9999 -9999 -9999 -9999 -9999 -9999 -9999 -9999 -9999 -9999 -9999 -9999 -9999 -9999 -9999 -9999 -9999 -9999 -9999 -9999 -9999 -9999 -9999 -9999 -9999 -9999 -9999 -9999 -9999 -9999 -9999 -9999 -9999 -9999 -9999 -9999 -9999 -9999 -9999 -9999 -9999 -9999 -9999 -9999 -9999 -9999 -9999 -9999 -9999 -9999 -9999 -9999 -9999 -9999 -9999 -9999 -9999 -9999 -9999 -9999 -9999 -9999 -9999 -9999 -9999 -9999 -9999 -9999 -9999 -9999 -9999 -9999 -9999 -9999 -9999 -9999 -9999 -9999 -9999 -9999 -9999 -9999 -9999 -9999 -9999 -9999 -9999 -9999 -9999 -9999 -9999
-9999 -9999 -9999 -9999 -9999 -9999 -9999 -9999 -9999 -9999 -9999 -9999 -9999 -9999 -9999 -9999 -9999 -9999 -9999 -9999 -9999 -9999 3719 3390 3259 3035 2980 2581 2611 2642 2510 2618 2632 2859 3239 3141 2895 2729 2382 2166 2417 2601 2453 2549 2745 2801 3034 3209 3273 3237 3267 3239 3305 3309 3361 3485 3718 4049 4233 4693 4267 3980 4003 4053 4142 4246 4181 4170 3971 3798 3647 3687 3645 3787 3594 3697 3559 3197 3127 3476 3635 3884 4076 4098 3965 3782 3995 4157 4077 4015 3886 3760 3600 3468 3441 3457 3750 3793 3661 3558 3475 3442 3333 3410 3387 3199 3101 2960 2600 2645 2771 3008 2629 2413 2504 2509 2304 2107 1921 1836 1780 2141 2695 2786 2635 2637 2778 2856 2990 2679 2434 2153 2064 1941 2120 2284 2363 2554 2828 2986 2857 2796 2861 2627 2414 2380 2615 2848 3095 3174 3182 3212 3460 3498 3603 3457 3114 2976 2715 2589 2669 2930 3060 3327 3281 2962 2782 3074 2770 2491 2402 2301 2251 2138 2108 2103 2109 2136 2184 2298 2639 2834 2949 3004 2971 2881 2767 2872 2920 2716 2696 3137 3205 3420 3504 3800 3863 3922 4056 4193 4092 4002 3766 3526 3310 3207 3040 3069 3215 3307 3364 3435 3547 3675 3940 3904 3623 3320 3194 3037 2884 2870 2878 2868 2889 2613 2600 2724 2938 2957 3053 3120 3272 3229 3067 3077 3149 3100 2833 2718 2679 2920 2972 3015 3015 3167 3346 3556 3623 3565 3662 3579 3518 3398 3396 3256 2958 2903 3188 3506 3563 3558 3517 3618 3799 -9999 -9999 -9999 -9999 -9999 -9999 -9999 -9999 -9999 -9999 -9999 -9999 -9999 -9999 -9999 -9999 -9999 -9999 -9999 -9999 -9999 -9999 -9999 -9999 -9999 -9999 -9999 -9999 -9999 -9999 3605 3423 3635 3525 3270 3170 3282 3548 3660 3735 3982 3854 3680 3632 3315 3249 3629 3792 4005 4078 3761 3840 3967 -9999 -9999 -9999 -9999 -9999 -9999 -9999 -9999 -9999 -9999 -9999 -9999 -9999 -9999 -9999 -9999 -9999 -9999 -9999 -9999 -9999 -9999 -9999 -9999 -9999 -9999 -9999 -9999 -9999 -9999 -9999 -9999 -9999 -9999 -9999 -9999 -9999 -9999 -9999 -9999 -9999 -9999 -9999 -9999 -9999 -9999 -9999 -9999 -9999 -9999 -9999 -9999 -9999 -9999 -9999 -9999 -9999 -9999 -9999 -9999 -9999 -9999 -9999 -9999 -9999 -9999 -9999 -9999 -9999 -9999 -9999 -9999 -9999 -9999 -9999 -9999 -9999 -9999 -9999 -9999 -9999 -9999 -9999 -9999 -9999 -9999 -9999 -9999 -9999 -9999 -9999 -9999 -9999 -9999 -9999 -9999 -9999 -9999 -9999 -9999 -9999 -9999 -9999 -9999 -9999 -9999 -9999 -9999 -9999 -9999 -9999 -9999 -9999 -9999 -9999 -9999 -9999 -9999 -9999 -9999 -9999 -9999 -9999 -9999 -9999 -9999 -9999 -9999 -9999 -9999 -9999 -9999 -9999 -9999 -9999 -9999 -9999 -9999 -9999 -9999 -9999 -9999 -9999 -9999 -9999 -9999 -9999 -9999 -9999 -9999 -9999 -9999 -9999 -9999 -9999 -9999 -9999 -9999 -9999 -9999 -9999 -9999 -9999 -9999 -9999 -9999 -9999 -9999 -9999 -9999 -9999 -9999 -9999 -9999 -9999
-9999 -9999 -9999 -9999 -9999 -9999 -9999 -9999 -9999 -9999 -9999 -9999 -9999 -9999 -9999 -9999 -9999 -9999 -9999 -9999 -9999 -9999 3580 3557 3450 3214 2896 2497 2560 2753 2716 2727 2793 2985 3326 3192 2913 2787 2494 2225 2377 2666 2677 2739 3002 3005 3060 3350 3433 3424 3424 3389 3380 3448 3528 3620 3786 4015 4124 4513 4333 4131 4084 4084 4151 4231 4139 4093 3988 3836 3749 3853 3728 3899 3731 3731 3598 3345 3050 3244 3384 3743 3889 3946 3843 3737 3958 4122 4073 4025 3906 3783 3658 3594 3521 3522 3682 3692 3538 3420 3411 3423 3367 3363 3403 3348 3324 3049 2615 2397 2561 2842 2557 2282 2296 2405 2108 1899 1769 1783 1873 2207 2775 2939 2986 2788 2807 2870 3031 2712 2441 2298 2196 1943 2074 2216 2351 2634 2887 3096 2980 2979 2999 2779 2558 2421 2569 2791 3038 3094 3005 3236 3327 3320 3448 3475 3205 3084 2806 2701 2729 2908 3015 3288 3146 2870 2777 2999 2773 2610 2572 2459 2404 2268 2235 2233 2281 2275 2164 2211 2504 2777 2931 3017 3085 2993 2876 3008 2927 2712 2714 2881 2983 3256 3508 3657 3668 3696 3925 3989 4020 3984 3722 3466 3297 3211 3072 3038 3116 3156 3308 3330 3514 3625 3847 3878 3635 3382 3302 3153 2962 2775 2789 2780 2808 2625 2710 2824 2918 3113 3126 3224 3389 3285 3210 3209 3162 3012 2876 2805 2625 2770 2821 2936 2947 3030 3253 3400 3478 3469 3473 3592 3602 3509 3524 3334 3101 2960 3115 3407 3577 3650 3662 3684 -9999 -9999 -9999 -9999 -9999 -9999 -9999 -9999 -9999 -9999 -9999 -9999 -9999 -9999 -9999 -9999 -9999 -9999 -9999 -9999 -9999 -9999 -9999 -9999 -9999 -9999 -9999 -9999 -9999 -9999 -9999 -9999 3558 3620 3562 3270 3174 3367 3644 3788 3827 3989 3983 3843 3739 3334 3282 3755 3897 3940 4180 3831 3999 4052 -9999 -9999 -9999 -9999 -9999 -9999 -9999 -9999 -9999 -9999 -9999 -9999 -9999 -9999 -9999 -9999 -9999 -9999 -9999 -9999 -9999 -9999 -9999 -9999 -9999 -9999 -9999 -9999 -9999 -9999 -9999 -9999 -9999 -9999 -9999 -9999 -9999 -9999 -9999 -9999 -9999 -9999 -9999 -9999 -9999 -9999 -9999 -9999 -9999 -9999 -9999 -9999 -9999 -9999 -9999 -9999 -9999 -9999 -9999 -9999 -9999 -9999 -9999 -9999 -9999 -9999 -9999 -9999 -9999 -9999 -9999 -9999 -9999 -9999 -9999 -9999 -9999 -9999 -9999 -9999 -9999 -9999 -9999 -9999 -9999 -9999 -9999 -9999 -9999 -9999 -9999 -9999 -9999 -9999 -9999 -9999 -9999 -9999 -9999 -9999 -9999 -9999 -9999 -9999 -9999 -9999 -9999 -9999 -9999 -9999 -9999 -9999 -9999 -9999 -9999 -9999 -9999 -9999 -9999 -9999 -9999 -9999 -9999 -9999 -9999 -9999 -9999 -9999 -9999 -9999 -9999 -9999 -9999 -9999 -9999 -9999 -9999 -9999 -9999 -9999 -9999 -9999 -9999 -9999 -9999 -9999 -9999 -9999 -9999 -9999 -9999 -9999 -9999 -9999 -9999 -9999 -9999 -9999 -9999 -9999 -9999 -9999 -9999 -9999 -9999 -9999 -9999 -9999 -9999 -9999 -9999 -9999 -9999 -9999 -9999
-9999 -9999 -9999 -9999 -9999 -9999 -9999 -9999 -9999 -9999 -9999 -9999 -9999 -9999 -9999 -9999 -9999 -9999 -9999 -9999 -9999 -9999 3306 3215 3209 2960 2614 2323 2457 3043 3069 2845 3017 3194 3524 3258 2893 2803 2679 2440 2168 2321 2669 2862 3028 2953 3166 3265 3241 3363 3335 3202 3263 3513 3612 3718 3794 3904 3952 4091 4311 4326 4211 4138 4052 4038 3946 3931 4048 4022 4045 4045 3974 3912 3782 3600 3476 3167 2971 3156 3247 3373 3521 3599 3656 3835 3976 4059 4102 4106 4033 3883 3811 3753 3668 3530 3416 3356 3231 3128 3181 3285 3349 3226 3313 3378 3257 3002 2633 2257 2163 2409 2308 2130 2059 2070 1898 1843 2130 2224 2290 2403 2672 2873 3282 3032 3123 3175 3233 2878 2637 2354 2223 2005 2286 2414 2367 2505 2824 3121 3194 3314 3150 2939 2644 2487 2471 2635 2754 2797 2969 3027 3093 3131 3209 3325 3303 3190 3023 2957 3017 3210 3314 3166 3028 2870 2802 2942 3097 3013 2904 2788 2505 2525 2465 2529 2658 2598 2396 2260 2322 2576 2750 2761 2916 3158 3252 3148 2990 2870 2842 2777 2912 3159 3268 3303 3379 3534 3561 3621 3767 3691 3548 3443 3224 3117 3035 3154 3269 3313 3269 3370 3512 3610 3620 3643 3519 3276 3174 3022 2921 2868 2836 2759 2653 2748 2822 2997 3247 3315 3585 3514 3700 3565 3379 3229 2991 2846 2656 2628 2784 2689 2717 2735 2748 2776 2899 3105 3236 3305 3279 3273 3399 3605 3663 3397 3198 3136 2949 3228 3404 3449 3570 -9999 -9999 -9999 -9999 -9999 -9999 -9999 -9999 -9999 -9999 -9999 -9999 -9999 -9999 -9999 -9999 -9999 -9999 -9999 -9999 -9999 -9999 -9999 -9999 -9999 -9999 -9999 -9999 -9999 -9999 -9999 -9999 -9999 3876 3799 3549 3279 3204 3377 3592 3931 4003 4186 4236 3887 3737 3432 3319 3735 4021 4215 4137 4215 4267 4182 4228 -9999 -9999 -9999 -9999 -9999 -9999 -9999 -9999 -9999 -9999 -9999 -9999 -9999 -9999 -9999 -9999 -9999 -9999 -9999 -9999 -9999 -9999 -9999 -9999 -9999 -9999 -9999 -9999 -9999 -9999 -9999 -9999 -9999 -9999 -9999 -9999 -9999 -9999 -9999 -9999 -9999 -9999 -9999 -9999 -9999 -9999 -9999 -9999 -9999 -9999 -9999 -9999 -9999 -9999 -9999 -9999 -9999 -9999 -9999 -9999 -9999 -9999 -9999 -9999 -9999 -9999 -9999 -9999 -9999 -9999 -9999 -9999 -9999 -9999 -9999 -9999 -9999 -9999 -9999 -9999 -9999 -9999 -9999 -9999 -9999 -9999 -9999 -9999 -9999 -9999 -9999 -9999 -9999 -9999 -9999 -9999 -9999 -9999 -9999 -9999 -9999 -9999 -9999 -9999 -9999 -9999 -9999 -9999 -9999 -9999 -9999 -9999 -9999 -9999 -9999 -9999 -9999 -9999 -9999 -9999 -9999 -9999 -9999 -9999 -9999 -9999 -9999 -9999 -9999 -9999 -9999 -9999 -9999 -9999 -9999 -9999 -9999 -9999 -9999 -9999 -9999 -9999 -9999 -9999 -9999 -9999 -9999 -9999 -9999 -9999 -9999 -9999 -9999 -9999 -9999 -9999 -9999 -9999 -9999 -9999 -9999 -9999 -9999 -9999 -9999 -9999 -9999 -9999 -9999 -9999 -9999 -9999 -9999 -9999
-9999 -9999 -9999 -9999 -9999 -9999 -9999 -9999 -9999 -9999 -9999 -9999 -9999 -9999 -9999 -9999 -9999 -9999 -9999 -9999 -9999 -9999 3352 3053 2949 2782 2783 2389 2386 2769 3200 3090 3195 3369 3711 3356 3076 3024 2980 2751 2396 2231 2209 2504 2602 2765 2968 2813 2744 2945 3083 3111 3281 3348 3415 3510 3665 3946 4044 4288 4363 4268 4383 4260 4019 3839 3659 3651 3752 3736 3641 3622 3711 3774 3571 3333 3201 3026 2911 3151 3321 3609 3596 3664 3737 3836 3926 4056 4224 4275 4254 4173 4022 3927 3727 3542 3279 3196 3179 3080 2826 2814 2936 3067 3086 2967 2841 2610 2470 2271 2071 2149 2036 1965 1873 1794 1809 2053 2133 2283 2573 2761 2979 3087 3247 3067 2958 2958 2799 2611 2427 2210 2122 2199 2597 2766 2735 2619 2728 2978 3091 3209 2923 2789 2572 2461 2490 2482 2648 2720 2757 2845 2949 3050 3213 3276 3302 3283 3397 3350 3236 3532 3583 3338 3107 2923 2831 2899 3122 3247 3149 2860 2663 2830 2770 2781 2989 2874 2510 2371 2255 2446 2700 2850 2989 3130 3406 3190 3141 3217 3058 2776 2778 2973 3126 3194 3254 3385 3344 3475 3641 3629 3449 3266 3085 3132 3273 3352 3520 3498 3506 3617 3711 3683 3537 3442 3440 3360 3357 3247 3207 3170 3151 3034 2665 2815 2932 3204 3408 3613 3757 3775 3747 3566 3413 3267 3018 2753 2806 2933 3035 2930 2800 3103 3113 3060 2929 2869 2961 2985 3005 3158 3264 3478 3724 3668 3383 3245 3029 3065 3261 3337 3524 -9999 -9999 -9999 -9999 -9999 -9999 -9999 -9999 -9999 -9999 -9999 -9999 -9999 -9999 -9999 -9999 -9999 -9999 -9999 -9999 -9999 -9999 -9999 -9999 -9999 -9999 -9999 -9999 -9999 -9999 -9999 -9999 -9999 4003 3817 3611 3312 3234 3578 3725 3915 3974 4209 4078 3949 3879 3610 3347 3724 4081 4299 -9999 -9999 -9999 -9999 -9999 -9999 -9999 -9999 -9999 -9999 -9999 -9999 -9999 -9999 -9999 -9999 -9999 -9999 -9999 -9999 -9999 -9999 -9999 -9999 -9999 -9999 -9999 -9999 -9999 -9999 -9999 -9999 -9999 -9999 -9999 -9999 -9999 -9999 -9999 -9999 -9999 -9999 -9999 -9999 -9999 -9999 -9999 -9999 -9999 -9999 -9999 -9999 -9999 -9999 -9999 -9999 -9999 -9999 -9999 -9999 -9999 -9999 -9999 -9999 -9999 -9999 -9999 -9999 -9999 -9999 -9999 -9999 -9999 -9999 -9999 -9999 -9999 -9999 -9999 -9999 -9999 -9999 -9999 -9999 -9999 -9999 -9999 -9999 -9999 -9999 -9999 -9999 -9999 -9999 -9999 -9999 -9999 -9999 -9999 -9999 -9999 -9999 -9999 -9999 -9999 -9999 -9999 -9999 -9999 -9999 -9999 -9999 -9999 -9999 -9999 -9999 -9999 -9999 -9999 -9999 -9999 -9999 -9999 -9999 -9999 -9999 -9999 -9999 -9999 -9999 -9999 -9999 -9999 -9999 -9999 -9999 -9999 -9999 -9999 -9999 -9999 -9999 -9999 -9999 -9999 -9999 -9999 -9999 -9999 -9999 -9999 -9999 -9999 -9999 -9999 -9999 -9999 -9999 -9999 -9999 -9999 -9999 -9999 -9999 -9999 -9999 -9999 -9999 -9999 -9999 -9999 -9999 -9999 -9999 -9999 -9999 -9999 -9999 -9999
-9999 -9999 -9999 -9999 -9999 -9999 -9999 -9999 -9999 -9999 -9999 -9999 -9999 -9999 -9999 -9999 -9999 -9999 -9999 -9999 -9999 -9999 3264 3173 3139 3076 2790 2545 2392 2673 2994 3283 3320 3415 3682 3559 3446 3359 3146 3013 2574 2419 2519 2347 2318 2437 2572 2554 2729 2971 3248 3549 3417 3616 3690 3689 3708 3836 3961 4151 4015 4128 4218 4348 4183 3995 3815 3644 3430 3378 3334 3329 3394 3438 3324 3082 3014 2815 2952 3236 3291 3435 3709 3901 3883 3925 4023 4220 4267 4224 4238 4203 4038 3960 3705 3605 3376 3247 2971 2798 2668 2657 2725 2820 2932 2622 2402 2197 2143 2027 1953 1868 1829 1876 1898 1943 2040 2359 2348 2344 2567 2818 3110 3249 3378 3042 2791 2682 2556 2560 2583 2520 2378 2200 2357 2621 2775 3031 2904 3180 3335 3236 3019 2767 2556 2658 2864 2655 2533 2548 2730 2829 2843 2839 2919 3025 3082 3167 3353 3582 3687 3663 3636 3287 3057 2943 2895 2941 3171 3379 3238 3009 2953 3085 3088 3089 3112 2833 2686 2688 2565 2357 2664 2698 2817 3051 3337 3484 3424 3413 3231 2971 2902 2799 3018 3166 3210 3195 3169 3335 3492 3588 3439 3236 3166 3275 3434 3450 3663 3794 3695 3771 3818 3688 3688 3572 3541 3334 3301 3199 3068 2906 2925 2800 2724 2939 3108 3369 3466 3490 3580 3705 3626 3360 3181 3181 2926 2778 2984 3118 3284 3007 2916 3202 3335 3327 3238 2938 3021 3222 3239 3106 3107 3300 3584 3782 3562 3414 3185 3038 3228 3268 3341 3666 -9999 -9999 -9999 -9999 -9999 -9999 -9999 -9999 -9999 -9999 -9999 -9999 -9999 -9999 -9999 -9999 -9999 -9999 -9999 -9999 -9999 -9999 -9999 -9999 -9999 -9999 -9999 -9999 -9999 -9999 -9999 -9999 4074 3867 3723 3460 3291 3545 3848 3994 4054 4298 4185 3952 3819 3528 3441 3566 3732 3909 4284 -9999 -9999 -9999 -9999 -9999 -9999 -9999 -9999 -9999 -9999 -9999 -9999 -9999 -9999 -9999 -9999 -9999 -9999 -9999 -9999 -9999 -9999 -9999 -9999 -9999 -9999 -9999 -9999 -9999 -9999 -9999 -9999 -9999 -9999 -9999 -9999 -9999 -9999 -9999 -9999 -9999 -9999 -9999 -9999 -9999 -9999 -9999 -9999 -9999 -9999 -9999 -9999 -9999 -9999 -9999 -9999 -9999 -9999 -9999 -9999 -9999 -9999 -9999 -9999 -9999 -9999 -9999 -9999 -9999 -9999 -9999 -9999 -9999 -9999 -9999 -9999 -9999 -9999 -9999 -9999 -9999 -9999 -9999 -9999 -9999 -9999 -9999 -9999 -9999 -9999 -9999 -9999 -9999 -9999 -9999 -9999 -9999 -9999 -9999 -9999 -9999 -9999 -9999 -9999 -9999 -9999 -9999 -9999 -9999 -9999 -9999 -9999 -9999 -9999 -9999 -9999 -9999 -9999 -9999 -9999 -9999 -9999 -9999 -9999 -9999 -9999 -9999 -9999 -9999 -9999 -9999 -9999 -9999 -9999 -9999 -9999 -9999 -9999 -9999 -9999 -9999 -9999 -9999 -9999 -9999 -9999 -9999 -9999 -9999 -9999 -9999 -9999 -9999 -9999 -9999 -9999 -9999 -9999 -9999 -9999 -9999 -9999 -9999 -9999 -9999 -9999 -9999 -9999 -9999 -9999 -9999 -9999 -9999 -9999 -9999 -9999 -9999 -9999
-9999 -9999 -9999 -9999 -9999 -9999 -9999 -9999 -9999 -9999 -9999 -9999 -9999 -9999 -9999 -9999 -9999 -9999 -9999 -9999 -9999 -9999 3192 3027 2989 2861 2813 2548 2436 2765 3128 3325 3424 3505 3648 3417 3330 3275 2977 2703 2506 2601 2755 2612 2323 2471 2422 2391 2678 3056 3250 3385 3689 3530 3395 3359 3492 3895 3915 3840 3791 3840 3850 3906 4214 4036 3772 3640 3581 3735 3605 3481 3265 3134 3014 2867 2831 2746 2815 2951 3054 3339 3416 3539 3670 3852 4096 4382 4276 4160 3944 3765 3928 3931 3791 3661 3366 3233 3045 3018 2807 2753 2520 2436 2471 2369 2290 2073 1902 1877 1908 1991 2048 2134 2171 2106 1966 2140 2326 2479 2716 2954 3275 3384 3317 3075 2880 2790 2925 2994 2989 2814 2575 2349 2586 2812 2836 3118 3243 3423 3446 3132 2875 2661 2720 2901 3164 3033 2759 2738 2632 2693 2838 2840 2945 2967 3028 3046 3257 3419 3633 3599 3475 3250 3126 3109 2946 3162 3478 3794 3719 3419 3356 3439 3491 3439 3284 3160 3078 3048 2799 2409 2565 2665 2814 2963 3169 3431 3527 3667 3404 3295 3252 3064 2915 2974 2951 3086 3306 3499 3630 3755 3492 3283 3216 3308 3503 3654 3749 3916 3955 4150 3951 3851 3917 3857 3653 3464 3367 3273 3157 2990 2859 2711 2931 2966 2992 3042 3213 3336 3618 3697 3433 3166 2978 2852 2856 3012 3258 3392 3438 3133 2967 3289 3434 3485 3224 3034 3140 3442 3460 3215 3250 3203 3358 3646 3710 3577 3336 3075 3342 3498 3404 3585 -9999 -9999 -9999 -9999 -9999 -9999 -9999 -9999 -9999 -9999 -9999 -9999 -9999 -9999 -9999 -9999 -9999 -9999 -9999 -9999 -9999 -9999 -9999 -9999 -9999 -9999 -9999 -9999 -9999 -9999 -9999 -9999 4050 3984 3906 3575 3379 3473 3874 3970 4022 4328 4079 3885 3848 3506 3685 3766 3822 3849 4049 -9999 -9999 -9999 -9999 -9999 -9999 -9999 -9999 -9999 -9999 -9999 -9999 -9999 -9999 -9999 -9999 -9999 -9999 -9999 -9999 -9999 -9999 -9999 -9999 -9999 -9999 -9999 -9999 -9999 -9999 -9999 -9999 -9999 -9999 -9999 -9999 -9999 -9999 -9999 -9999 -9999 -9999 -9999 -9999 -9999 -9999 -9999 -9999 -9999 -9999 -9999 -9999 -9999 -9999 -9999 -9999 -9999 -9999 -9999 -9999 -9999 -9999 -9999 -9999 -9999 -9999 -9999 -9999 -9999 -9999 -9999 -9999 -9999 -9999 -9999 -9999 -9999 -9999 -9999 -9999 -9999 -9999 -9999 -9999 -9999 -9999 -9999 -9999 -9999 -9999 -9999 -9999 -9999 -9999 -9999 -9999 -9999 -9999 -9999 -9999 -9999 -9999 -9999 -9999 -9999 -9999 -9999 -9999 -9999 -9999 -9999 -9999 -9999 -9999 -9999 -9999 -9999 -9999 -9999 -9999 -9999 -9999 -9999 -9999 -9999 -9999 -9999 -9999 -9999 -9999 -9999 -9999 -9999 -9999 -9999 -9999 -9999 -9999 -9999 -9999 -9999 -9999 -9999 -9999 -9999 -9999 -9999 -9999 -9999 -9999 -9999 -9999 -9999 -9999 -9999 -9999 -9999 -9999 -9999 -9999 -9999 -9999 -9999 -9999 -9999 -9999 -9999 -9999 -9999 -9999 -9999 -9999 -9999 -9999 -9999 -9999 -9999 -9999
-9999 -9999 -9999 -9999 -9999 -9999 -9999 -9999 -9999 -9999 -9999 -9999 -9999 -9999 -9999 -9999 -9999 -9999 -9999 -9999 -9999 -9999 3285 3138 3064 2887 2700 2519 2452 2831 3128 3227 3260 3381 3588 3326 3095 3031 2797 2659 2600 2774 2905 2652 2411 2538 2601 2459 2472 2872 3129 3111 3443 3494 3326 3206 3395 3803 3770 3628 3584 3604 3724 3879 4243 4022 3799 3674 3702 4041 3775 3683 3488 3263 3107 3133 3097 2816 2865 3074 3107 3349 3575 3568 3642 3927 4038 4248 4128 4082 3852 3565 3688 3712 3608 3604 3354 3264 3188 3129 2911 2844 2604 2317 2198 2197 2158 1959 1903 1982 1999 2135 2178 2238 2288 2164 2027 2201 2279 2397 2611 2896 3129 3269 3514 3207 2955 2937 3096 3132 2888 2694 2495 2614 2496 2873 3042 3181 3420 3524 3400 3105 2925 2634 2802 2935 3248 3062 2933 2929 2767 2657 2976 2995 3058 3124 3220 3124 3232 3417 3615 3729 3621 3366 3398 3139 2970 3213 3593 3810 3789 3584 3522 3558 3426 3335 3270 3116 3042 2981 2726 2415 2581 2613 2757 2911 3081 3337 3457 3730 3562 3380 3278 3039 2985 3147 3092 3004 3283 3596 3776 3826 3565 3324 3227 3359 3543 3792 3838 3981 4083 4181 3981 3928 3897 3782 3653 3479 3333 3091 2983 2860 2739 2766 2991 3163 3182 3193 3365 3339 3589 3710 3456 3196 2888 2863 3022 3081 3346 3490 3437 3187 3023 3298 3446 3568 3279 3082 3199 3478 3442 3302 3414 3298 3316 3611 3663 3541 3304 3111 3361 3531 3476 3580 -9999 -9999 -9999 -9999 -9999 -9999 -9999 -9999 -9999 -9999 -9999 -9999 -9999 -9999 -9999 -9999 -9999 -9999 -9999 -9999 -9999 -9999 -9999 -9999 -9999 -9999 -9999 -9999 -9999 -9999 -9999 -9999 4093 4042 3866 3611 3425 3435 3839 4036 4091 4302 4179 4018 3904 3583 3752 3945 3908 3955 4205 -9999 -9999 -9999 -9999 -9999 -9999 -9999 -9999 -9999 -9999 -9999 -9999 -9999 -9999 -9999 -9999 -9999 -9999 -9999 -9999 -9999 -9999 -9999 -9999 -9999 -9999 -9999 -9999 -9999 -9999 -9999 -9999 -9999 -9999 -9999 -9999 -9999 -9999 -9999 -9999 -9999 -9999 -9999 -9999 -9999 -9999 -9999 -9999 -9999 -9999 -9999 -9999 -9999 -9999 -9999 -9999 -9999 -9999 -9999 -9999 -9999 -9999 -9999 -9999 -9999 -9999 -9999 -9999 -9999 -9999 -9999 -9999 -9999 -9999 -9999 -9999 -9999 -9999 -9999 -9999 -9999 -9999 -9999 -9999 -9999 -9999 -9999 -9999 -9999 -9999 -9999 -9999 -9999 -9999 -9999 -9999 -9999 -9999 -9999 -9999 -9999 -9999 -9999 -9999 -9999 -9999 -9999 -9999 -9999 -9999 -9999 -9999 -9999 -9999 -9999 -9999 -9999 -9999 -9999 -9999 -9999 -9999 -9999 -9999 -9999 -9999 -9999 -9999 -9999 -9999 -9999 -9999 -9999 -9999 -9999 -9999 -9999 -9999 -9999 -9999 -9999 -9999 -9999 -9999 -9999 -9999 -9999 -9999 -9999 -9999 -9999 -9999 -9999 -9999 -9999 -9999 -9999 -9999 -9999 -9999 -9999 -9999 -9999 -9999 -9999 -9999 -9999 -9999 -9999 -9999 -9999 -9999 -9999 -9999 -9999 -9999 -9999 -9999
-9999 -9999 -9999 -9999 -9999 -9999 -9999 -9999 -9999 -9999 -9999 -9999 -9999 -9999 -9999 -9999 -9999 -9999 -9999 -9999 -9999 3563 3505 3270 3132 2952 2792 2569 2564 2696 2911 2972 3249 3364 3580 3493 3224 3119 2867 2775 2934 3023 3045 2750 2547 2695 2897 2704 2581 2592 2603 2717 2839 2965 2969 2995 3248 3316 3242 3188 3359 3480 3655 3779 3982 4151 3901 3792 3923 4022 3850 3843 3873 3669 3429 3314 3184 2751 2822 3271 3415 3529 3647 3754 3797 3970 3999 4033 4163 3996 3779 3517 3224 3200 3205 3419 3634 3599 3445 3098 2841 2707 2431 2222 2071 1944 1962 2126 2251 2198 2208 2336 2526 2477 2477 2290 2118 2393 2573 2586 2681 2867 3114 3440 3838 3520 3257 3235 3362 3123 2867 2670 2620 2993 2909 2661 2868 3259 3411 3602 3432 3203 3073 2704 3055 3144 3402 3248 3277 3185 2995 2687 2910 3062 3371 3470 3486 3389 3263 3527 3889 3870 3738 3562 3499 3167 3025 3119 3229 3402 3478 3626 3587 3358 3180 3096 2981 2822 2750 2715 2552 2564 2642 2712 2959 3193 3324 3379 3516 3819 3642 3414 3269 2967 3211 3434 3413 3122 3217 3425 3679 3849 3844 3429 3293 3459 3784 4045 3914 4040 4121 3902 3667 3701 3599 3530 3331 3254 3181 2969 2788 2846 2939 2761 3065 3355 3489 3524 3670 3550 3670 3693 3405 3090 2946 3093 3321 3304 3558 3603 3367 3331 3270 3396 3539 3657 3371 3143 3231 3512 3512 3441 3595 3466 3314 3657 3726 3564 3252 3208 3456 3630 3688 3678 -9999 -9999 -9999 -9999 -9999 -9999 -9999 -9999 -9999 -9999 -9999 -9999 -9999 -9999 -9999 -9999 -9999 -9999 -9999 -9999 -9999 -9999 -9999 -9999 -9999 -9999 -9999 -9999 -9999 -9999 -9999 -9999 4201 4005 3802 3643 3515 3462 3739 3953 4035 4211 4175 4050 3973 3801 3852 4018 4025 4112 4208 4420 -9999 -9999 -9999 -9999 -9999 -9999 -9999 -9999 -9999 -9999 -9999 -9999 -9999 -9999 -9999 -9999 -9999 -9999 -9999 -9999 -9999 -9999 -9999 -9999 -9999 -9999 -9999 -9999 -9999 -9999 -9999 -9999 -9999 -9999 -9999 -9999 -9999 -9999 -9999 -9999 -9999 -9999 -9999 -9999 -9999 -9999 -9999 -9999 -9999 -9999 -9999 -9999 -9999 -9999 -9999 -9999 -9999 -9999 -9999 -9999 -9999 -9999 -9999 -9999 -9999 -9999 -9999 -9999 -9999 -9999 -9999 -9999 -9999 -9999 -9999 -9999 -9999 -9999 -9999 -9999 -9999 -9999 -9999 -9999 -9999 -9999 -9999 -9999 -9999 -9999 -9999 -9999 -9999 -9999 -9999 -9999 -9999 -9999 -9999 -9999 -9999 -9999 -9999 -9999 -9999 -9999 -9999 -9999 -9999 -9999 -9999 -9999 -9999 -9999 -9999 -9999 -9999 -9999 -9999 -9999 -9999 -9999 -9999 -9999 -9999 -9999 -9999 -9999 -9999 -9999 -9999 -9999 -9999 -9999 -9999 -9999 -9999 -9999 -9999 -9999 -9999 -9999 -9999 -9999 -9999 -9999 -9999 -9999 -9999 -9999 -9999 -9999 -9999 -9999 -9999 -9999 -9999 -9999 -9999 -9999 -9999 -9999 -9999 -9999 -9999 -9999 -9999 -9999 -9999 -9999 -9999 -9999 -9999 -9999 -9999 -9999 -9999
-9999 -9999 -9999 -9999 -9999 -9999 -9999 -9999 -9999 -9999 -9999 -9999 -9999 -9999 -9999 -9999 -9999 -9999 -9999 -9999 -9999 -9999 3808 3408 3255 2956 2729 2643 2716 2880 3022 3124 3077 3190 3400 3513 3320 3235 2993 3108 3274 3263 3171 3007 2802 2755 2892 2666 2799 2855 2786 2709 2698 2805 2804 2852 2911 3022 3153 3443 3797 3989 3886 3864 3944 4073 4052 3900 3785 3798 3898 3822 3738 3594 3312 3035 2913 2664 2672 3027 3168 3390 3555 3660 3762 3750 3726 3850 4094 4018 3768 3482 3274 3176 2947 3157 3461 3571 3548 3361 3287 3120 2764 2405 2050 2128 2264 2310 2399 2576 2648 2491 2592 2643 2570 2361 2253 2306 2538 2630 2840 3008 3328 3579 3864 3931 3648 3467 3594 3301 3103 2784 2793 3028 3251 2825 2780 3058 3417 3788 3815 3380 3016 2824 3146 3245 3607 3486 3377 3224 3043 2755 2935 3091 3277 3533 3736 3617 3444 3511 3774 4051 3905 3704 3478 3227 3079 3196 3388 3387 3539 3605 3640 3325 3078 3019 2982 2908 2847 2806 2703 2706 2988 2977 3037 3382 3647 3598 3727 3871 3661 3419 3266 3026 3259 3551 3599 3297 3196 3431 3777 3930 3880 3526 3327 3439 3813 4103 4216 4158 3907 3705 3511 3387 3409 3273 3191 2965 2906 2897 3058 3212 3169 2849 3015 3324 3469 3616 3749 3891 3795 3840 3606 3261 3267 3312 3368 3606 3622 3652 3760 3773 3653 3686 3745 3747 3441 3268 3307 3589 3603 3667 3759 3699 3551 3715 3828 3735 3409 3369 3643 3762 3950 3893 -9999 -9999 -9999 -9999 -9999 -9999 -9999 -9999 -9999 -9999 -9999 -9999 -9999 -9999 -9999 -9999 -9999 -9999 -9999 -9999 -9999 -9999 -9999 -9999 -9999 -9999 -9999 -9999 -9999 -9999 -9999 4439 4161 4040 3885 3883 3673 3496 3884 4034 4051 -9999 -9999 -9999 3955 3928 3956 4063 4093 4109 4147 -9999 -9999 -9999 -9999 -9999 -9999 -9999 -9999 -9999 -9999 -9999 -9999 -9999 -9999 -9999 -9999 -9999 -9999 -9999 -9999 -9999 -9999 -9999 -9999 -9999 -9999 -9999 -9999 -9999 -9999 -9999 -9999 -9999 -9999 -9999 -9999 -9999 -9999 -9999 -9999 -9999 -9999 -9999 -9999 -9999 -9999 -9999 -9999 -9999 -9999 -9999 -9999 -9999 -9999 -9999 -9999 -9999 -9999 -9999 -9999 -9999 -9999 -9999 -9999 -9999 -9999 -9999 -9999 -9999 -9999 -9999 -9999 -9999 -9999 -9999 -9999 -9999 -9999 -9999 -9999 -9999 -9999 -9999 -9999 -9999 -9999 -9999 -9999 -9999 -9999 -9999 -9999 -9999 -9999 -9999 -9999 -9999 -9999 -9999 -9999 -9999 -9999 -9999 -9999 -9999 -9999 -9999 -9999 -9999 -9999 -9999 -9999 -9999 -9999 -9999 -9999 -9999 -9999 -9999 -9999 -9999 -9999 -9999 -9999 -9999 -9999 -9999 -9999 -9999 -9999 -9999 -9999 -9999 -9999 -9999 -9999 -9999 -9999 -9999 -9999 -9999 -9999 -9999 -9999 -9999 -9999 -9999 -9999 -9999 -9999 -9999 -9999 -9999 -9999 -9999 -9999 -9999 -9999 -9999 -9999 -9999 -9999 -9999 -9999 -9999 -9999 -9999 -9999 -9999 -9999 -9999 -9999 -9999 -9999 -9999 -9999 -9999 -9999
-9999 -9999 -9999 -9999 -9999 -9999 -9999 -9999 -9999 -9999 -9999 -9999 -9999 -9999 -9999 -9999 -9999 -9999 -9999 -9999 -9999 3822 3574 3419 3382 3021 2719 2833 2911 3050 3199 3322 3200 3210 3335 3497 3430 3424 3331 3341 3463 3448 3508 3211 2935 3000 2864 2898 2908 3168 3166 2938 2761 2768 2893 3091 2960 3068 3140 3314 3576 3841 4031 3950 4083 4370 4184 3992 3619 3473 3438 3460 3578 3448 3143 2968 2888 2649 2595 2799 2936 2992 3107 3171 3264 3490 3725 3849 3776 3740 3584 3326 3113 3020 2752 2716 2912 2985 3150 3245 3002 2834 2509 2239 2041 2307 2441 2684 2751 3024 3131 3003 2826 2768 2663 2499 2600 2392 2401 2431 2656 2888 3283 3407 3619 3926 3705 3630 3899 3616 3231 2924 2961 3214 3374 2880 2800 2916 3281 3562 3711 3393 2993 2848 3365 3545 3778 3712 3347 3146 2962 2982 2862 2873 3130 3563 3906 3917 3650 3755 3901 3853 3734 3659 3450 3219 3138 3450 3528 3549 3608 3881 3724 3443 3365 3337 3321 3262 3166 3045 2825 2656 2953 3092 3281 3329 3527 3814 3954 3733 3501 3276 3184 3128 3381 3610 3727 3453 3240 3431 3711 3906 3903 3568 3386 3485 3750 4015 4239 4096 4007 3731 3460 3359 3154 3079 2963 3034 3099 3281 3467 3503 3309 3016 2963 3190 3246 3283 3486 3744 4032 3954 3697 3407 3583 3547 3471 3621 -9999 -9999 -9999 -9999 -9999 -9999 -9999 3840 3645 3573 3584 3685 3863 3947 4026 3800 3739 3876 4031 3845 3474 3632 3800 3880 4051 -9999 -9999 -9999 -9999 -9999 -9999 -9999 -9999 -9999 -9999 -9999 -9999 -9999 -9999 -9999 -9999 -9999 -9999 -9999 -9999 -9999 -9999 -9999 -9999 -9999 -9999 -9999 -9999 -9999 -9999 -9999 -9999 -9999 4218 4081 3959 3874 3701 3581 3884 4018 -9999 -9999 -9999 -9999 -9999 -9999 4037 4143 4165 4205 4276 -9999 -9999 -9999 -9999 -9999 -9999 -9999 -9999 -9999 -9999 -9999 -9999 -9999 -9999 -9999 -9999 -9999 -9999 -9999 -9999 -9999 -9999 -9999 -9999 -9999 -9999 -9999 -9999 -9999 -9999 -9999 -9999 -9999 -9999 -9999 -9999 -9999 -9999 -9999 -9999 -9999 -9999 -9999 -9999 -9999 -9999 -9999 -9999 -9999 -9999 -9999 -9999 -9999 -9999 -9999 -9999 -9999 -9999 -9999 -9999 -9999 -9999 -9999 -9999 -9999 -9999 -9999 -9999 -9999 -9999 -9999 -9999 -9999 -9999 -9999 -9999 -9999 -9999 -9999 -9999 -9999 -9999 -9999 -9999 -9999 -9999 -9999 -9999 -9999 -9999 -9999 -9999 -9999 -9999 -9999 -9999 -9999 -9999 -9999 -9999 -9999 -9999 -9999 -9999 -9999 -9999 -9999 -9999 -9999 -9999 -9999 -9999 -9999 -9999 -9999 -9999 -9999 -9999 -9999 -9999 -9999 -9999 -9999 -9999 -9999 -9999 -9999 -9999 -9999 -9999 -9999 -9999 -9999 -9999 -9999 -9999 -9999 -9999 -9999 -9999 -9999 -9999 -9999 -9999 -9999 -9999 -9999 -9999 -9999 -9999 -9999 -9999 -9999 -9999 -9999 -9999 -9999 -9999 -9999 -9999 -9999 -9999 -9999 -9999 -9999 -9999 -9999 -9999 -9999 -9999 -9999 -9999 -9999 -9999 -9999 -9999 -9999 -9999
-9999 -9999 -9999 -9999 -9999 -9999 -9999 -9999 -9999 -9999 -9999 -9999 -9999 -9999 -9999 -9999 -9999 -9999 -9999 -9999 -9999 3791 3527 3291 3262 3013 2713 2994 3208 3219 3386 3550 3347 3286 3425 3580 3551 3514 3512 3425 3495 3564 3490 3202 2992 3078 2890 3029 3051 3187 3167 2986 2796 2769 2906 3197 3039 3024 3166 3367 3505 3785 4026 3986 4175 4386 4235 4098 3699 3519 3333 3305 3401 3308 3070 2970 2883 2703 2664 2638 2698 2878 2999 3006 3149 3499 3692 3868 3859 3845 3673 3370 3114 2973 2651 2498 2642 2688 2961 2983 2770 2632 2349 2100 2191 2377 2467 2593 2875 3172 3355 3219 2972 2860 2783 2685 2836 2483 2600 2550 2592 2879 3294 3389 3595 3898 3730 3719 4043 3700 3275 3006 3033 3294 3460 2921 2825 2848 3194 3488 3655 3462 3041 2868 3215 3413 3719 3705 3362 3212 3293 3131 2982 2889 3106 3444 3754 3790 3731 3826 4025 3909 3827 3675 3576 3257 3175 3454 3680 3605 3644 3892 3725 3548 3551 3467 3470 3394 3261 3127 2848 2718 2913 3031 3272 3454 3651 3860 3913 3774 3544 3346 3236 3164 3380 3694 3833 3574 3270 3459 3815 3996 3921 3597 3417 3511 3927 4190 4478 4345 4081 3645 3447 3335 3224 3058 3083 3209 3264 3425 3631 3551 3386 3059 2957 3047 3089 3282 3525 3753 3985 3901 3645 3453 3670 3714 3612 -9999 -9999 -9999 -9999 -9999 -9999 -9999 -9999 -9999 3738 3726 3752 -9999 -9999 -9999 -9999 -9999 -9999 -9999 -9999 3905 3600 3672 3805 3906 -9999 -9999 -9999 -9999 -9999 -9999 -9999 -9999 -9999 -9999 -9999 -9999 -9999 -9999 -9999 -9999 -9999 -9999 -9999 -9999 -9999 -9999 -9999 -9999 -9999 -9999 -9999 -9999 -9999 -9999 -9999 -9999 -9999 -9999 -9999 4097 3870 3744 3663 3663 3917 -9999 -9999 -9999 -9999 -9999 -9999 -9999 -9999 -9999 -9999 -9999 -9999 -9999 -9999 -9999 -9999 -9999 -9999 -9999 -9999 -9999 -9999 -9999 -9999 -9999 -9999 -9999 -9999 -9999 -9999 -9999 -9999 -9999 -9999 -9999 -9999 -9999 -9999 -9999 -9999 -9999 -9999 -9999 -9999 -9999 -9999 -9999 -9999 -9999 -9999 -9999 -9999 -9999 -9999 -9999 -9999 -9999 -9999 -9999 -9999 -9999 -9999 -9999 -9999 -9999 -9999 -9999 -9999 -9999 -9999 -9999 -9999 -9999 -9999 -9999 -9999 -9999 -9999 -9999 -9999 -9999 -9999 -9999 -9999 -9999 -9999 -9999 -9999 -9999 -9999 -9999 -9999 -9999 -9999 -9999 -9999 -9999 -9999 -9999 -9999 -9999 -9999 -9999 -9999 -9999 -9999 -9999 -9999 -9999 -9999 -9999 -9999 -9999 -9999 -9999 -9999 -9999 -9999 -9999 -9999 -9999 -9999 -9999 -9999 -9999 -9999 -9999 -9999 -9999 -9999 -9999 -9999 -9999 -9999 -9999 -9999 -9999 -9999 -9999 -9999 -9999 -9999 -9999 -9999 -9999 -9999 -9999 -9999 -9999 -9999 -9999 -9999 -9999 -9999 -9999 -9999 -9999 -9999 -9999 -9999 -9999 -9999 -9999 -9999 -9999 -9999 -9999 -9999 -9999 -9999 -9999 -9999 -9999 -9999 -9999 -9999 -9999 -9999 -9999 -9999 -9999 -9999 -9999 -9999 -9999 -9999 -9999 -9999 -9999 -9999
-9999 -9999 -9999 -9999 -9999 -9999 -9999 -9999 -9999 -9999 -9999 -9999 -9999 -9999 -9999 -9999 -9999 -9999 -9999 -9999 -9999 3920 3620 3314 3190 3028 2767 2956 3039 3249 3564 3974 4025 3922 3922 3950 3943 3929 3767 3587 3534 3529 3429 3195 3068 3176 2947 3035 3395 3508 3352 3129 2874 2834 2962 3325 3343 3180 3109 3112 3256 3443 3605 3696 3911 4230 4201 4058 3771 3603 3388 3271 3101 3035 3057 2924 2932 3078 2877 2708 2638 2544 2686 2868 2998 3248 3424 3697 4022 4070 3750 3417 3303 3166 2876 2676 2331 2383 2666 2558 2313 2097 2190 2299 2587 2898 2896 2735 2797 3056 3254 3547 3272 3148 2993 2985 2844 2693 2781 2867 2684 2821 3034 3144 3396 3592 3793 3799 4110 3914 3518 3299 3359 3692 3524 2933 2910 2931 3304 3700 3733 3617 3156 2980 3161 3345 3794 3736 3441 3476 3622 3593 3287 3086 2981 3252 3306 3328 3450 3681 3858 3904 3854 3721 3511 3291 3258 3470 3700 3866 3878 3903 3813 3688 3527 3406 3321 3098 3009 2919 2889 2913 3096 3160 3392 3654 3808 3994 3922 3957 3732 3443 3252 3305 3695 3990 4071 3698 3352 3496 3868 4086 3993 3649 3516 3608 3997 4501 4363 4168 4025 3858 3719 3530 3500 3140 3193 3493 3598 3894 3951 3592 3420 3049 3079 3358 3311 3199 3394 3597 3855 3942 3829 3627 3677 -9999 -9999 -9999 -9999 -9999 -9999 -9999 -9999 -9999 -9999 -9999 -9999 -9999 -9999 -9999 -9999 -9999 -9999 -9999 -9999 -9999 -9999 -9999 3897 3924 4044 -9999 -9999 -9999 -9999 -9999 -9999 -9999 -9999 -9999 -9999 -9999 -9999 -9999 -9999 -9999 -9999 -9999 -9999 -9999 -9999 -9999 -9999 -9999 -9999 -9999 -9999 -9999 -9999 -9999 -9999 -9999 -9999 -9999 -9999 -9999 4349 4083 3975 3829 3783 3935 -9999 -9999 -9999 -9999 -9999 -9999 -9999 -9999 -9999 -9999 -9999 -9999 -9999 -9999 -9999 -9999 -9999 -9999 -9999 -9999 -9999 -9999 -9999 -9999 -9999 -9999 -9999 -9999 -9999 -9999 -9999 -9999 -9999 -9999 -9999 -9999 -9999 -9999 -9999 -9999 -9999 -9999 -9999 -9999 -9999 -9999 -9999 -9999 -9999 -9999 -9999 -9999 -9999 -9999 -9999 -9999 -9999 -9999 -9999 -9999 -9999 -9999 -9999 -9999 -9999 -9999 -9999 -9999 -9999 -9999 -9999 -9999 -9999 -9999 -9999 -9999 -9999 -9999 -9999 -9999 -9999 -9999 -9999 -9999 -9999 -9999 -9999 -9999 -9999 -9999 -9999 -9999 -9999 -9999 -9999 -9999 -9999 -9999 -9999 -9999 -9999 -9999 -9999 -9999 -9999 -9999 -9999 -9999 -9999 -9999 -9999 -9999 -9999 -9999 -9999 -9999 -9999 -9999 -9999 -9999 -9999 -9999 -9999 -9999 -9999 -9999 -9999 -9999 -9999 -9999 -9999 -9999 -9999 -9999 -9999 -9999 -9999 -9999 -9999 -9999 -9999 -9999 -9999 -9999 -9999 -9999 -9999 -9999 -9999 -9999 -9999 -9999 -9999 -9999 -9999 -9999 -9999 -9999 -9999 -9999 -9999 -9999 -9999 -9999 -9999 -9999 -9999 -9999 -9999 -9999 -9999 -9999 -9999 -9999 -9999 -9999 -9999 -9999 -9999 -9999 -9999 -9999 -9999 -9999 -9999 -9999 -9999 -9999 -9999 -9999 -9999
-9999 -9999 -9999 -9999 -9999 -9999 -9999 -9999 -9999 -9999 -9999 -9999 -9999 -9999 -9999 -9999 -9999 -9999 -9999 -9999 -9999 -9999 3745 3403 3307 3165 2875 2936 3235 3385 3551 3776 4148 4276 4197 4132 4149 4134 3993 3823 3699 3649 3548 3385 3466 3462 3240 3304 3663 3708 3587 3385 3195 3221 3294 3655 3927 3776 3676 3515 3291 3367 3450 3495 3601 3798 3997 3902 3800 3803 3719 3627 3414 3479 3367 3520 3516 3447 3152 3156 2935 2565 2747 3201 3362 3487 3473 3554 3818 3937 3971 3640 3497 3453 3115 2795 2445 2318 2216 2375 2276 2157 2350 2337 2518 2728 2858 3018 2958 3057 3242 3564 3586 3352 3235 3320 3104 3062 3164 3245 3232 3093 3157 3198 3338 3405 3469 3572 3754 3952 3642 3616 3675 3621 3459 3075 3050 3109 3287 3493 3636 3778 3269 3091 3427 3575 3958 3813 3527 3545 3770 3503 3259 3160 3298 3218 3370 3469 3634 3678 3818 3830 3864 3724 3560 3474 3487 3571 3683 3779 3850 3691 3486 3386 3215 3154 3076 3143 3086 3068 3196 3144 3337 3306 3425 3544 3752 4060 4017 3899 3719 3637 3550 3665 3864 4139 4119 3896 3477 3491 3802 3983 4179 3873 3755 3888 4133 4322 4569 4396 4132 3932 3815 3754 3591 3191 3572 3933 3858 4017 3909 3622 3473 3131 3225 3560 3599 3295 3488 3758 3877 -9999 3864 3748 -9999 -9999 -9999 -9999 -9999 -9999 -9999 -9999 -9999 -9999 -9999 -9999 -9999 -9999 -9999 -9999 -9999 -9999 -9999 -9999 -9999 -9999 -9999 -9999 -9999 -9999 -9999 -9999 -9999 -9999 -9999 -9999 -9999 -9999 -9999 -9999 -9999 -9999 -9999 -9999 -9999 -9999 -9999 -9999 -9999 -9999 -9999 -9999 -9999 -9999 -9999 -9999 -9999 -9999 -9999 -9999 -9999 -9999 -9999 -9999 -9999 -9999 4222 4203 4136 4041 -9999 -9999 -9999 -9999 -9999 -9999 -9999 -9999 -9999 -9999 -9999 -9999 -9999 -9999 -9999 -9999 -9999 -9999 -9999 -9999 -9999 -9999 -9999 -9999 -9999 -9999 -9999 -9999 -9999 -9999 -9999 -9999 -9999 -9999 -9999 -9999 -9999 -9999 -9999 -9999 -9999 -9999 -9999 -9999 -9999 -9999 -9999 -9999 -9999 -9999 -9999 -9999 -9999 -9999 -9999 -9999 -9999 -9999 -9999 -9999 -9999 -9999 -9999 -9999 -9999 -9999 -9999 -9999 -9999 -9999 -9999 -9999 -9999 -9999 -9999 -9999 -9999 -9999 -9999 -9999 -9999 -9999 -9999 -9999 -9999 -9999 -9999 -9999 -9999 -9999 -9999 -9999 -9999 -9999 -9999 -9999 -9999 -9999 -9999 -9999 -9999 -9999 -9999 -9999 -9999 -9999 -9999 -9999 -9999 -9999 -9999 -9999 -9999 -9999 -9999 -9999 -9999 -9999 -9999 -9999 -9999 -9999 -9999 -9999 -9999 -9999 -9999 -9999 -9999 -9999 -9999 -9999 -9999 -9999 -9999 -9999 -9999 -9999 -9999 -9999 -9999 -9999 -9999 -9999 -9999 -9999 -9999 -9999 -9999 -9999 -9999 -9999 -9999 -9999 -9999 -9999 -9999 -9999 -9999 -9999 -9999 -9999 -9999 -9999 -9999 -9999 -9999 -9999 -9999 -9999 -9999 -9999 -9999 -9999 -9999 -9999 -9999 -9999 -9999 -9999 -9999 -9999 -9999 -9999 -9999 -9999 -9999 -9999 -9999 -9999 -9999 -9999 -9999
-9999 -9999 -9999 -9999 -9999 -9999 -9999 -9999 -9999 -9999 -9999 -9999 -9999 -9999 -9999 -9999 -9999 -9999 -9999 -9999 -9999 -9999 3988 3512 3324 3220 3006 2850 3106 3361 3615 3964 3892 3981 4034 3993 4089 4043 4101 3949 3891 3853 3839 3830 3889 3847 3708 3810 3881 3826 3770 3789 3795 3805 3852 4025 4198 4248 4232 4098 3897 3889 3943 3948 3933 3822 3841 3761 3660 3591 3591 3662 3647 3838 3931 3981 3920 3696 3509 3369 3182 2772 2497 2831 3065 3299 3671 3761 3819 3877 3589 3244 3199 3020 2778 2501 2231 2192 2202 2252 2265 2317 2548 2566 2648 2776 2855 2988 3148 3245 3332 3735 3872 3613 3605 3716 3547 3406 3638 3698 3777 3495 3564 3513 3554 3676 3712 3649 3720 3952 3993 3839 3855 3930 3620 3365 3313 3371 3481 3627 3710 3762 3448 3333 3527 3615 3854 3880 3726 3743 3599 3411 3318 3417 3622 3547 3706 3616 3759 -9999 -9999 -9999 -9999 -9999 -9999 -9999 -9999 -9999 -9999 -9999 3951 3753 3595 3566 3541 3510 3467 3370 3273 3243 3289 3346 -9999 -9999 -9999 -9999 -9999 -9999 -9999 -9999 4079 3881 3691 3567 3884 4072 4098 3993 3681 3508 3757 3904 4244 3926 3822 3995 4327 4475 4335 4253 4221 3964 3733 3602 3314 3630 3662 3952 4165 4356 4054 3765 3494 3146 3523 3874 3800 3517 3712 3947 3939 -9999 -9999 -9999 -9999 -9999 -9999 -9999 -9999 -9999 -9999 -9999 -9999 -9999 -9999 -9999 -9999 -9999 -9999 -9999 -9999 -9999 -9999 -9999 -9999 -9999 -9999 -9999 -9999 -9999 -9999 -9999 -9999 -9999 -9999 -9999 -9999 -9999 -9999 -9999 -9999 -9999 -9999 -9999 -9999 -9999 -9999 -9999 -9999 -9999 -9999 -9999 -9999 -9999 -9999 -9999 -9999 -9999 -9999 -9999 -9999 -9999 -9999 -9999 -9999 -9999 -9999 -9999 -9999 -9999 -9999 -9999 -9999 -9999 -9999 -9999 -9999 -9999 -9999 -9999 -9999 -9999 -9999 -9999 -9999 -9999 -9999 -9999 -9999 -9999 -9999 -9999 -9999 -9999 -9999 -9999 -9999 -9999 -9999 -9999 -9999 -9999 -9999 -9999 -9999 -9999 -9999 -9999 -9999 -9999 -9999 -9999 -9999 -9999 -9999 -9999 -9999 -9999 -9999 -9999 -9999 -9999 -9999 -9999 -9999 -9999 -9999 -9999 -9999 -9999 -9999 -9999 -9999 -9999 -9999 -9999 -9999 -9999 -9999 -9999 -9999 -9999 -9999 -9999 -9999 -9999 -9999 -9999 -9999 -9999 -9999 -9999 -9999 -9999 -9999 -9999 -9999 -9999 -9999 -9999 -9999 -9999 -9999 -9999 -9999 -9999 -9999 -9999 -9999 -9999 -9999 -9999 -9999 -9999 -9999 -9999 -9999 -9999 -9999 -9999 -9999 -9999 -9999 -9999 -9999 -9999 -9999 -9999 -9999 -9999 -9999 -9999 -9999 -9999 -9999 -9999 -9999 -9999 -9999 -9999 -9999 -9999 -9999 -9999 -9999 -9999 -9999 -9999 -9999 -9999 -9999 -9999 -9999 -9999 -9999 -9999 -9999 -9999 -9999 -9999 -9999 -9999 -9999 -9999 -9999 -9999 -9999 -9999 -9999 -9999 -9999 -9999 -9999 -9999 -9999 -9999 -9999 -9999 -9999 -9999 -9999 -9999 -9999 -9999 -9999 -9999 -9999 -9999 -9999 -9999 -9999 -9999 -9999 -9999 -9999 -9999 -9999 -9999 -9999 -9999 -9999 -9999 -9999
-9999 -9999 -9999 -9999 -9999 -9999 -9999 -9999 -9999 -9999 -9999 -9999 -9999 -9999 -9999 -9999 -9999 -9999 -9999 -9999 -9999 -9999 4078 3553 3329 3178 3050 2835 2987 3184 3411 3767 4009 3986 3939 3881 3963 3994 4085 3924 3901 3851 3866 3875 3998 3987 3839 3957 3966 3907 3883 3922 4014 4007 3994 4092 4259 4345 4329 4224 4073 4071 4113 4110 4034 3880 3915 3859 3740 3528 3446 3501 3756 3995 3990 3980 3978 3736 3564 3316 3147 2858 2527 2627 2801 3087 3349 3559 3629 3698 3364 3053 3065 2883 2585 2354 2194 2192 2209 2373 2461 2418 2583 2741 2799 2870 2931 3076 3229 3409 3441 3705 4073 3972 3950 3843 3693 3517 3797 3818 3919 3686 3665 3650 3736 3869 3786 3758 3932 4119 4346 4009 3901 3880 3717 3550 3541 3649 3683 3742 3787 3772 3486 3499 3709 3689 3934 3932 3756 3653 3484 3365 3441 -9999 -9999 3614 -9999 -9999 -9999 -9999 -9999 -9999 -9999 -9999 -9999 -9999 -9999 -9999 -9999 -9999 -9999 3760 3661 -9999 -9999 -9999 -9999 -9999 -9999 -9999 -9999 -9999 -9999 -9999 -9999 -9999 -9999 -9999 -9999 -9999 -9999 3894 3810 3609 3775 3949 4022 3944 3709 3572 3782 3977 4196 3917 3844 3987 4213 4358 4288 4181 4051 3842 3549 3416 3389 3759 3859 4014 4201 4229 3971 3713 3511 3195 3631 4113 3954 3651 3724 -9999 -9999 -9999 -9999 -9999 -9999 -9999 -9999 -9999 -9999 -9999 -9999 -9999 -9999 -9999 -9999 -9999 -9999 -9999 -9999 -9999 -9999 -9999 -9999 -9999 -9999 -9999 -9999 -9999 -9999 -9999 -9999 -9999 -9999 -9999 -9999 -9999 -9999 -9999 -9999 -9999 -9999 -9999 -9999 -9999 -9999 -9999 -9999 -9999 -9999 -9999 -9999 -9999 -9999 -9999 -9999 -9999 -9999 -9999 -9999 -9999 -9999 -9999 -9999 -9999 -9999 -9999 -9999 -9999 -9999 -9999 -9999 -9999 -9999 -9999 -9999 -9999 -9999 -9999 -9999 -9999 -9999 -9999 -9999 -9999 -9999 -9999 -9999 -9999 -9999 -9999 -9999 -9999 -9999 -9999 -9999 -9999 -9999 -9999 -9999 -9999 -9999 -9999 -9999 -9999 -9999 -9999 -9999 -9999 -9999 -9999 -9999 -9999 -9999 -9999 -9999 -9999 -9999 -9999 -9999 -9999 -9999 -9999 -9999 -9999 -9999 -9999 -9999 -9999 -9999 -9999 -9999 -9999 -9999 -9999 -9999 -9999 -9999 -9999 -9999 -9999 -9999 -9999 -9999 -9999 -9999 -9999 -9999 -9999 -9999 -9999 -9999 -9999 -9999 -9999 -9999 -9999 -9999 -9999 -9999 -9999 -9999 -9999 -9999 -9999 -9999 -9999 -9999 -9999 -9999 -9999 -9999 -9999 -9999 -9999 -9999 -9999 -9999 -9999 -9999 -9999 -9999 -9999 -9999 -9999 -9999 -9999 -9999 -9999 -9999 -9999 -9999 -9999 -9999 -9999 -9999 -9999 -9999 -9999 -9999 -9999 -9999 -9999 -9999 -9999 -9999 -9999 -9999 -9999 -9999 -9999 -9999 -9999 -9999 -9999 -9999 -9999 -9999 -9999 -9999 -9999 -9999 -9999 -9999 -9999 -9999 -9999 -9999 -9999 -9999 -9999 -9999 -9999 -9999 -9999 -9999 -9999 -9999 -9999 -9999 -9999 -9999 -9999 -9999 -9999 -9999 -9999 -9999 -9999 -9999 -9999 -9999 -9999 -9999 -9999 -9999 -9999 -9999 -9999 -9999 -9999 -9999 -9999 -9999
-9999 -9999 -9999 -9999 -9999 -9999 -9999 -9999 -9999 -9999 -9999 -9999 -9999 -9999 -9999 -9999 -9999 -9999 -9999 -9999 -9999 -9999 4041 3707 3471 3134 2962 2898 3106 3297 3213 3396 3798 3941 4015 3871 3666 3687 3774 3623 3529 3524 3578 3729 3813 3933 3934 4114 4036 4010 4004 4071 4287 4173 4048 3994 4078 4217 4266 4259 4165 4135 4102 4072 3999 3868 3939 3966 3811 3587 3433 3383 3577 3818 3824 3814 3910 3817 3498 3249 3118 2828 2590 2448 2476 2719 2920 3038 3110 3096 3070 2900 2618 2517 2414 2198 2192 2192 2192 2261 2479 2592 2812 2969 3167 3361 3337 3385 3523 3809 3813 3697 3908 4204 4151 3926 3960 3720 3909 4082 4117 3990 3929 3855 4029 4246 4108 4134 4326 4527 -9999 -9999 -9999 3877 3894 3775 3762 -9999 3913 3839 3796 3669 3589 3558 3682 3744 -9999 3770 3673 3618 -9999 -9999 -9999 -9999 -9999 -9999 -9999 -9999 -9999 -9999 -9999 -9999 -9999 -9999 -9999 -9999 -9999 -9999 -9999 -9999 -9999 -9999 -9999 -9999 -9999 -9999 -9999 -9999 -9999 -9999 -9999 -9999 -9999 -9999 -9999 -9999 -9999 -9999 -9999 -9999 -9999 -9999 3791 -9999 -9999 -9999 -9999 3939 3758 3758 4036 -9999 -9999 4039 3958 4037 4273 4373 4137 4107 4062 3798 3496 3370 3631 3873 4337 4250 4301 4077 3802 3486 3330 3400 3758 3988 3985 3983 3972 -9999 -9999 -9999 -9999 -9999 -9999 -9999 -9999 -9999 -9999 -9999 -9999 -9999 -9999 -9999 -9999 -9999 -9999 -9999 -9999 -9999 -9999 -9999 -9999 -9999 -9999 -9999 -9999 -9999 -9999 -9999 -9999 -9999 -9999 -9999 -9999 -9999 -9999 -9999 -9999 -9999 -9999 -9999 -9999 -9999 -9999 -9999 -9999 -9999 -9999 -9999 -9999 -9999 -9999 -9999 -9999 -9999 -9999 -9999 -9999 -9999 -9999 -9999 -9999 -9999 -9999 -9999 -9999 -9999 -9999 -9999 -9999 -9999 -9999 -9999 -9999 -9999 -9999 -9999 -9999 -9999 -9999 -9999 -9999 -9999 -9999 -9999 -9999 -9999 -9999 -9999 -9999 -9999 -9999 -9999 -9999 -9999 -9999 -9999 -9999 -9999 -9999 -9999 -9999 -9999 -9999 -9999 -9999 -9999 -9999 -9999 -9999 -9999 -9999 -9999 -9999 -9999 -9999 -9999 -9999 -9999 -9999 -9999 -9999 -9999 -9999 -9999 -9999 -9999 -9999 -9999 -9999 -9999 -9999 -9999 -9999 -9999 -9999 -9999 -9999 -9999 -9999 -9999 -9999 -9999 -9999 -9999 -9999 -9999 -9999 -9999 -9999 -9999 -9999 -9999 -9999 -9999 -9999 -9999 -9999 -9999 -9999 -9999 -9999 -9999 -9999 -9999 -9999 -9999 -9999 -9999 -9999 -9999 -9999 -9999 -9999 -9999 -9999 -9999 -9999 -9999 -9999 -9999 -9999 -9999 -9999 -9999 -9999 -9999 -9999 -9999 -9999 -9999 -9999 -9999 -9999 -9999 -9999 -9999 -9999 -9999 -9999 -9999 -9999 -9999 -9999 -9999 -9999 -9999 -9999 -9999 -9999 -9999 -9999 -9999 -9999 -9999 -9999 -9999 -9999 -9999 -9999 -9999 -9999 -9999 -9999 -9999 -9999 -9999 -9999 -9999 -9999 -9999 -9999 -9999 -9999 -9999 -9999 -9999 -9999 -9999 -9999 -9999 -9999 -9999 -9999 -9999 -9999 -9999 -9999 -9999 -9999 -9999 -9999 -9999 -9999 -9999 -9999 -9999 -9999 -9999 -9999 -9999 -9999
-9999 -9999 -9999 -9999 -9999 -9999 -9999 -9999 -9999 -9999 -9999 -9999 -9999 -9999 -9999 -9999 -9999 -9999 -9999 -9999 -9999 -9999 -9999 3917 3681 3217 2920 3053 3326 3652 3478 3382 3658 3813 4026 4002 3749 3655 3505 3455 3414 3311 3432 3610 3729 3802 4007 4050 3905 3837 3823 3896 3967 4019 3956 3846 3787 3871 3989 4093 4042 3947 3812 3764 3731 3789 3985 4102 4053 3667 3446 3369 3344 3368 3409 3383 3458 3690 3730 3389 3243 2925 2809 2681 2482 2545 2596 2828 2892 2890 3019 2921 2649 2520 2319 2196 2235 2209 2230 2194 2196 2279 2616 2833 3025 3371 3504 3838 3761 3651 3684 3836 3758 3778 3763 3795 4045 3960 3980 4057 3993 3919 3911 3904 3964 4146 4238 4259 4524 4291 -9999 -9999 -9999 -9999 -9999 -9999 -9999 -9999 -9999 -9999 3939 3895 3727 3682 -9999 -9999 -9999 -9999 -9999 -9999 -9999 -9999 -9999 -9999 -9999 -9999 -9999 -9999 -9999 -9999 -9999 -9999 -9999 -9999 -9999 -9999 -9999 -9999 -9999 -9999 -9999 -9999 -9999 -9999 -9999 -9999 -9999 -9999 -9999 -9999 -9999 -9999 -9999 -9999 -9999 -9999 -9999 -9999 -9999 -9999 -9999 -9999 -9999 -9999 -9999 -9999 -9999 -9999 -9999 -9999 -9999 -9999 -9999 -9999 -9999 -9999 -9999 -9999 4052 3941 3818 3739 3475 3445 3796 4124 4420 4162 4043 3878 3739 3507 3358 3500 3915 4101 4097 -9999 -9999 -9999 -9999 -9999 -9999 -9999 -9999 -9999 -9999 -9999 -9999 -9999 -9999 -9999 -9999 -9999 -9999 -9999 -9999 -9999 -9999 -9999 -9999 -9999 -9999 -9999 -9999 -9999 -9999 -9999 -9999 -9999 -9999 -9999 -9999 -9999 -9999 -9999 -9999 -9999 -9999 -9999 -9999 -9999 -9999 -9999 -9999 -9999 -9999 -9999 -9999 -9999 -9999 -9999 -9999 -9999 -9999 -9999 -9999 -9999 -9999 -9999 -9999 -9999 -9999 -9999 -9999 -9999 -9999 -9999 -9999 -9999 -9999 -9999 -9999 -9999 -9999 -9999 -9999 -9999 -9999 -9999 -9999 -9999 -9999 -9999 -9999 -9999 -9999 -9999 -9999 -9999 -9999 -9999 -9999 -9999 -9999 -9999 -9999 -9999 -9999 -9999 -9999 -9999 -9999 -9999 -9999 -9999 -9999 -9999 -9999 -9999 -9999 -9999 -9999 -9999 -9999 -9999 -9999 -9999 -9999 -9999 -9999 -9999 -9999 -9999 -9999 -9999 -9999 -9999 -9999 -9999 -9999 -9999 -9999 -9999 -9999 -9999 -9999 -9999 -9999 -9999 -9999 -9999 -9999 -9999 -9999 -9999 -9999 -9999 -9999 -9999 -9999 -9999 -9999 -9999 -9999 -9999 -9999 -9999 -9999 -9999 -9999 -9999 -9999 -9999 -9999 -9999 -9999 -9999 -9999 -9999 -9999 -9999 -9999 -9999 -9999 -9999 -9999 -9999 -9999 -9999 -9999 -9999 -9999 -9999 -9999 -9999 -9999 -9999 -9999 -9999 -9999 -9999 -9999 -9999 -9999 -9999 -9999 -9999 -9999 -9999 -9999 -9999 -9999 -9999 -9999 -9999 -9999 -9999 -9999 -9999 -9999 -9999 -9999 -9999 -9999 -9999 -9999 -9999 -9999 -9999 -9999 -9999 -9999 -9999 -9999 -9999 -9999 -9999 -9999 -9999 -9999 -9999 -9999 -9999 -9999 -9999 -9999 -9999 -9999 -9999 -9999 -9999 -9999 -9999 -9999 -9999 -9999 -9999 -9999 -9999 -9999 -9999 -9999 -9999 -9999 -9999 -9999 -9999 -9999 -9999 -9999 -9999 -9999
-9999 -9999 -9999 -9999 -9999 -9999 -9999 -9999 -9999 -9999 -9999 -9999 -9999 -9999 -9999 -9999 -9999 -9999 -9999 -9999 -9999 -9999 -9999 3790 3585 3223 2938 3224 3499 3695 3725 3661 3745 3833 4037 4016 4003 3976 3839 3881 3687 3517 3243 3377 3477 3452 3545 3570 3525 3480 3574 3580 3694 3850 3775 3710 3742 3736 3826 3933 3957 3932 3763 3675 3479 3294 3744 3865 3975 3709 3613 3484 3275 3231 3075 3146 3227 3397 3531 3516 3428 3270 3141 2927 2847 2622 2411 2675 2696 2698 2613 2478 2313 2274 2205 2564 2648 2463 2488 2473 2276 2221 2270 2505 2724 2907 3152 3752 3666 3460 3403 3398 3432 3548 3570 3461 3702 3587 3629 3656 3652 3623 3748 3845 3813 3936 4072 4130 4068 4158 -9999 -9999 -9999 -9999 -9999 -9999 -9999 -9999 -9999 -9999 -9999 -9999 -9999 -9999 -9999 -9999 -9999 -9999 -9999 -9999 -9999 -9999 -9999 -9999 -9999 -9999 -9999 -9999 -9999 -9999 -9999 -9999 -9999 -9999 -9999 -9999 -9999 -9999 -9999 -9999 -9999 -9999 -9999 -9999 -9999 -9999 -9999 -9999 -9999 -9999 -9999 -9999 -9999 -9999 -9999 -9999 -9999 -9999 -9999 -9999 -9999 -9999 -9999 -9999 -9999 -9999 -9999 -9999 -9999 -9999 -9999 -9999 -9999 -9999 -9999 -9999 -9999 -9999 -9999 3938 4075 3924 3615 3498 3638 3865 4082 4255 4141 4118 3972 3687 3580 3510 3695 3867 3932 4284 -9999 -9999 -9999 -9999 -9999 -9999 -9999 -9999 -9999 -9999 -9999 -9999 -9999 -9999 -9999 -9999 -9999 -9999 -9999 -9999 -9999 -9999 -9999 -9999 -9999 -9999 -9999 -9999 -9999 -9999 -9999 -9999 -9999 -9999 -9999 -9999 -9999 -9999 -9999 -9999 -9999 -9999 -9999 -9999 -9999 -9999 -9999 -9999 -9999 -9999 -9999 -9999 -9999 -9999 -9999 -9999 -9999 -9999 -9999 -9999 -9999 -9999 -9999 -9999 -9999 -9999 -9999 -9999 -9999 -9999 -9999 -9999 -9999 -9999 -9999 -9999 -9999 -9999 -9999 -9999 -9999 -9999 -9999 -9999 -9999 -9999 -9999 -9999 -9999 -9999 -9999 -9999 -9999 -9999 -9999 -9999 -9999 -9999 -9999 -9999 -9999 -9999 -9999 -9999 -9999 -9999 -9999 -9999 -9999 -9999 -9999 -9999 -9999 -9999 -9999 -9999 -9999 -9999 -9999 -9999 -9999 -9999 -9999 -9999 -9999 -9999 -9999 -9999 -9999 -9999 -9999 -9999 -9999 -9999 -9999 -9999 -9999 -9999 -9999 -9999 -9999 -9999 -9999 -9999 -9999 -9999 -9999 -9999 -9999 -9999 -9999 -9999 -9999 -9999 -9999 -9999 -9999 -9999 -9999 -9999 -9999 -9999 -9999 -9999 -9999 -9999 -9999 -9999 -9999 -9999 -9999 -9999 -9999 -9999 -9999 -9999 -9999 -9999 -9999 -9999 -9999 -9999 -9999 -9999 -9999 -9999 -9999 -9999 -9999 -9999 -9999 -9999 -9999 -9999 -9999 -9999 -9999 -9999 -9999 -9999 -9999 -9999 -9999 -9999 -9999 -9999 -9999 -9999 -9999 -9999 -9999 -9999 -9999 -9999 -9999 -9999 -9999 -9999 -9999 -9999 -9999 -9999 -9999 -9999 -9999 -9999 -9999 -9999 -9999 -9999 -9999 -9999 -9999 -9999 -9999 -9999 -9999 -9999 -9999 -9999 -9999 -9999 -9999 -9999 -9999 -9999 -9999 -9999 -9999 -9999 -9999 -9999 -9999 -9999 -9999 -9999 -9999 -9999 -9999 -9999 -9999 -9999 -9999 -9999 -9999
-9999 -9999 -9999 -9999 -9999 -9999 -9999 -9999 -9999 -9999 -9999 -9999 -9999 -9999 -9999 -9999 -9999 -9999 -9999 -9999 -9999 -9999 3925 3786 3693 3292 2963 3127 3266 3535 3828 3817 3835 3936 4020 3996 3864 3819 3751 3637 3777 3817 3498 3332 3192 3165 3129 3144 3123 3162 3200 3227 3475 3549 3495 3380 3411 3569 3626 3713 3874 3902 3726 3624 3386 3131 3209 3364 3741 3569 3359 3303 3283 3293 3154 3059 3264 3282 3300 3275 3189 3209 2922 2735 2686 2563 2422 2409 2383 2380 2392 2340 2443 2470 2814 3106 2704 2555 2890 2685 2519 2353 2505 2392 2427 2700 2852 3451 3588 3363 3259 3119 3173 3247 3259 3234 3291 3292 3346 3375 3408 3424 3476 3496 3576 3752 3775 3827 3969 4183 4164 -9999 -9999 -9999 -9999 -9999 -9999 -9999 -9999 -9999 -9999 -9999 -9999 -9999 -9999 -9999 -9999 -9999 -9999 -9999 -9999 -9999 -9999 -9999 -9999 -9999 -9999 -9999 -9999 -9999 -9999 -9999 -9999 -9999 -9999 -9999 -9999 -9999 -9999 -9999 -9999 -9999 -9999 -9999 -9999 -9999 -9999 -9999 -9999 -9999 -9999 -9999 -9999 -9999 -9999 -9999 -9999 -9999 -9999 -9999 -9999 -9999 -9999 -9999 -9999 -9999 -9999 -9999 -9999 -9999 -9999 -9999 -9999 -9999 -9999 -9999 -9999 -9999 -9999 -9999 4043 3912 3673 3602 3774 3868 4072 4203 4094 3980 3893 3814 3746 3704 4010 4172 4163 -9999 -9999 -9999 -9999 -9999 -9999 -9999 -9999 -9999 -9999 -9999 -9999 -9999 -9999 -9999 -9999 -9999 -9999 -9999 -9999 -9999 -9999 -9999 -9999 -9999 -9999 -9999 -9999 -9999 -9999 -9999 -9999 -9999 -9999 -9999 -9999 -9999 -9999 -9999 -9999 -9999 -9999 -9999 -9999 -9999 -9999 -9999 -9999 -9999 -9999 -9999 -9999 -9999 -9999 -9999 -9999 -9999 -9999 -9999 -9999 -9999 -9999 -9999 -9999 -9999 -9999 -9999 -9999 -9999 -9999 -9999 -9999 -9999 -9999 -9999 -9999 -9999 -9999 -9999 -9999 -9999 -9999 -9999 -9999 -9999 -9999 -9999 -9999 -9999 -9999 -9999 -9999 -9999 -9999 -9999 -9999 -9999 -9999 -9999 -9999 -9999 -9999 -9999 -9999 -9999 -9999 -9999 -9999 -9999 -9999 -9999 -9999 -9999 -9999 -9999 -9999 -9999 -9999 -9999 -9999 -9999 -9999 -9999 -9999 -9999 -9999 -9999 -9999 -9999 -9999 -9999 -9999 -9999 -9999 -9999 -9999 -9999 -9999 -9999 -9999 -9999 -9999 -9999 -9999 -9999 -9999 -9999 -9999 -9999 -9999 -9999 -9999 -9999 -9999 -9999 -9999 -9999 -9999 -9999 -9999 -9999 -9999 -9999 -9999 -9999 -9999 -9999 -9999 -9999 -9999 -9999 -9999 -9999 -9999 -9999 -9999 -9999 -9999 -9999 -9999 -9999 -9999 -9999 -9999 -9999 -9999 -9999 -9999 -9999 -9999 -9999 -9999 -9999 -9999 -9999 -9999 -9999 -9999 -9999 -9999 -9999 -9999 -9999 -9999 -9999 -9999 -9999 -9999 -9999 -9999 -9999 -9999 -9999 -9999 -9999 -9999 -9999 -9999 -9999 -9999 -9999 -9999 -9999 -9999 -9999 -9999 -9999 -9999 -9999 -9999 -9999 -9999 -9999 -9999 -9999 -9999 -9999 -9999 -9999 -9999 -9999 -9999 -9999 -9999 -9999 -9999 -9999 -9999 -9999 -9999 -9999 -9999 -9999 -9999 -9999 -9999 -9999 -9999 -9999 -9999 -9999 -9999 -9999 -9999 -9999 -9999
-9999 -9999 -9999 -9999 -9999 -9999 -9999 -9999 -9999 -9999 -9999 -9999 -9999 -9999 -9999 -9999 -9999 -9999 -9999 -9999 -9999 -9999 4017 3800 3699 3342 2983 3144 3306 3597 3885 3904 3929 3983 3982 3959 3860 3796 3606 3584 3676 3805 3578 3465 3216 3155 3043 3041 3030 3027 3039 3108 3256 3355 3350 3278 3341 3522 3473 3577 3747 3733 3598 3515 3325 3088 3092 3239 3553 3482 3216 3116 3100 3097 2973 3041 3193 3218 3212 3220 3083 3090 2891 2629 2536 2431 2409 2411 2406 2408 2416 2371 2463 2621 3109 3276 2803 2775 3038 2869 2675 2511 2536 2715 2347 2623 2760 3332 3415 3335 3244 3053 3071 3120 3120 3134 3191 3333 3541 3579 3612 3587 3574 3557 3540 3665 3788 3894 4056 4234 4264 -9999 -9999 -9999 -9999 -9999 -9999 -9999 -9999 -9999 -9999 -9999 -9999 -9999 -9999 -9999 -9999 -9999 -9999 -9999 -9999 -9999 -9999 -9999 -9999 -9999 -9999 -9999 -9999 -9999 -9999 -9999 -9999 -9999 -9999 -9999 -9999 -9999 -9999 -9999 -9999 -9999 -9999 -9999 -9999 -9999 -9999 -9999 -9999 -9999 -9999 -9999 -9999 -9999 -9999 -9999 -9999 -9999 -9999 -9999 -9999 -9999 -9999 -9999 -9999 -9999 -9999 -9999 -9999 -9999 -9999 -9999 -9999 -9999 -9999 -9999 -9999 -9999 -9999 -9999 -9999 3931 3817 3699 3893 3997 4092 4254 4220 4075 3900 3841 3756 3808 4120 -9999 -9999 -9999 -9999 -9999 -9999 -9999 -9999 -9999 -9999 -9999 -9999 -9999 -9999 -9999 -9999 -9999 -9999 -9999 -9999 -9999 -9999 -9999 -9999 -9999 -9999 -9999 -9999 -9999 -9999 -9999 -9999 -9999 -9999 -9999 -9999 -9999 -9999 -9999 -9999 -9999 -9999 -9999 -9999 -9999 -9999 -9999 -9999 -9999 -9999 -9999 -9999 -9999 -9999 -9999 -9999 -9999 -9999 -9999 -9999 -9999 -9999 -9999 -9999 -9999 -9999 -9999 -9999 -9999 -9999 -9999 -9999 -9999 -9999 -9999 -9999 -9999 -9999 -9999 -9999 -9999 -9999 -9999 -9999 -9999 -9999 -9999 -9999 -9999 -9999 -9999 -9999 -9999 -9999 -9999 -9999 -9999 -9999 -9999 -9999 -9999 -9999 -9999 -9999 -9999 -9999 -9999 -9999 -9999 -9999 -9999 -9999 -9999 -9999 -9999 -9999 -9999 -9999 -9999 -9999 -9999 -9999 -9999 -9999 -9999 -9999 -9999 -9999 -9999 -9999 -9999 -9999 -9999 -9999 -9999 -9999 -9999 -9999 -9999 -9999 -9999 -9999 -9999 -9999 -9999 -9999 -9999 -9999 -9999 -9999 -9999 -9999 -9999 -9999 -9999 -9999 -9999 -9999 -9999 -9999 -9999 -9999 -9999 -9999 -9999 -9999 -9999 -9999 -9999 -9999 -9999 -9999 -9999 -9999 -9999 -9999 -9999 -9999 -9999 -9999 -9999 -9999 -9999 -9999 -9999 -9999 -9999 -9999 -9999 -9999 -9999 -9999 -9999 -9999 -9999 -9999 -9999 -9999 -9999 -9999 -9999 -9999 -9999 -9999 -9999 -9999 -9999 -9999 -9999 -9999 -9999 -9999 -9999 -9999 -9999 -9999 -9999 -9999 -9999 -9999 -9999 -9999 -9999 -9999 -9999 -9999 -9999 -9999 -9999 -9999 -9999 -9999 -9999 -9999 -9999 -9999 -9999 -9999 -9999 -9999 -9999 -9999 -9999 -9999 -9999 -9999 -9999 -9999 -9999 -9999 -9999 -9999 -9999 -9999 -9999 -9999 -9999 -9999 -9999 -9999 -9999 -9999 -9999 -9999 -9999 -9999 -9999 -9999
-9999 -9999 -9999 -9999 -9999 -9999 -9999 -9999 -9999 -9999 -9999 -9999 -9999 -9999 -9999 -9999 -9999 -9999 -9999 -9999 4229 4071 3900 3814 3692 3387 3052 3319 3579 3744 3709 3781 3900 3956 4041 3863 3764 3727 3591 3387 3421 3482 3288 3125 3060 3114 3221 3190 3293 3222 3166 3041 2988 2981 3002 3032 3081 3094 3137 3345 3507 3502 3401 3320 3224 3039 2978 2972 3041 3013 3020 2897 2889 2818 2662 2619 2628 2635 2616 2630 2653 2645 2607 2444 2455 2585 2788 2840 2952 2844 2579 2377 2505 2636 3063 3130 2792 2848 3023 3116 3002 2876 2624 2915 2781 2500 2483 2642 2976 3038 2941 2853 2954 3060 3193 3309 3380 3254 3347 3419 3547 3743 3804 3851 3714 3592 3675 3764 3902 4022 4213 -9999 -9999 -9999 -9999 -9999 -9999 -9999 -9999 -9999 -9999 -9999 -9999 -9999 -9999 -9999 -9999 -9999 -9999 -9999 -9999 -9999 -9999 -9999 -9999 -9999 -9999 -9999 -9999 -9999 -9999 -9999 -9999 -9999 -9999 -9999 -9999 -9999 -9999 -9999 -9999 -9999 -9999 -9999 -9999 -9999 -9999 -9999 -9999 -9999 -9999 -9999 -9999 -9999 -9999 -9999 -9999 -9999 -9999 -9999 -9999 -9999 -9999 -9999 -9999 -9999 -9999 -9999 -9999 -9999 -9999 -9999 -9999 -9999 -9999 -9999 -9999 -9999 -9999 -9999 -9999 -9999 -9999 3886 3920 4056 -9999 -9999 -9999 4284 4264 -9999 4055 4304 -9999 -9999 -9999 -9999 -9999 -9999 -9999 -9999 -9999 -9999 -9999 -9999 -9999 -9999 -9999 -9999 -9999 -9999 -9999 -9999 -9999 -9999 -9999 -9999 -9999 -9999 -9999 -9999 -9999 -9999 -9999 -9999 -9999 -9999 -9999 -9999 -9999 -9999 -9999 -9999 -9999 -9999 -9999 -9999 -9999 -9999 -9999 -9999 -9999 -9999 -9999 -9999 -9999 -9999 -9999 -9999 -9999 -9999 -9999 -9999 -9999 -9999 -9999 -9999 -9999 -9999 -9999 -9999 -9999 -9999 -9999 -9999 -9999 -9999 -9999 -9999 -9999 -9999 -9999 -9999 -9999 -9999 -9999 -9999 -9999 -9999 -9999 -9999 -9999 -9999 -9999 -9999 -9999 -9999 -9999 -9999 -9999 -9999 -9999 -9999 -9999 -9999 -9999 -9999 -9999 -9999 -9999 -9999 -9999 -9999 -9999 -9999 -9999 -9999 -9999 -9999 -9999 -9999 -9999 -9999 -9999 -9999 -9999 -9999 -9999 -9999 -9999 -9999 -9999 -9999 -9999 -9999 -9999 -9999 -9999 -9999 -9999 -9999 -9999 -9999 -9999 -9999 -9999 -9999 -9999 -9999 -9999 -9999 -9999 -9999 -9999 -9999 -9999 -9999 -9999 -9999 -9999 -9999 -9999 -9999 -9999 -9999 -9999 -9999 -9999 -9999 -9999 -9999 -9999 -9999 -9999 -9999 -9999 -9999 -9999 -9999 -9999 -9999 -9999 -9999 -9999 -9999 -9999 -9999 -9999 -9999 -9999 -9999 -9999 -9999 -9999 -9999 -9999 -9999 -9999 -9999 -9999 -9999 -9999 -9999 -9999 -9999 -9999 -9999 -9999 -9999 -9999 -9999 -9999 -9999 -9999 -9999 -9999 -9999 -9999 -9999 -9999 -9999 -9999 -9999 -9999 -9999 -9999 -9999 -9999 -9999 -9999 -9999 -9999 -9999 -9999 -9999 -9999 -9999 -9999 -9999 -9999 -9999 -9999 -9999 -9999 -9999 -9999 -9999 -9999 -9999 -9999 -9999 -9999 -9999 -9999 -9999 -9999 -9999 -9999 -9999 -9999 -9999 -9999 -9999 -9999 -9999 -9999 -9999 -9999 -9999 -9999 -9999 -9999
-9999 -9999 -9999 -9999 -9999 -9999 -9999 -9999 -9999 -9999 -9999 -9999 -9999 -9999 -9999 -9999 -9999 -9999 -9999 -9999 -9999 4289 3930 3683 3595 3455 3327 3392 3481 3667 3941 4097 4008 4065 4083 3881 3812 3883 3864 3472 3171 3141 3084 3324 3555 3671 3792 3668 3778 3737 3572 3391 3285 3213 3157 3003 3004 2910 2898 2929 3025 3100 2954 2921 2906 2828 2798 2773 2753 2689 2668 2666 2660 2606 2617 2701 2751 2740 2722 2543 2458 2451 2503 2649 2818 3332 3536 3309 3180 2988 2739 2450 2437 2581 2891 2986 2793 2791 3050 3255 3320 3187 2849 2718 3181 3090 2944 2833 3177 3233 3211 3089 3039 3032 3091 3269 3394 3478 3448 3417 3370 3453 3641 3810 4030 3791 3659 3679 3841 3932 -9999 -9999 -9999 -9999 -9999 -9999 -9999 -9999 -9999 -9999 -9999 -9999 -9999 -9999 -9999 -9999 -9999 -9999 -9999 -9999 -9999 -9999 -9999 -9999 -9999 -9999 -9999 -9999 -9999 -9999 -9999 -9999 -9999 -9999 -9999 -9999 -9999 -9999 -9999 -9999 -9999 -9999 -9999 -9999 -9999 -9999 -9999 -9999 -9999 -9999 -9999 -9999 -9999 -9999 -9999 -9999 -9999 -9999 -9999 -9999 -9999 -9999 -9999 -9999 -9999 -9999 -9999 -9999 -9999 -9999 -9999 -9999 -9999 -9999 -9999 -9999 -9999 -9999 -9999 -9999 -9999 -9999 -9999 -9999 -9999 -9999 -9999 -9999 -9999 -9999 -9999 -9999 -9999 -9999 -9999 -9999 -9999 -9999 -9999 -9999 -9999 -9999 -9999 -9999 -9999 -9999 -9999 -9999 -9999 -9999 -9999 -9999 -9999 -9999 -9999 -9999 -9999 -9999 -9999 -9999 -9999 -9999 -9999 -9999 -9999 -9999 -9999 -9999 -9999 -9999 -9999 -9999 -9999 -9999 -9999 -9999 -9999 -9999 -9999 -9999 -9999 -9999 -9999 -9999 -9999 -9999 -9999 -9999 -9999 -9999 -9999 -9999 -9999 -9999 -9999 -9999 -9999 -9999 -9999 -9999 -9999 -9999 -9999 -9999 -9999 -9999 -9999 -9999 -9999 -9999 -9999 -9999 -9999 -9999 -9999 -9999 -9999 -9999 -9999 -9999 -9999 -9999 -9999 -9999 -9999 -9999 -9999 -9999 -9999 -9999 -9999 -9999 -9999 -9999 -9999 -9999 -9999 -9999 -9999 -9999 -9999 -9999 -9999 -9999 -9999 -9999 -9999 -9999 -9999 -9999 -9999 -9999 -9999 -9999 -9999 -9999 -9999 -9999 -9999 -9999 -9999 -9999 -9999 -9999 -9999 -9999 -9999 -9999 -9999 -9999 -9999 -9999 -9999 -9999 -9999 -9999 -9999 -9999 -9999 -9999 -9999 -9999 -9999 -9999 -9999 -9999 -9999 -9999 -9999 -9999 -9999 -9999 -9999 -9999 -9999 -9999 -9999 -9999 -9999 -9999 -9999 -9999 -9999 -9999 -9999 -9999 -9999 -9999 -9999 -9999 -9999 -9999 -9999 -9999 -9999 -9999 -9999 -9999 -9999 -9999 -9999 -9999 -9999 -9999 -9999 -9999 -9999 -9999 -9999 -9999 -9999 -9999 -9999 -9999 -9999 -9999 -9999 -9999 -9999 -9999 -9999 -9999 -9999 -9999 -9999 -9999 -9999 -9999 -9999 -9999 -9999 -9999 -9999 -9999 -9999 -9999 -9999 -9999 -9999 -9999 -9999 -9999 -9999 -9999 -9999 -9999 -9999 -9999 -9999 -9999 -9999 -9999 -9999 -9999 -9999 -9999 -9999 -9999 -9999 -9999 -9999 -9999 -9999 -9999 -9999 -9999 -9999 -9999 -9999 -9999 -9999 -9999 -9999 -9999 -9999 -9999 -9999 -9999 -9999 -9999 -9999 -9999 -9999
-9999 -9999 -9999 -9999 -9999 -9999 -9999 -9999 -9999 -9999 -9999 -9999 -9999 -9999 -9999 -9999 -9999 -9999 -9999 -9999 -9999 4165 3845 3779 3833 3921 3670 3666 3729 3877 3790 -9999 -9999 4133 4090 3903 3647 3528 3517 3351 3167 3169 3382 3601 3779 3850 3940 3726 3972 3757 3663 3810 3657 3613 3422 3399 3531 3275 3127 2998 2873 2859 2845 2833 2906 2938 3038 3095 3106 3048 3071 3052 3026 2957 2941 2988 3114 3131 3056 2824 2638 2516 2815 3028 3215 3655 3630 3227 2973 2861 2634 2496 2439 2473 2593 2790 2826 2860 3029 3265 3174 3060 2875 2774 3176 3241 3195 3079 3114 3316 3335 3374 3315 3157 3087 3234 3405 3563 3700 3703 3550 3403 3538 3678 4078 4105 3764 3727 3816 4164 -9999 -9999 -9999 -9999 -9999 -9999 -9999 -9999 -9999 -9999 -9999 -9999 -9999 -9999 -9999 -9999 -9999 -9999 -9999 -9999 -9999 -9999 -9999 -9999 -9999 -9999 -9999 -9999 -9999 -9999 -9999 -9999 -9999 -9999 -9999 -9999 -9999 -9999 -9999 -9999 -9999 -9999 -9999 -9999 -9999 -9999 -9999 -9999 -9999 -9999 -9999 -9999 -9999 -9999 -9999 -9999 -9999 -9999 -9999 -9999 -9999 -9999 -9999 -9999 -9999 -9999 -9999 -9999 -9999 -9999 -9999 -9999 -9999 -9999 -9999 -9999 -9999 -9999 -9999 -9999 -9999 -9999 -9999 -9999 -9999 -9999 -9999 -9999 -9999 -9999 -9999 -9999 -9999 -9999 -9999 -9999 -9999 -9999 -9999 -9999 -9999 -9999 -9999 -9999 -9999 -9999 -9999 -9999 -9999 -9999 -9999 -9999 -9999 -9999 -9999 -9999 -9999 -9999 -9999 -9999 -9999 -9999 -9999 -9999 -9999 -9999 -9999 -9999 -9999 -9999 -9999 -9999 -9999 -9999 -9999 -9999 -9999 -9999 -9999 -9999 -9999 -9999 -9999 -9999 -9999 -9999 -9999 -9999 -9999 -9999 -9999 -9999 -9999 -9999 -9999 -9999 -9999 -9999 -9999 -9999 -9999 -9999 -9999 -9999 -9999 -9999 -9999 -9999 -9999 -9999 -9999 -9999 -9999 -9999 -9999 -9999 -9999 -9999 -9999 -9999 -9999 -9999 -9999 -9999 -9999 -9999 -9999 -9999 -9999 -9999 -9999 -9999 -9999 -9999 -9999 -9999 -9999 -9999 -9999 -9999 -9999 -9999 -9999 -9999 -9999 -9999 -9999 -9999 -9999 -9999 -9999 -9999 -9999 -9999 -9999 -9999 -9999 -9999 -9999 -9999 -9999 -9999 -9999 -9999 -9999 -9999 -9999 -9999 -9999 -9999 -9999 -9999 -9999 -9999 -9999 -9999 -9999 -9999 -9999 -9999 -9999 -9999 -9999 -9999 -9999 -9999 -9999 -9999 -9999 -9999 -9999 -9999 -9999 -9999 -9999 -9999 -9999 -9999 -9999 -9999 -9999 -9999 -9999 -9999 -9999 -9999 -9999 -9999 -9999 -9999 -9999 -9999 -9999 -9999 -9999 -9999 -9999 -9999 -9999 -9999 -9999 -9999 -9999 -9999 -9999 -9999 -9999 -9999 -9999 -9999 -9999 -9999 -9999 -9999 -9999 -9999 -9999 -9999 -9999 -9999 -9999 -9999 -9999 -9999 -9999 -9999 -9999 -9999 -9999 -9999 -9999 -9999 -9999 -9999 -9999 -9999 -9999 -9999 -9999 -9999 -9999 -9999 -9999 -9999 -9999 -9999 -9999 -9999 -9999 -9999 -9999 -9999 -9999 -9999 -9999 -9999 -9999 -9999 -9999 -9999 -9999 -9999 -9999 -9999 -9999 -9999 -9999 -9999 -9999 -9999 -9999 -9999 -9999 -9999 -9999 -9999 -9999 -9999 -9999 -9999 -9999 -9999 -9999
-9999 -9999 -9999 -9999 -9999 -9999 -9999 -9999 -9999 -9999 -9999 -9999 -9999 -9999 -9999 -9999 -9999 -9999 -9999 -9999 -9999 -9999 3995 4110 4097 4160 3846 3792 3857 -9999 -9999 -9999 -9999 -9999 4069 3937 3658 3508 3374 3267 3263 3351 3602 3561 3660 3724 -9999 3822 -9999 3776 3716 3854 3702 3751 3558 3610 3586 3281 3279 3305 2979 3007 2880 2940 3111 2978 3140 3217 3259 3257 3458 3400 3388 3260 3097 3128 3209 3264 3069 2767 2614 2535 2821 3064 3160 3409 3408 3134 2903 2789 2613 2478 2435 2481 2675 2835 2846 2882 3036 3175 3185 3093 3042 2863 3109 3160 3142 3157 3223 3380 3476 3498 3604 3416 3158 3326 3513 3643 3765 3807 3664 3468 3485 3710 4241 4108 3841 3782 3829 4128 -9999 -9999 -9999 -9999 -9999 -9999 -9999 -9999 -9999 -9999 -9999 -9999 -9999 -9999 -9999 -9999 -9999 -9999 -9999 -9999 -9999 -9999 -9999 -9999 -9999 -9999 -9999 -9999 -9999 -9999 -9999 -9999 -9999 -9999 -9999 -9999 -9999 -9999 -9999 -9999 -9999 -9999 -9999 -9999 -9999 -9999 -9999 -9999 -9999 -9999 -9999 -9999 -9999 -9999 -9999 -9999 -9999 -9999 -9999 -9999 -9999 -9999 -9999 -9999 -9999 -9999 -9999 -9999 -9999 -9999 -9999 -9999 -9999 -9999 -9999 -9999 -9999 -9999 -9999 -9999 -9999 -9999 -9999 -9999 -9999 -9999 -9999 -9999 -9999 -9999 -9999 -9999 -9999 -9999 -9999 -9999 -9999 -9999 -9999 -9999 -9999 -9999 -9999 -9999 -9999 -9999 -9999 -9999 -9999 -9999 -9999 -9999 -9999 -9999 -9999 -9999 -9999 -9999 -9999 -9999 -9999 -9999 -9999 -9999 -9999 -9999 -9999 -9999 -9999 -9999 -9999 -9999 -9999 -9999 -9999 -9999 -9999 -9999 -9999 -9999 -9999 -9999 -9999 -9999 -9999 -9999 -9999 -9999 -9999 -9999 -9999 -9999 -9999 -9999 -9999 -9999 -9999 -9999 -9999 -9999 -9999 -9999 -9999 -9999 -9999 -9999 -9999 -9999 -9999 -9999 -9999 -9999 -9999 -9999 -9999 -9999 -9999 -9999 -9999 -9999 -9999 -9999 -9999 -9999 -9999 -9999 -9999 -9999 -9999 -9999 -9999 -9999 -9999 -9999 -9999 -9999 -9999 -9999 -9999 -9999 -9999 -9999 -9999 -9999 -9999 -9999 -9999 -9999 -9999 -9999 -9999 -9999 -9999 -9999 -9999 -9999 -9999 -9999 -9999 -9999 -9999 -9999 -9999 -9999 -9999 -9999 -9999 -9999 -9999 -9999 -9999 -9999 -9999 -9999 -9999 -9999 -9999 -9999 -9999 -9999 -9999 -9999 -9999 -9999 -9999 -9999 -9999 -9999 -9999 -9999 -9999 -9999 -9999 -9999 -9999 -9999 -9999 -9999 -9999 -9999 -9999 -9999 -9999 -9999 -9999 -9999 -9999 -9999 -9999 -9999 -9999 -9999 -9999 -9999 -9999 -9999 -9999 -9999 -9999 -9999 -9999 -9999 -9999 -9999 -9999 -9999 -9999 -9999 -9999 -9999 -9999 -9999 -9999 -9999 -9999 -9999 -9999 -9999 -9999 -9999 -9999 -9999 -9999 -9999 -9999 -9999 -9999 -9999 -9999 -9999 -9999 -9999 -9999 -9999 -9999 -9999 -9999 -9999 -9999 -9999 -9999 -9999 -9999 -9999 -9999 -9999 -9999 -9999 -9999 -9999 -9999 -9999 -9999 -9999 -9999 -9999 -9999 -9999 -9999 -9999 -9999 -9999 -9999 -9999 -9999 -9999 -9999 -9999 -9999 -9999 -9999 -9999 -9999 -9999 -9999 -9999 -9999 -9999 -9999 -9999 -9999 -9999 -9999
-9999 -9999 -9999 -9999 -9999 -9999 -9999 -9999 -9999 -9999 -9999 -9999 -9999 -9999 -9999 -9999 -9999 -9999 -9999 -9999 -9999 -9999 -9999 -9999 -9999 -9999 -9999 -9999 -9999 -9999 -9999 -9999 -9999 -9999 -9999 4008 3769 3721 3622 3564 3579 3764 3865 3743 3800 3788 -9999 -9999 -9999 -9999 -9999 -9999 3852 3888 3747 3791 3528 3336 3468 3394 3284 3177 2996 3115 3387 3252 3177 3272 3514 3568 3592 3461 3250 3215 3171 3164 3171 3083 3057 2839 2701 2598 2699 2836 2938 3109 3199 3093 3020 2936 2654 2498 2588 2534 2554 2595 2662 2734 2874 3039 3279 3355 3196 2998 2990 3185 3290 3480 3552 3618 3786 3792 3746 3378 3261 3354 3635 3951 4075 4128 4043 3716 3529 3787 4202 4089 3996 3980 3964 -9999 -9999 -9999 -9999 -9999 -9999 -9999 -9999 -9999 -9999 -9999 -9999 -9999 -9999 -9999 -9999 -9999 -9999 -9999 -9999 -9999 -9999 -9999 -9999 -9999 -9999 -9999 -9999 -9999 -9999 -9999 -9999 -9999 -9999 -9999 -9999 -9999 -9999 -9999 -9999 -9999 -9999 -9999 -9999 -9999 -9999 -9999 -9999 -9999 -9999 -9999 -9999 -9999 -9999 -9999 -9999 -9999 -9999 -9999 -9999 -9999 -9999 -9999 -9999 -9999 -9999 -9999 -9999 -9999 -9999 -9999 -9999 -9999 -9999 -9999 -9999 -9999 -9999 -9999 -9999 -9999 -9999 -9999 -9999 -9999 -9999 -9999 -9999 -9999 -9999 -9999 -9999 -9999 -9999 -9999 -9999 -9999 -9999 -9999 -9999 -9999 -9999 -9999 -9999 -9999 -9999 -9999 -9999 -9999 -9999 -9999 -9999 -9999 -9999 -9999 -9999 -9999 -9999 -9999 -9999 -9999 -9999 -9999 -9999 -9999 -9999 -9999 -9999 -9999 -9999 -9999 -9999 -9999 -9999 -9999 -9999 -9999 -9999 -9999 -9999 -9999 -9999 -9999 -9999 -9999 -9999 -9999 -9999 -9999 -9999 -9999 -9999 -9999 -9999 -9999 -9999 -9999 -9999 -9999 -9999 -9999 -9999 -9999 -9999 -9999 -9999 -9999 -9999 -9999 -9999 -9999 -9999 -9999 -9999 -9999 -9999 -9999 -9999 -9999 -9999 -9999 -9999 -9999 -9999 -9999 -9999 -9999 -9999 -9999 -9999 -9999 -9999 -9999 -9999 -9999 -9999 -9999 -9999 -9999 -9999 -9999 -9999 -9999 -9999 -9999 -9999 -9999 -9999 -9999 -9999 -9999 -9999 -9999 -9999 -9999 -9999 -9999 -9999 -9999 -9999 -9999 -9999 -9999 -9999 -9999 -9999 -9999 -9999 -9999 -9999 -9999 -9999 -9999 -9999 -9999 -9999 -9999 -9999 -9999 -9999 -9999 -9999 -9999 -9999 -9999 -9999 -9999 -9999 -9999 -9999 -9999 -9999 -9999 -9999 -9999 -9999 -9999 -9999 -9999 -9999 -9999 -9999 -9999 -9999 -9999 -9999 -9999 -9999 -9999 -9999 -9999 -9999 -9999 -9999 -9999 -9999 -9999 -9999 -9999 -9999 -9999 -9999 -9999 -9999 -9999 -9999 -9999 -9999 -9999 -9999 -9999 -9999 -9999 -9999 -9999 -9999 -9999 -9999 -9999 -9999 -9999 -9999 -9999 -9999 -9999 -9999 -9999 -9999 -9999 -9999 -9999 -9999 -9999 -9999 -9999 -9999 -9999 -9999 -9999 -9999 -9999 -9999 -9999 -9999 -9999 -9999 -9999 -9999 -9999 -9999 -9999 -9999 -9999 -9999 -9999 -9999 -9999 -9999 -9999 -9999 -9999 -9999 -9999 -9999 -9999 -9999 -9999 -9999 -9999 -9999 -9999 -9999 -9999 -9999 -9999 -9999 -9999 -9999 -9999 -9999 -9999 -9999 -9999 -9999
-9999 -9999 -9999 -9999 -9999 -9999 -9999 -9999 -9999 -9999 -9999 -9999 -9999 -9999 -9999 -9999 -9999 -9999 -9999 -9999 -9999 -9999 -9999 -9999 -9999 -9999 -9999 -9999 -9999 -9999 -9999 -9999 -9999 -9999 -9999 -9999 -9999 -9999 -9999 3840 3842 -9999 -9999 -9999 -9999 -9999 -9999 -9999 -9999 -9999 -9999 -9999 -9999 -9999 -9999 3826 3551 3570 3717 3490 3427 3178 3073 3152 3402 3431 3485 3502 3617 3620 3372 3312 3265 3169 3056 2943 2895 2814 2776 2682 2633 2881 2967 2916 2981 3156 3172 3033 2841 2713 2572 2731 2718 2712 2810 2853 2883 2867 2799 3030 3466 3667 3323 3035 3009 3250 3304 3483 3713 3718 3852 4014 3718 3432 3310 3515 3734 3849 4119 4076 3933 3816 3588 3719 4259 4269 4201 4162 4203 -9999 -9999 -9999 -9999 -9999 -9999 -9999 -9999 -9999 -9999 -9999 -9999 -9999 -9999 -9999 -9999 -9999 -9999 -9999 -9999 -9999 -9999 -9999 -9999 -9999 -9999 -9999 -9999 -9999 -9999 -9999 -9999 -9999 -9999 -9999 -9999 -9999 -9999 -9999 -9999 -9999 -9999 -9999 -9999 -9999 -9999 -9999 -9999 -9999 -9999 -9999 -9999 -9999 -9999 -9999 -9999 -9999 -9999 -9999 -9999 -9999 -9999 -9999 -9999 -9999 -9999 -9999 -9999 -9999 -9999 -9999 -9999 -9999 -9999 -9999 -9999 -9999 -9999 -9999 -9999 -9999 -9999 -9999 -9999 -9999 -9999 -9999 -9999 -9999 -9999 -9999 -9999 -9999 -9999 -9999 -9999 -9999 -9999 -9999 -9999 -9999 -9999 -9999 -9999 -9999 -9999 -9999 -9999 -9999 -9999 -9999 -9999 -9999 -9999 -9999 -9999 -9999 -9999 -9999 -9999 -9999 -9999 -9999 -9999 -9999 -9999 -9999 -9999 -9999 -9999 -9999 -9999 -9999 -9999 -9999 -9999 -9999 -9999 -9999 -9999 -9999 -9999 -9999 -9999 -9999 -9999 -9999 -9999 -9999 -9999 -9999 -9999 -9999 -9999 -9999 -9999 -9999 -9999 -9999 -9999 -9999 -9999 -9999 -9999 -9999 -9999 -9999 -9999 -9999 -9999 -9999 -9999 -9999 -9999 -9999 -9999 -9999 -9999 -9999 -9999 -9999 -9999 -9999 -9999 -9999 -9999 -9999 -9999 -9999 -9999 -9999 -9999 -9999 -9999 -9999 -9999 -9999 -9999 -9999 -9999 -9999 -9999 -9999 -9999 -9999 -9999 -9999 -9999 -9999 -9999 -9999 -9999 -9999 -9999 -9999 -9999 -9999 -9999 -9999 -9999 -9999 -9999 -9999 -9999 -9999 -9999 -9999 -9999 -9999 -9999 -9999 -9999 -9999 -9999 -9999 -9999 -9999 -9999 -9999 -9999 -9999 -9999 -9999 -9999 -9999 -9999 -9999 -9999 -9999 -9999 -9999 -9999 -9999 -9999 -9999 -9999 -9999 -9999 -9999 -9999 -9999 -9999 -9999 -9999 -9999 -9999 -9999 -9999 -9999 -9999 -9999 -9999 -9999 -9999 -9999 -9999 -9999 -9999 -9999 -9999 -9999 -9999 -9999 -9999 -9999 -9999 -9999 -9999 -9999 -9999 -9999 -9999 -9999 -9999 -9999 -9999 -9999 -9999 -9999 -9999 -9999 -9999 -9999 -9999 -9999 -9999 -9999 -9999 -9999 -9999 -9999 -9999 -9999 -9999 -9999 -9999 -9999 -9999 -9999 -9999 -9999 -9999 -9999 -9999 -9999 -9999 -9999 -9999 -9999 -9999 -9999 -9999 -9999 -9999 -9999 -9999 -9999 -9999 -9999 -9999 -9999 -9999 -9999 -9999 -9999 -9999 -9999 -9999 -9999 -9999 -9999 -9999 -9999 -9999 -9999 -9999 -9999 -9999 -9999 -9999 -9999 -9999 -9999 -9999
-9999 -9999 -9999 -9999 -9999 -9999 -9999 -9999 -9999 -9999 -9999 -9999 -9999 -9999 -9999 -9999 -9999 -9999 -9999 -9999 -9999 -9999 -9999 -9999 -9999 -9999 -9999 -9999 -9999 -9999 -9999 -9999 -9999 -9999 -9999 -9999 -9999 -9999 -9999 -9999 -9999 -9999 -9999 -9999 -9999 -9999 -9999 -9999 -9999 -9999 -9999 -9999 -9999 -9999 -9999 3863 3715 3724 3704 3604 3642 3285 3130 3199 3453 3605 3665 3798 3902 3621 3429 3348 3278 3226 3178 3102 3047 2951 2792 2753 2761 2924 3145 3199 3213 3390 3297 3111 2852 2696 2836 3059 3082 3034 3138 3248 3359 3401 3188 2986 3266 3438 3346 3117 3025 3250 3449 3749 3972 3907 3888 4187 3933 3563 3424 3448 3851 4079 4126 4129 4158 3830 3696 3724 4058 4308 4416 4431 4271 4294 -9999 -9999 -9999 -9999 -9999 -9999 -9999 -9999 -9999 -9999 -9999 -9999 -9999 -9999 -9999 -9999 -9999 -9999 -9999 -9999 -9999 -9999 -9999 -9999 -9999 -9999 -9999 -9999 -9999 -9999 -9999 -9999 -9999 -9999 -9999 -9999 -9999 -9999 -9999 -9999 -9999 -9999 -9999 -9999 -9999 -9999 -9999 -9999 -9999 -9999 -9999 -9999 -9999 -9999 -9999 -9999 -9999 -9999 -9999 -9999 -9999 -9999 -9999 -9999 -9999 -9999 -9999 -9999 -9999 -9999 -9999 -9999 -9999 -9999 -9999 -9999 -9999 -9999 -9999 -9999 -9999 -9999 -9999 -9999 -9999 -9999 -9999 -9999 -9999 -9999 -9999 -9999 -9999 -9999 -9999 -9999 -9999 -9999 -9999 -9999 -9999 -9999 -9999 -9999 -9999 -9999 -9999 -9999 -9999 -9999 -9999 -9999 -9999 -9999 -9999 -9999 -9999 -9999 -9999 -9999 -9999 -9999 -9999 -9999 -9999 -9999 -9999 -9999 -9999 -9999 -9999 -9999 -9999 -9999 -9999 -9999 -9999 -9999 -9999 -9999 -9999 -9999 -9999 -9999 -9999 -9999 -9999 -9999 -9999 -9999 -9999 -9999 -9999 -9999 -9999 -9999 -9999 -9999 -9999 -9999 -9999 -9999 -9999 -9999 -9999 -9999 -9999 -9999 -9999 -9999 -9999 -9999 -9999 -9999 -9999 -9999 -9999 -9999 -9999 -9999 -9999 -9999 -9999 -9999 -9999 -9999 -9999 -9999 -9999 -9999 -9999 -9999 -9999 -9999 -9999 -9999 -9999 -9999 -9999 -9999 -9999 -9999 -9999 -9999 -9999 -9999 -9999 -9999 -9999 -9999 -9999 -9999 -9999 -9999 -9999 -9999 -9999 -9999 -9999 -9999 -9999 -9999 -9999 -9999 -9999 -9999 -9999 -9999 -9999 -9999 -9999 -9999 -9999 -9999 -9999 -9999 -9999 -9999 -9999 -9999 -9999 -9999 -9999 -9999 -9999 -9999 -9999 -9999 -9999 -9999 -9999 -9999 -9999 -9999 -9999 -9999 -9999 -9999 -9999 -9999 -9999 -9999 -9999 -9999 -9999 -9999 -9999 -9999 -9999 -9999 -9999 -9999 -9999 -9999 -9999 -9999 -9999 -9999 -9999 -9999 -9999 -9999 -9999 -9999 -9999 -9999 -9999 -9999 -9999 -9999 -9999 -9999 -9999 -9999 -9999 -9999 -9999 -9999 -9999 -9999 -9999 -9999 -9999 -9999 -9999 -9999 -9999 -9999 -9999 -9999 -9999 -9999 -9999 -9999 -9999 -9999 -9999 -9999 -9999 -9999 -9999 -9999 -9999 -9999 -9999 -9999 -9999 -9999 -9999 -9999 -9999 -9999 -9999 -9999 -9999 -9999 -9999 -9999 -9999 -9999 -9999 -9999 -9999 -9999 -9999 -9999 -9999 -9999 -9999 -9999 -9999 -9999 -9999 -9999 -9999 -9999 -9999 -9999 -9999 -9999 -9999 -9999 -9999
-9999 -9999 -9999 -9999 -9999 -9999 -9999 -9999 -9999 -9999 -9999 -9999 -9999 -9999 -9999 -9999 -9999 -9999 -9999 -9999 -9999 -9999 -9999 -9999 -9999 -9999 -9999 -9999 -9999 -9999 -9999 -9999 -9999 -9999 -9999 -9999 -9999 -9999 -9999 -9999 -9999 -9999 -9999 -9999 -9999 -9999 -9999 -9999 -9999 -9999 -9999 -9999 -9999 -9999 -9999 3944 3816 3806 3785 3671 3612 3301 3167 3250 3529 3725 3713 3878 3884 3577 3387 3343 3375 3335 3210 3128 3061 2955 2854 2854 2849 2935 3355 3555 3589 3675 3439 3163 2915 2753 2882 3191 3331 3241 3371 3590 3656 3602 3257 3069 3327 3537 3483 3178 3056 3207 3372 3568 3876 4002 3964 4062 3784 3631 3480 3427 3854 4145 4221 4245 4071 3884 3746 3754 3976 4196 -9999 4433 4344 4320 -9999 -9999 -9999 -9999 -9999 -9999 -9999 -9999 -9999 -9999 -9999 -9999 -9999 -9999 -9999 -9999 -9999 -9999 -9999 -9999 -9999 -9999 -9999 -9999 -9999 -9999 -9999 -9999 -9999 -9999 -9999 -9999 -9999 -9999 -9999 -9999 -9999 -9999 -9999 -9999 -9999 -9999 -9999 -9999 -9999 -9999 -9999 -9999 -9999 -9999 -9999 -9999 -9999 -9999 -9999 -9999 -9999 -9999 -9999 -9999 -9999 -9999 -9999 -9999 -9999 -9999 -9999 -9999 -9999 -9999 -9999 -9999 -9999 -9999 -9999 -9999 -9999 -9999 -9999 -9999 -9999 -9999 -9999 -9999 -9999 -9999 -9999 -9999 -9999 -9999 -9999 -9999 -9999 -9999 -9999 -9999 -9999 -9999 -9999 -9999 -9999 -9999 -9999 -9999 -9999 -9999 -9999 -9999 -9999 -9999 -9999 -9999 -9999 -9999 -9999 -9999 -9999 -9999 -9999 -9999 -9999 -9999 -9999 -9999 -9999 -9999 -9999 -9999 -9999 -9999 -9999 -9999 -9999 -9999 -9999 -9999 -9999 -9999 -9999 -9999 -9999 -9999 -9999 -9999 -9999 -9999 -9999 -9999 -9999 -9999 -9999 -9999 -9999 -9999 -9999 -9999 -9999 -9999 -9999 -9999 -9999 -9999 -9999 -9999 -9999 -9999 -9999 -9999 -9999 -9999 -9999 -9999 -9999 -9999 -9999 -9999 -9999 -9999 -9999 -9999 -9999 -9999 -9999 -9999 -9999 -9999 -9999 -9999 -9999 -9999 -9999 -9999 -9999 -9999 -9999 -9999 -9999 -9999 -9999 -9999 -9999 -9999 -9999 -9999 -9999 -9999 -9999 -9999 -9999 -9999 -9999 -9999 -9999 -9999 -9999 -9999 -9999 -9999 -9999 -9999 -9999 -9999 -9999 -9999 -9999 -9999 -9999 -9999 -9999 -9999 -9999 -9999 -9999 -9999 -9999 -9999 -9999 -9999 -9999 -9999 -9999 -9999 -9999 -9999 -9999 -9999 -9999 -9999 -9999 -9999 -9999 -9999 -9999 -9999 -9999 -9999 -9999 -9999 -9999 -9999 -9999 -9999 -9999 -9999 -9999 -9999 -9999 -9999 -9999 -9999 -9999 -9999 -9999 -9999 -9999 -9999 -9999 -9999 -9999 -9999 -9999 -9999 -9999 -9999 -9999 -9999 -9999 -9999 -9999 -9999 -9999 -9999 -9999 -9999 -9999 -9999 -9999 -9999 -9999 -9999 -9999 -9999 -9999 -9999 -9999 -9999 -9999 -9999 -9999 -9999 -9999 -9999 -9999 -9999 -9999 -9999 -9999 -9999 -9999 -9999 -9999 -9999 -9999 -9999 -9999 -9999 -9999 -9999 -9999 -9999 -9999 -9999 -9999 -9999 -9999 -9999 -9999 -9999 -9999 -9999 -9999 -9999 -9999 -9999 -9999 -9999 -9999 -9999 -9999 -9999 -9999 -9999 -9999 -9999 -9999 -9999 -9999 -9999 -9999 -9999 -9999 -9999 -9999
-9999 -9999 -9999 -9999 -9999 -9999 -9999 -9999 -9999 -9999 -9999 -9999 -9999 -9999 -9999 -9999 -9999 -9999 -9999 -9999 -9999 -9999 -9999 -9999 -9999 -9999 -9999 -9999 -9999 -9999 -9999 -9999 -9999 -9999 -9999 -9999 -9999 -9999 -9999 -9999 -9999 -9999 -9999 -9999 -9999 -9999 -9999 -9999 -9999 -9999 -9999 -9999 -9999 -9999 -9999 -9999 -9999 3994 3855 3613 3457 3268 3289 3433 3665 3911 3848 3833 3709 3552 3571 3719 3611 3570 3273 3082 2998 2931 2987 2970 3117 3052 3191 3454 3552 3835 3784 3394 3043 2908 2912 3224 3523 3644 3672 3907 3797 3656 3287 3192 3472 3623 3597 3352 3124 3179 3254 3336 3678 3884 3959 4106 4025 3705 3574 3453 3786 4188 4446 4274 4084 4130 3844 3856 4198 4271 -9999 -9999 -9999 -9999 -9999 -9999 -9999 -9999 -9999 -9999 -9999 -9999 -9999 -9999 -9999 -9999 -9999 -9999 -9999 -9999 -9999 -9999 -9999 -9999 -9999 -9999 -9999 -9999 -9999 -9999 -9999 -9999 -9999 -9999 -9999 -9999 -9999 -9999 -9999 -9999 -9999 -9999 -9999 -9999 -9999 -9999 -9999 -9999 -9999 -9999 -9999 -9999 -9999 -9999 -9999 -9999 -9999 -9999 -9999 -9999 -9999 -9999 -9999 -9999 -9999 -9999 -9999 -9999 -9999 -9999 -9999 -9999 -9999 -9999 -9999 -9999 -9999 -9999 -9999 -9999 -9999 -9999 -9999 -9999 -9999 -9999 -9999 -9999 -9999 -9999 -9999 -9999 -9999 -9999 -9999 -9999 -9999 -9999 -9999 -9999 -9999 -9999 -9999 -9999 -9999 -9999 -9999 -9999 -9999 -9999 -9999 -9999 -9999 -9999 -9999 -9999 -9999 -9999 -9999 -9999 -9999 -9999 -9999 -9999 -9999 -9999 -9999 -9999 -9999 -9999 -9999 -9999 -9999 -9999 -9999 -9999 -9999 -9999 -9999 -9999 -9999 -9999 -9999 -9999 -9999 -9999 -9999 -9999 -9999 -9999 -9999 -9999 -9999 -9999 -9999 -9999 -9999 -9999 -9999 -9999 -9999 -9999 -9999 -9999 -9999 -9999 -9999 -9999 -9999 -9999 -9999 -9999 -9999 -9999 -9999 -9999 -9999 -9999 -9999 -9999 -9999 -9999 -9999 -9999 -9999 -9999 -9999 -9999 -9999 -9999 -9999 -9999 -9999 -9999 -9999 -9999 -9999 -9999 -9999 -9999 -9999 -9999 -9999 -9999 -9999 -9999 -9999 -9999 -9999 -9999 -9999 -9999 -9999 -9999 -9999 -9999 -9999 -9999 -9999 -9999 -9999 -9999 -9999 -9999 -9999 -9999 -9999 -9999 -9999 -9999 -9999 -9999 -9999 -9999 -9999 -9999 -9999 -9999 -9999 -9999 -9999 -9999 -9999 -9999 -9999 -9999 -9999 -9999 -9999 -9999 -9999 -9999 -9999 -9999 -9999 -9999 -9999 -9999 -9999 -9999 -9999 -9999 -9999 -9999 -9999 -9999 -9999 -9999 -9999 -9999 -9999 -9999 -9999 -9999 -9999 -9999 -9999 -9999 -9999 -9999 -9999 -9999 -9999 -9999 -9999 -9999 -9999 -9999 -9999 -9999 -9999 -9999 -9999 -9999 -9999 -9999 -9999 -9999 -9999 -9999 -9999 -9999 -9999 -9999 -9999 -9999 -9999 -9999 -9999 -9999 -9999 -9999 -9999 -9999 -9999 -9999 -9999 -9999 -9999 -9999 -9999 -9999 -9999 -9999 -9999 -9999 -9999 -9999 -9999 -9999 -9999 -9999 -9999 -9999 -9999 -9999 -9999 -9999 -9999 -9999 -9999 -9999 -9999 -9999 -9999 -9999 -9999 -9999 -9999 -9999 -9999 -9999 -9999 -9999 -9999 -9999 -9999 -9999 -9999 -9999 -9999 -9999 -9999 -9999 -9999 -9999 -9999
-9999 -9999 -9999 -9999 -9999 -9999 -9999 -9999 -9999 -9999 -9999 -9999 -9999 -9999 -9999 -9999 -9999 -9999 -9999 -9999 -9999 -9999 -9999 -9999 -9999 -9999 -9999 -9999 -9999 -9999 -9999 -9999 -9999 -9999 -9999 -9999 -9999 -9999 -9999 -9999 -9999 -9999 -9999 -9999 -9999 -9999 -9999 -9999 -9999 -9999 -9999 -9999 -9999 -9999 -9999 -9999 -9999 -9999 3875 3701 3622 3308 3478 3744 3900 3855 3972 3843 3799 3730 3980 3952 3785 3477 3112 2995 2996 3069 3154 2972 3073 3160 3221 3494 3647 3969 3876 3518 3199 3043 2931 3169 3442 3617 3955 3921 3812 3700 3292 3271 3589 3775 3732 3449 3218 3528 3644 3411 3381 3509 3614 3981 4271 4056 3845 3529 3695 3998 4258 4297 4284 4348 4158 4138 4248 -9999 -9999 -9999 -9999 -9999 -9999 -9999 -9999 -9999 -9999 -9999 -9999 -9999 -9999 -9999 -9999 -9999 -9999 -9999 -9999 -9999 -9999 -9999 -9999 -9999 -9999 -9999 -9999 -9999 -9999 -9999 -9999 -9999 -9999 -9999 -9999 -9999 -9999 -9999 -9999 -9999 -9999 -9999 -9999 -9999 -9999 -9999 -9999 -9999 -9999 -9999 -9999 -9999 -9999 -9999 -9999 -9999 -9999 -9999 -9999 -9999 -9999 -9999 -9999 -9999 -9999 -9999 -9999 -9999 -9999 -9999 -9999 -9999 -9999 -9999 -9999 -9999 -9999 -9999 -9999 -9999 -9999 -9999 -9999 -9999 -9999 -9999 -9999 -9999 -9999 -9999 -9999 -9999 -9999 -9999 -9999 -9999 -9999 -9999 -9999 -9999 -9999 -9999 -9999 -9999 -9999 -9999 -9999 -9999 -9999 -9999 -9999 -9999 -9999 -9999 -9999 -9999 -9999 -9999 -9999 -9999 -9999 -9999 -9999 -9999 -9999 -9999 -9999 -9999 -9999 -9999 -9999 -9999 -9999 -9999 -9999 -9999 -9999 -9999 -9999 -9999 -9999 -9999 -9999 -9999 -9999 -9999 -9999 -9999 -9999 -9999 -9999 -9999 -9999 -9999 -9999 -9999 -9999 -9999 -9999 -9999 -9999 -9999 -9999 -9999 -9999 -9999 -9999 -9999 -9999 -9999 -9999 -9999 -9999 -9999 -9999 -9999 -9999 -9999 -9999 -9999 -9999 -9999 -9999 -9999 -9999 -9999 -9999 -9999 -9999 -9999 -9999 -9999 -9999 -9999 -9999 -9999 -9999 -9999 -9999 -9999 -9999 -9999 -9999 -9999 -9999 -9999 -9999 -9999 -9999 -9999 -9999 -9999 -9999 -9999 -9999 -9999 -9999 -9999 -9999 -9999 -9999 -9999 -9999 -9999 -9999 -9999 -9999 -9999 -9999 -9999 -9999 -9999 -9999 -9999 -9999 -9999 -9999 -9999 -9999 -9999 -9999 -9999 -9999 -9999 -9999 -9999 -9999 -9999 -9999 -9999 -9999 -9999 -9999 -9999 -9999 -9999 -9999 -9999 -9999 -9999 -9999 -9999 -9999 -9999 -9999 -9999 -9999 -9999 -9999 -9999 -9999 -9999 -9999 -9999 -9999 -9999 -9999 -9999 -9999 -9999 -9999 -9999 -9999 -9999 -9999 -9999 -9999 -9999 -9999 -9999 -9999 -9999 -9999 -9999 -9999 -9999 -9999 -9999 -9999 -9999 -9999 -9999 -9999 -9999 -9999 -9999 -9999 -9999 -9999 -9999 -9999 -9999 -9999 -9999 -9999 -9999 -9999 -9999 -9999 -9999 -9999 -9999 -9999 -9999 -9999 -9999 -9999 -9999 -9999 -9999 -9999 -9999 -9999 -9999 -9999 -9999 -9999 -9999 -9999 -9999 -9999 -9999 -9999 -9999 -9999 -9999 -9999 -9999 -9999 -9999 -9999 -9999 -9999 -9999 -9999 -9999 -9999 -9999 -9999 -9999 -9999 -9999 -9999 -9999 -9999 -9999 -9999
-9999 -9999 -9999 -9999 -9999 -9999 -9999 -9999 -9999 -9999 -9999 -9999 -9999 -9999 -9999 -9999 -9999 -9999 -9999 -9999 -9999 -9999 -9999 -9999 -9999 -9999 -9999 -9999 -9999 -9999 -9999 -9999 -9999 -9999 -9999 -9999 -9999 -9999 -9999 -9999 -9999 -9999 -9999 -9999 -9999 -9999 -9999 -9999 -9999 -9999 -9999 -9999 -9999 -9999 -9999 -9999 -9999 -9999 3906 3908 3655 3395 3506 3598 3927 4262 4036 3905 3970 4160 3930 3734 3452 3164 3032 3146 3230 3413 3172 2991 3049 3245 3225 3600 3734 4065 4185 3735 3385 3215 2969 3167 3465 3614 3770 4072 3792 3649 3316 3356 3696 3835 3808 3412 3323 3632 3822 3704 3721 3613 3515 3686 4015 3937 3892 3665 3651 4009 4418 4552 4370 4258 4231 4222 -9999 -9999 -9999 -9999 -9999 -9999 -9999 -9999 -9999 -9999 -9999 -9999 -9999 -9999 -9999 -9999 -9999 -9999 -9999 -9999 -9999 -9999 -9999 -9999 -9999 -9999 -9999 -9999 -9999 -9999 -9999 -9999 -9999 -9999 -9999 -9999 -9999 -9999 -9999 -9999 -9999 -9999 -9999 -9999 -9999 -9999 -9999 -9999 -9999 -9999 -9999 -9999 -9999 -9999 -9999 -9999 -9999 -9999 -9999 -9999 -9999 -9999 -9999 -9999 -9999 -9999 -9999 -9999 -9999 -9999 -9999 -9999 -9999 -9999 -9999 -9999 -9999 -9999 -9999 -9999 -9999 -9999 -9999 -9999 -9999 -9999 -9999 -9999 -9999 -9999 -9999 -9999 -9999 -9999 -9999 -9999 -9999 -9999 -9999 -9999 -9999 -9999 -9999 -9999 -9999 -9999 -9999 -9999 -9999 -9999 -9999 -9999 -9999 -9999 -9999 -9999 -9999 -9999 -9999 -9999 -9999 -9999 -9999 -9999 -9999 -9999 -9999 -9999 -9999 -9999 -9999 -9999 -9999 -9999 -9999 -9999 -9999 -9999 -9999 -9999 -9999 -9999 -9999 -9999 -9999 -9999 -9999 -9999 -9999 -9999 -9999 -9999 -9999 -9999 -9999 -9999 -9999 -9999 -9999 -9999 -9999 -9999 -9999 -9999 -9999 -9999 -9999 -9999 -9999 -9999 -9999 -9999 -9999 -9999 -9999 -9999 -9999 -9999 -9999 -9999 -9999 -9999 -9999 -9999 -9999 -9999 -9999 -9999 -9999 -9999 -9999 -9999 -9999 -9999 -9999 -9999 -9999 -9999 -9999 -9999 -9999 -9999 -9999 -9999 -9999 -9999 -9999 -9999 -9999 -9999 -9999 -9999 -9999 -9999 -9999 -9999 -9999 -9999 -9999 -9999 -9999 -9999 -9999 -9999 -9999 -9999 -9999 -9999 -9999 -9999 -9999 -9999 -9999 -9999 -9999 -9999 -9999 -9999 -9999 -9999 -9999 -9999 -9999 -9999 -9999 -9999 -9999 -9999 -9999 -9999 -9999 -9999 -9999 -9999 -9999 -9999 -9999 -9999 -9999 -9999 -9999 -9999 -9999 -9999 -9999 -9999 -9999 -9999 -9999 -9999 -9999 -9999 -9999 -9999 -9999 -9999 -9999 -9999 -9999 -9999 -9999 -9999 -9999 -9999 -9999 -9999 -9999 -9999 -9999 -9999 -9999 -9999 -9999 -9999 -9999 -9999 -9999 -9999 -9999 -9999 -9999 -9999 -9999 -9999 -9999 -9999 -9999 -9999 -9999 -9999 -9999 -9999 -9999 -9999 -9999 -9999 -9999 -9999 -9999 -9999 -9999 -9999 -9999 -9999 -9999 -9999 -9999 -9999 -9999 -9999 -9999 -9999 -9999 -9999 -9999 -9999 -9999 -9999 -9999 -9999 -9999 -9999 -9999 -9999 -9999 -9999 -9999 -9999 -9999 -9999 -9999 -9999 -9999 -9999 -9999 -9999 -9999 -9999 -9999 -9999 -9999 -9999 -9999 -9999 -9999 -9999 -9999 -9999 -9999
-9999 -9999 -9999 -9999 -9999 -9999 -9999 -9999 -9999 -9999 -9999 -9999 -9999 -9999 -9999 -9999 -9999 -9999 -9999 -9999 -9999 -9999 -9999 -9999 -9999 -9999 -9999 -9999 -9999 -9999 -9999 -9999 -9999 -9999 -9999 -9999 -9999 -9999 -9999 -9999 -9999 -9999 -9999 -9999 -9999 -9999 -9999 -9999 -9999 -9999 -9999 -9999 -9999 -9999 -9999 -9999 -9999 -9999 -9999 3957 3616 3450 3697 3656 3851 4120 4062 4010 4000 4020 3788 3617 3322 3105 3090 3350 3449 3468 3162 3014 3081 3325 3225 3608 3752 4126 4228 3776 3456 3256 2975 3137 3487 3683 3766 4135 3809 3680 3333 3424 3700 3939 3793 3397 3380 3617 3743 3772 3917 3727 3571 3609 4001 3943 3911 3709 3644 3946 4185 4371 4419 4291 4244 4256 -9999 -9999 -9999 -9999 -9999 -9999 -9999 -9999 -9999 -9999 -9999 -9999 -9999 -9999 -9999 -9999 -9999 -9999 -9999 -9999 -9999 -9999 -9999 -9999 -9999 -9999 -9999 -9999 -9999 -9999 -9999 -9999 -9999 -9999 -9999 -9999 -9999 -9999 -9999 -9999 -9999 -9999 -9999 -9999 -9999 -9999 -9999 -9999 -9999 -9999 -9999 -9999 -9999 -9999 -9999 -9999 -9999 -9999 -9999 -9999 -9999 -9999 -9999 -9999 -9999 -9999 -9999 -9999 -9999 -9999 -9999 -9999 -9999 -9999 -9999 -9999 -9999 -9999 -9999 -9999 -9999 -9999 -9999 -9999 -9999 -9999 -9999 -9999 -9999 -9999 -9999 -9999 -9999 -9999 -9999 -9999 -9999 -9999 -9999 -9999 -9999 -9999 -9999 -9999 -9999 -9999 -9999 -9999 -9999 -9999 -9999 -9999 -9999 -9999 -9999 -9999 -9999 -9999 -9999 -9999 -9999 -9999 -9999 -9999 -9999 -9999 -9999 -9999 -9999 -9999 -9999 -9999 -9999 -9999 -9999 -9999 -9999 -9999 -9999 -9999 -9999 -9999 -9999 -9999 -9999 -9999 -9999 -9999 -9999 -9999 -9999 -9999 -9999 -9999 -9999 -9999 -9999 -9999 -9999 -9999 -9999 -9999 -9999 -9999 -9999 -9999 -9999 -9999 -9999 -9999 -9999 -9999 -9999 -9999 -9999 -9999 -9999 -9999 -9999 -9999 -9999 -9999 -9999 -9999 -9999 -9999 -9999 -9999 -9999 -9999 -9999 -9999 -9999 -9999 -9999 -9999 -9999 -9999 -9999 -9999 -9999 -9999 -9999 -9999 -9999 -9999 -9999 -9999 -9999 -9999 -9999 -9999 -9999 -9999 -9999 -9999 -9999 -9999 -9999 -9999 -9999 -9999 -9999 -9999 -9999 -9999 -9999 -9999 -9999 -9999 -9999 -9999 -9999 -9999 -9999 -9999 -9999 -9999 -9999 -9999 -9999 -9999 -9999 -9999 -9999 -9999 -9999 -9999 -9999 -9999 -9999 -9999 -9999 -9999 -9999 -9999 -9999 -9999 -9999 -9999 -9999 -9999 -9999 -9999 -9999 -9999 -9999 -9999 -9999 -9999 -9999 -9999 -9999 -9999 -9999 -9999 -9999 -9999 -9999 -9999 -9999 -9999 -9999 -9999 -9999 -9999 -9999 -9999 -9999 -9999 -9999 -9999 -9999 -9999 -9999 -9999 -9999 -9999 -9999 -9999 -9999 -9999 -9999 -9999 -9999 -9999 -9999 -9999 -9999 -9999 -9999 -9999 -9999 -9999 -9999 -9999 -9999 -9999 -9999 -9999 -9999 -9999 -9999 -9999 -9999 -9999 -9999 -9999 -9999 -9999 -9999 -9999 -9999 -9999 -9999 -9999 -9999 -9999 -9999 -9999 -9999 -9999 -9999 -9999 -9999 -9999 -9999 -9999 -9999 -9999 -9999 -9999 -9999 -9999 -9999 -9999 -9999 -9999 -9999 -9999 -9999 -9999 -9999 -9999 -9999 -9999 -9999 -9999 -9999
-9999 -9999 -9999 -9999 -9999 -9999 -9999 -9999 -9999 -9999 -9999 -9999 -9999 -9999 -9999 -9999 -9999 -9999 -9999 -9999 -9999 -9999 -9999 -9999 -9999 -9999 -9999 -9999 -9999 -9999 -9999 -9999 -9999 -9999 -9999 -9999 -9999 -9999 -9999 -9999 -9999 -9999 -9999 -9999 -9999 -9999 -9999 -9999 -9999 -9999 -9999 -9999 -9999 -9999 -9999 -9999 -9999 -9999 3944 3867 3615 3623 3911 4003 4004 4081 4238 4185 3842 3658 3521 3451 3247 3119 3470 3606 3794 3607 3195 3083 3222 3584 3346 3470 3599 3871 4110 3816 3481 3300 3035 3099 3439 3587 3924 4063 3718 3572 3356 3518 3821 3958 3699 3469 3584 3891 3987 3922 3969 4000 3727 3626 3937 4170 4039 3801 3709 3832 4159 4384 4617 4607 -9999 -9999 -9999 -9999 -9999 -9999 -9999 -9999 -9999 -9999 -9999 -9999 -9999 -9999 -9999 -9999 -9999 -9999 -9999 -9999 -9999 -9999 -9999 -9999 -9999 -9999 -9999 -9999 -9999 -9999 -9999 -9999 -9999 -9999 -9999 -9999 -9999 -9999 -9999 -9999 -9999 -9999 -9999 -9999 -9999 -9999 -9999 -9999 -9999 -9999 -9999 -9999 -9999 -9999 -9999 -9999 -9999 -9999 -9999 -9999 -9999 -9999 -9999 -9999 -9999 -9999 -9999 -9999 -9999 -9999 -9999 -9999 -9999 -9999 -9999 -9999 -9999 -9999 -9999 -9999 -9999 -9999 -9999 -9999 -9999 -9999 -9999 -9999 -9999 -9999 -9999 -9999 -9999 -9999 -9999 -9999 -9999 -9999 -9999 -9999 -9999 -9999 -9999 -9999 -9999 -9999 -9999 -9999 -9999 -9999 -9999 -9999 -9999 -9999 -9999 -9999 -9999 -9999 -9999 -9999 -9999 -9999 -9999 -9999 -9999 -9999 -9999 -9999 -9999 -9999 -9999 -9999 -9999 -9999 -9999 -9999 -9999 -9999 -9999 -9999 -9999 -9999 -9999 -9999 -9999 -9999 -9999 -9999 -9999 -9999 -9999 -9999 -9999 -9999 -9999 -9999 -9999 -9999 -9999 -9999 -9999 -9999 -9999 -9999 -9999 -9999 -9999 -9999 -9999 -9999 -9999 -9999 -9999 -9999 -9999 -9999 -9999 -9999 -9999 -9999 -9999 -9999 -9999 -9999 -9999 -9999 -9999 -9999 -9999 -9999 -9999 -9999 -9999 -9999 -9999 -9999 -9999 -9999 -9999 -9999 -9999 -9999 -9999 -9999 -9999 -9999 -9999 -9999 -9999 -9999 -9999 -9999 -9999 -9999 -9999 -9999 -9999 -9999 -9999 -9999 -9999 -9999 -9999 -9999 -9999 -9999 -9999 -9999 -9999 -9999 -9999 -9999 -9999 -9999 -9999 -9999 -9999 -9999 -9999 -9999 -9999 -9999 -9999 -9999 -9999 -9999 -9999 -9999 -9999 -9999 -9999 -9999 -9999 -9999 -9999 -9999 -9999 -9999 -9999 -9999 -9999 -9999 -9999 -9999 -9999 -9999 -9999 -9999 -9999 -9999 -9999 -9999 -9999 -9999 -9999 -9999 -9999 -9999 -9999 -9999 -9999 -9999 -9999 -9999 -9999 -9999 -9999 -9999 -9999 -9999 -9999 -9999 -9999 -9999 -9999 -9999 -9999 -9999 -9999 -9999 -9999 -9999 -9999 -9999 -9999 -9999 -9999 -9999 -9999 -9999 -9999 -9999 -9999 -9999 -9999 -9999 -9999 -9999 -9999 -9999 -9999 -9999 -9999 -9999 -9999 -9999 -9999 -9999 -9999 -9999 -9999 -9999 -9999 -9999 -9999 -9999 -9999 -9999 -9999 -9999 -9999 -9999 -9999 -9999 -9999 -9999 -9999 -9999 -9999 -9999 -9999 -9999 -9999 -9999 -9999 -9999 -9999 -9999 -9999 -9999 -9999 -9999 -9999 -9999 -9999 -9999 -9999 -9999 -9999 -9999 -9999
-9999 -9999 -9999 -9999 -9999 -9999 -9999 -9999 -9999 -9999 -9999 -9999 -9999 -9999 -9999 -9999 -9999 -9999 -9999 -9999 -9999 -9999 -9999 -9999 -9999 -9999 -9999 -9999 -9999 -9999 -9999 -9999 -9999 -9999 -9999 -9999 -9999 -9999 -9999 -9999 -9999 -9999 -9999 -9999 -9999 -9999 -9999 -9999 -9999 -9999 -9999 -9999 -9999 -9999 -9999 -9999 -9999 4156 4056 3870 3748 3707 3901 3896 4082 4256 4151 3991 3757 3628 3520 3495 3334 3179 3562 3847 4092 3837 3487 3212 3312 3739 3696 3497 3638 3835 3965 3922 3525 3360 3116 3098 3456 3683 3923 4079 3748 3555 3359 3542 3876 3787 3810 3556 3588 3974 4043 4084 4139 3910 3801 3684 3773 4092 3956 3830 3818 3924 4044 4098 4201 4389 -9999 -9999 -9999 -9999 -9999 -9999 -9999 -9999 -9999 -9999 -9999 -9999 -9999 -9999 -9999 -9999 -9999 -9999 -9999 -9999 -9999 -9999 -9999 -9999 -9999 -9999 -9999 -9999 -9999 -9999 -9999 -9999 -9999 -9999 -9999 -9999 -9999 -9999 -9999 -9999 -9999 -9999 -9999 -9999 -9999 -9999 -9999 -9999 -9999 -9999 -9999 -9999 -9999 -9999 -9999 -9999 -9999 -9999 -9999 -9999 -9999 -9999 -9999 -9999 -9999 -9999 -9999 -9999 -9999 -9999 -9999 -9999 -9999 -9999 -9999 -9999 -9999 -9999 -9999 -9999 -9999 -9999 -9999 -9999 -9999 -9999 -9999 -9999 -9999 -9999 -9999 -9999 -9999 -9999 -9999 -9999 -9999 -9999 -9999 -9999 -9999 -9999 -9999 -9999 -9999 -9999 -9999 -9999 -9999 -9999 -9999 -9999 -9999 -9999 -9999 -9999 -9999 -9999 -9999 -9999 -9999 -9999 -9999 -9999 -9999 -9999 -9999 -9999 -9999 -9999 -9999 -9999 -9999 -9999 -9999 -9999 -9999 -9999 -9999 -9999 -9999 -9999 -9999 -9999 -9999 -9999 -9999 -9999 -9999 -9999 -9999 -9999 -9999 -9999 -9999 -9999 -9999 -9999 -9999 -9999 -9999 -9999 -9999 -9999 -9999 -9999 -9999 -9999 -9999 -9999 -9999 -9999 -9999 -9999 -9999 -9999 -9999 -9999 -9999 -9999 -9999 -9999 -9999 -9999 -9999 -9999 -9999 -9999 -9999 -9999 -9999 -9999 -9999 -9999 -9999 -9999 -9999 -9999 -9999 -9999 -9999 -9999 -9999 -9999 -9999 -9999 -9999 -9999 -9999 -9999 -9999 -9999 -9999 -9999 -9999 -9999 -9999 -9999 -9999 -9999 -9999 -9999 -9999 -9999 -9999 -9999 -9999 -9999 -9999 -9999 -9999 -9999 -9999 -9999 -9999 -9999 -9999 -9999 -9999 -9999 -9999 -9999 -9999 -9999 -9999 -9999 -9999 -9999 -9999 -9999 -9999 -9999 -9999 -9999 -9999 -9999 -9999 -9999 -9999 -9999 -9999 -9999 -9999 -9999 -9999 -9999 -9999 -9999 -9999 -9999 -9999 -9999 -9999 -9999 -9999 -9999 -9999 -9999 -9999 -9999 -9999 -9999 -9999 -9999 -9999 -9999 -9999 -9999 -9999 -9999 -9999 -9999 -9999 -9999 -9999 -9999 -9999 -9999 -9999 -9999 -9999 -9999 -9999 -9999 -9999 -9999 -9999 -9999 -9999 -9999 -9999 -9999 -9999 -9999 -9999 -9999 -9999 -9999 -9999 -9999 -9999 -9999 -9999 -9999 -9999 -9999 -9999 -9999 -9999 -9999 -9999 -9999 -9999 -9999 -9999 -9999 -9999 -9999 -9999 -9999 -9999 -9999 -9999 -9999 -9999 -9999 -9999 -9999 -9999 -9999 -9999 -9999 -9999 -9999 -9999 -9999 -9999 -9999 -9999 -9999 -9999 -9999 -9999 -9999 -9999 -9999 -9999 -9999 -9999 -9999 -9999
-9999 -9999 -9999 -9999 -9999 -9999 -9999 -9999 -9999 -9999 -9999 -9999 -9999 -9999 -9999 -9999 -9999 -9999 -9999 -9999 -9999 -9999 -9999 -9999 -9999 -9999 -9999 -9999 -9999 -9999 -9999 -9999 -9999 -9999 -9999 -9999 -9999 -9999 -9999 -9999 -9999 -9999 -9999 -9999 -9999 -9999 -9999 -9999 -9999 -9999 -9999 -9999 -9999 -9999 -9999 -9999 -9999 -9999 -9999 4021 4034 3924 3912 4106 4394 4131 3977 3899 3771 3808 3917 3765 3406 3253 3584 3967 3991 3749 3621 3473 3384 3465 3691 3543 3663 3814 4067 3869 3747 3628 3505 3409 3300 3427 3758 3971 3756 3608 3397 3558 3834 3956 3910 3779 3660 3800 3850 3972 3989 3922 3871 3798 3832 4055 4046 3970 3945 4101 4135 4159 4222 -9999 -9999 -9999 -9999 -9999 -9999 -9999 -9999 -9999 -9999 -9999 -9999 -9999 -9999 -9999 -9999 -9999 -9999 -9999 -9999 -9999 -9999 -9999 -9999 -9999 -9999 -9999 -9999 -9999 -9999 -9999 -9999 -9999 -9999 -9999 -9999 -9999 -9999 -9999 -9999 -9999 -9999 -9999 -9999 -9999 -9999 -9999 -9999 -9999 -9999 -9999 -9999 -9999 -9999 -9999 -9999 -9999 -9999 -9999 -9999 -9999 -9999 -9999 -9999 -9999 -9999 -9999 -9999 -9999 -9999 -9999 -9999 -9999 -9999 -9999 -9999 -9999 -9999 -9999 -9999 -9999 -9999 -9999 -9999 -9999 -9999 -9999 -9999 -9999 -9999 -9999 -9999 -9999 -9999 -9999 -9999 -9999 -9999 -9999 -9999 -9999 -9999 -9999 -9999 -9999 -9999 -9999 -9999 -9999 -9999 -9999 -9999 -9999 -9999 -9999 -9999 -9999 -9999 -9999 -9999 -9999 -9999 -9999 -9999 -9999 -9999 -9999 -9999 -9999 -9999 -9999 -9999 -9999 -9999 -9999 -9999 -9999 -9999 -9999 -9999 -9999 -9999 -9999 -9999 -9999 -9999 -9999 -9999 -9999 -9999 -9999 -9999 -9999 -9999 -9999 -9999 -9999 -9999 -9999 -9999 -9999 -9999 -9999 -9999 -9999 -9999 -9999 -9999 -9999 -9999 -9999 -9999 -9999 -9999 -9999 -9999 -9999 -9999 -9999 -9999 -9999 -9999 -9999 -9999 -9999 -9999 -9999 -9999 -9999 -9999 -9999 -9999 -9999 -9999 -9999 -9999 -9999 -9999 -9999 -9999 -9999 -9999 -9999 -9999 -9999 -9999 -9999 -9999 -9999 -9999 -9999 -9999 -9999 -9999 -9999 -9999 -9999 -9999 -9999 -9999 -9999 -9999 -9999 -9999 -9999 -9999 -9999 -9999 -9999 -9999 -9999 -9999 -9999 -9999 -9999 -9999 -9999 -9999 -9999 -9999 -9999 -9999 -9999 -9999 -9999 -9999 -9999 -9999 -9999 -9999 -9999 -9999 -9999 -9999 -9999 -9999 -9999 -9999 -9999 -9999 -9999 -9999 -9999 -9999 -9999 -9999 -9999 -9999 -9999 -9999 -9999 -9999 -9999 -9999 -9999 -9999 -9999 -9999 -9999 -9999 -9999 -9999 -9999 -9999 -9999 -9999 -9999 -9999 -9999 -9999 -9999 -9999 -9999 -9999 -9999 -9999 -9999 -9999 -9999 -9999 -9999 -9999 -9999 -9999 -9999 -9999 -9999 -9999 -9999 -9999 -9999 -9999 -9999 -9999 -9999 -9999 -9999 -9999 -9999 -9999 -9999 -9999 -9999 -9999 -9999 -9999 -9999 -9999 -9999 -9999 -9999 -9999 -9999 -9999 -9999 -9999 -9999 -9999 -9999 -9999 -9999 -9999 -9999 -9999 -9999 -9999 -9999 -9999 -9999 -9999 -9999 -9999 -9999 -9999 -9999 -9999 -9999 -9999 -9999 -9999 -9999 -9999 -9999 -9999 -9999 -9999 -9999 -9999 -9999 -9999 -9999 -9999
-9999 -9999 -9999 -9999 -9999 -9999 -9999 -9999 -9999 -9999 -9999 -9999 -9999 -9999 -9999 -9999 -9999 -9999 -9999 -9999 -9999 -9999 -9999 -9999 -9999 -9999 -9999 -9999 -9999 -9999 -9999 -9999 -9999 -9999 -9999 -9999 -9999 -9999 -9999 -9999 -9999 -9999 -9999 -9999 -9999 -9999 -9999 -9999 -9999 -9999 -9999 -9999 -9999 -9999 -9999 -9999 -9999 -9999 -9999 -9999 -9999 4045 3990 -9999 -9999 4200 4064 4027 4041 4071 3970 3839 3518 3305 3526 3957 3946 3896 3747 3574 3503 3443 3637 3765 3865 3830 -9999 3965 3889 3911 3730 3505 3363 3528 3747 4051 3920 3741 3541 3732 3932 3968 4075 3991 4052 4130 4043 4115 4029 4015 4041 4000 4035 4108 4192 4050 4077 -9999 -9999 -9999 -9999 -9999 -9999 -9999 -9999 -9999 -9999 -9999 -9999 -9999 -9999 -9999 -9999 -9999 -9999 -9999 -9999 -9999 -9999 -9999 -9999 -9999 -9999 -9999 -9999 -9999 -9999 -9999 -9999 -9999 -9999 -9999 -9999 -9999 -9999 -9999 -9999 -9999 -9999 -9999 -9999 -9999 -9999 -9999 -9999 -9999 -9999 -9999 -9999 -9999 -9999 -9999 -9999 -9999 -9999 -9999 -9999 -9999 -9999 -9999 -9999 -9999 -9999 -9999 -9999 -9999 -9999 -9999 -9999 -9999 -9999 -9999 -9999 -9999 -9999 -9999 -9999 -9999 -9999 -9999 -9999 -9999 -9999 -9999 -9999 -9999 -9999 -9999 -9999 -9999 -9999 -9999 -9999 -9999 -9999 -9999 -9999 -9999 -9999 -9999 -9999 -9999 -9999 -9999 -9999 -9999 -9999 -9999 -9999 -9999 -9999 -9999 -9999 -9999 -9999 -9999 -9999 -9999 -9999 -9999 -9999 -9999 -9999 -9999 -9999 -9999 -9999 -9999 -9999 -9999 -9999 -9999 -9999 -9999 -9999 -9999 -9999 -9999 -9999 -9999 -9999 -9999 -9999 -9999 -9999 -9999 -9999 -9999 -9999 -9999 -9999 -9999 -9999 -9999 -9999 -9999 -9999 -9999 -9999 -9999 -9999 -9999 -9999 -9999 -9999 -9999 -9999 -9999 -9999 -9999 -9999 -9999 -9999 -9999 -9999 -9999 -9999 -9999 -9999 -9999 -9999 -9999 -9999 -9999 -9999 -9999 -9999 -9999 -9999 -9999 -9999 -9999 -9999 -9999 -9999 -9999 -9999 -9999 -9999 -9999 -9999 -9999 -9999 -9999 -9999 -9999 -9999 -9999 -9999 -9999 -9999 -9999 -9999 -9999 -9999 -9999 -9999 -9999 -9999 -9999 -9999 -9999 -9999 -9999 -9999 -9999 -9999 -9999 -9999 -9999 -9999 -9999 -9999 -9999 -9999 -9999 -9999 -9999 -9999 -9999 -9999 -9999 -9999 -9999 -9999 -9999 -9999 -9999 -9999 -9999 -9999 -9999 -9999 -9999 -9999 -9999 -9999 -9999 -9999 -9999 -9999 -9999 -9999 -9999 -9999 -9999 -9999 -9999 -9999 -9999 -9999 -9999 -9999 -9999 -9999 -9999 -9999 -9999 -9999 -9999 -9999 -9999 -9999 -9999 -9999 -9999 -9999 -9999 -9999 -9999 -9999 -9999 -9999 -9999 -9999 -9999 -9999 -9999 -9999 -9999 -9999 -9999 -9999 -9999 -9999 -9999 -9999 -9999 -9999 -9999 -9999 -9999 -9999 -9999 -9999 -9999 -9999 -9999 -9999 -9999 -9999 -9999 -9999 -9999 -9999 -9999 -9999 -9999 -9999 -9999 -9999 -9999 -9999 -9999 -9999 -9999 -9999 -9999 -9999 -9999 -9999 -9999 -9999 -9999 -9999 -9999 -9999 -9999 -9999 -9999 -9999 -9999 -9999 -9999 -9999 -9999 -9999 -9999 -9999 -9999 -9999 -9999 -9999 -9999 -9999 -9999 -9999 -9999 -9999 -9999 -9999 -9999 -9999
-9999 -9999 -9999 -9999 -9999 -9999 -9999 -9999 -9999 -9999 -9999 -9999 -9999 -9999 -9999 -9999 -9999 -9999 -9999 -9999 -9999 -9999 -9999 -9999 -9999 -9999 -9999 -9999 -9999 -9999 -9999 -9999 -9999 -9999 -9999 -9999 -9999 -9999 -9999 -9999 -9999 -9999 -9999 -9999 -9999 -9999 -9999 -9999 -9999 -9999 -9999 -9999 -9999 -9999 -9999 -9999 -9999 -9999 -9999 -9999 -9999 -9999 -9999 -9999 -9999 4173 4090 4063 4059 4197 3936 3782 3541 3340 3501 3904 3992 3934 3775 3624 3609 3523 3655 3826 -9999 -9999 -9999 3988 3921 3868 3622 3519 3483 3599 3762 4135 4032 3860 3621 3737 3961 3999 -9999 -9999 -9999 -9999 -9999 -9999 4124 4109 -9999 -9999 -9999 -9999 -9999 -9999 -9999 -9999 -9999 -9999 -9999 -9999 -9999 -9999 -9999 -9999 -9999 -9999 -9999 -9999 -9999 -9999 -9999 -9999 -9999 -9999 -9999 -9999 -9999 -9999 -9999 -9999 -9999 -9999 -9999 -9999 -9999 -9999 -9999 -9999 -9999 -9999 -9999 -9999 -9999 -9999 -9999 -9999 -9999 -9999 -9999 -9999 -9999 -9999 -9999 -9999 -9999 -9999 -9999 -9999 -9999 -9999 -9999 -9999 -9999 -9999 -9999 -9999 -9999 -9999 -9999 -9999 -9999 -9999 -9999 -9999 -9999 -9999 -9999 -9999 -9999 -9999 -9999 -9999 -9999 -9999 -9999 -9999 -9999 -9999 -9999 -9999 -9999 -9999 -9999 -9999 -9999 -9999 -9999 -9999 -9999 -9999 -9999 -9999 -9999 -9999 -9999 -9999 -9999 -9999 -9999 -9999 -9999 -9999 -9999 -9999 -9999 -9999 -9999 -9999 -9999 -9999 -9999 -9999 -9999 -9999 -9999 -9999 -9999 -9999 -9999 -9999 -9999 -9999 -9999 -9999 -9999 -9999 -9999 -9999 -9999 -9999 -9999 -9999 -9999 -9999 -9999 -9999 -9999 -9999 -9999 -9999 -9999 -9999 -9999 -9999 -9999 -9999 -9999 -9999 -9999 -9999 -9999 -9999 -9999 -9999 -9999 -9999 -9999 -9999 -9999 -9999 -9999 -9999 -9999 -9999 -9999 -9999 -9999 -9999 -9999 -9999 -9999 -9999 -9999 -9999 -9999 -9999 -9999 -9999 -9999 -9999 -9999 -9999 -9999 -9999 -9999 -9999 -9999 -9999 -9999 -9999 -9999 -9999 -9999 -9999 -9999 -9999 -9999 -9999 -9999 -9999 -9999 -9999 -9999 -9999 -9999 -9999 -9999 -9999 -9999 -9999 -9999 -9999 -9999 -9999 -9999 -9999 -9999 -9999 -9999 -9999 -9999 -9999 -9999 -9999 -9999 -9999 -9999 -9999 -9999 -9999 -9999 -9999 -9999 -9999 -9999 -9999 -9999 -9999 -9999 -9999 -9999 -9999 -9999 -9999 -9999 -9999 -9999 -9999 -9999 -9999 -9999 -9999 -9999 -9999 -9999 -9999 -9999 -9999 -9999 -9999 -9999 -9999 -9999 -9999 -9999 -9999 -9999 -9999 -9999 -9999 -9999 -9999 -9999 -9999 -9999 -9999 -9999 -9999 -9999 -9999 -9999 -9999 -9999 -9999 -9999 -9999 -9999 -9999 -9999 -9999 -9999 -9999 -9999 -9999 -9999 -9999 -9999 -9999 -9999 -9999 -9999 -9999 -9999 -9999 -9999 -9999 -9999 -9999 -9999 -9999 -9999 -9999 -9999 -9999 -9999 -9999 -9999 -9999 -9999 -9999 -9999 -9999 -9999 -9999 -9999 -9999 -9999 -9999 -9999 -9999 -9999 -9999 -9999 -9999 -9999 -9999 -9999 -9999 -9999 -9999 -9999 -9999 -9999 -9999 -9999 -9999 -9999 -9999 -9999 -9999 -9999 -9999 -9999 -9999 -9999 -9999 -9999 -9999 -9999 -9999 -9999 -9999 -9999 -9999 -9999 -9999 -9999 -9999 -9999 -9999 -9999
-9999 -9999 -9999 -9999 -9999 -9999 -9999 -9999 -9999 -9999 -9999 -9999 -9999 -9999 -9999 -9999 -9999 -9999 -9999 -9999 -9999 -9999 -9999 -9999 -9999 -9999 -9999 -9999 -9999 -9999 -9999 -9999 -9999 -9999 -9999 -9999 -9999 -9999 -9999 -9999 -9999 -9999 -9999 -9999 -9999 -9999 -9999 -9999 -9999 -9999 -9999 -9999 -9999 -9999 -9999 -9999 -9999 -9999 -9999 -9999 -9999 -9999 -9999 -9999 -9999 -9999 -9999 4221 4336 4108 3804 3721 3736 3552 3486 3673 3825 4003 3792 3770 3772 3749 -9999 -9999 -9999 -9999 -9999 -9999 -9999 3764 3744 3827 3759 3689 3732 3943 4091 3949 3810 3865 -9999 -9999 -9999 -9999 -9999 -9999 -9999 -9999 -9999 -9999 -9999 -9999 -9999 -9999 -9999 -9999 -9999 -9999 -9999 -9999 -9999 -9999 -9999 -9999 -9999 -9999 -9999 -9999 -9999 -9999 -9999 -9999 -9999 -9999 -9999 -9999 -9999 -9999 -9999 -9999 -9999 -9999 -9999 -9999 -9999 -9999 -9999 -9999 -9999 -9999 -9999 -9999 -9999 -9999 -9999 -9999 -9999 -9999 -9999 -9999 -9999 -9999 -9999 -9999 -9999 -9999 -9999 -9999 -9999 -9999 -9999 -9999 -9999 -9999 -9999 -9999 -9999 -9999 -9999 -9999 -9999 -9999 -9999 -9999 -9999 -9999 -9999 -9999 -9999 -9999 -9999 -9999 -9999 -9999 -9999 -9999 -9999 -9999 -9999 -9999 -9999 -9999 -9999 -9999 -9999 -9999 -9999 -9999 -9999 -9999 -9999 -9999 -9999 -9999 -9999 -9999 -9999 -9999 -9999 -9999 -9999 -9999 -9999 -9999 -9999 -9999 -9999 -9999 -9999 -9999 -9999 -9999 -9999 -9999 -9999 -9999 -9999 -9999 -9999 -9999 -9999 -9999 -9999 -9999 -9999 -9999 -9999 -9999 -9999 -9999 -9999 -9999 -9999 -9999 -9999 -9999 -9999 -9999 -9999 -9999 -9999 -9999 -9999 -9999 -9999 -9999 -9999 -9999 -9999 -9999 -9999 -9999 -9999 -9999 -9999 -9999 -9999 -9999 -9999 -9999 -9999 -9999 -9999 -9999 -9999 -9999 -9999 -9999 -9999 -9999 -9999 -9999 -9999 -9999 -9999 -9999 -9999 -9999 -9999 -9999 -9999 -9999 -9999 -9999 -9999 -9999 -9999 -9999 -9999 -9999 -9999 -9999 -9999 -9999 -9999 -9999 -9999 -9999 -9999 -9999 -9999 -9999 -9999 -9999 -9999 -9999 -9999 -9999 -9999 -9999 -9999 -9999 -9999 -9999 -9999 -9999 -9999 -9999 -9999 -9999 -9999 -9999 -9999 -9999 -9999 -9999 -9999 -9999 -9999 -9999 -9999 -9999 -9999 -9999 -9999 -9999 -9999 -9999 -9999 -9999 -9999 -9999 -9999 -9999 -9999 -9999 -9999 -9999 -9999 -9999 -9999 -9999 -9999 -9999 -9999 -9999 -9999 -9999 -9999 -9999 -9999 -9999 -9999 -9999 -9999 -9999 -9999 -9999 -9999 -9999 -9999 -9999 -9999 -9999 -9999 -9999 -9999 -9999 -9999 -9999 -9999 -9999 -9999 -9999 -9999 -9999 -9999 -9999 -9999 -9999 -9999 -9999 -9999 -9999 -9999 -9999 -9999 -9999 -9999 -9999 -9999 -9999 -9999 -9999 -9999 -9999 -9999 -9999 -9999 -9999 -9999 -9999 -9999 -9999 -9999 -9999 -9999 -9999 -9999 -9999 -9999 -9999 -9999 -9999 -9999 -9999 -9999 -9999 -9999 -9999 -9999 -9999 -9999 -9999 -9999 -9999 -9999 -9999 -9999 -9999 -9999 -9999 -9999 -9999 -9999 -9999 -9999 -9999 -9999 -9999 -9999 -9999 -9999 -9999 -9999 -9999 -9999 -9999 -9999 -9999 -9999 -9999 -9999 -9999 -9999 -9999 -9999 -9999 -9999 -9999 -9999 -9999 -9999
-9999 -9999 -9999 -9999 -9999 -9999 -9999 -9999 -9999 -9999 -9999 -9999 -9999 -9999 -9999 -9999 -9999 -9999 -9999 -9999 -9999 -9999 -9999 -9999 -9999 -9999 -9999 -9999 -9999 -9999 -9999 -9999 -9999 -9999 -9999 -9999 -9999 -9999 -9999 -9999 -9999 -9999 -9999 -9999 -9999 -9999 -9999 -9999 -9999 -9999 -9999 -9999 -9999 -9999 -9999 -9999 -9999 -9999 -9999 -9999 -9999 -9999 -9999 -9999 -9999 -9999 -9999 -9999 -9999 3989 3926 3888 3755 3673 3741 3754 3772 3933 3877 3917 3921 -9999 -9999 -9999 -9999 -9999 -9999 -9999 -9999 -9999 -9999 -9999 3926 3870 3786 -9999 -9999 -9999 4055 -9999 -9999 -9999 -9999 -9999 -9999 -9999 -9999 -9999 -9999 -9999 -9999 -9999 -9999 -9999 -9999 -9999 -9999 -9999 -9999 -9999 -9999 -9999 -9999 -9999 -9999 -9999 -9999 -9999 -9999 -9999 -9999 -9999 -9999 -9999 -9999 -9999 -9999 -9999 -9999 -9999 -9999 -9999 -9999 -9999 -9999 -9999 -9999 -9999 -9999 -9999 -9999 -9999 -9999 -9999 -9999 -9999 -9999 -9999 -9999 -9999 -9999 -9999 -9999 -9999 -9999 -9999 -9999 -9999 -9999 -9999 -9999 -9999 -9999 -9999 -9999 -9999 -9999 -9999 -9999 -9999 -9999 -9999 -9999 -9999 -9999 -9999 -9999 -9999 -9999 -9999 -9999 -9999 -9999 -9999 -9999 -9999 -9999 -9999 -9999 -9999 -9999 -9999 -9999 -9999 -9999 -9999 -9999 -9999 -9999 -9999 -9999 -9999 -9999 -9999 -9999 -9999 -9999 -9999 -9999 -9999 -9999 -9999 -9999 -9999 -9999 -9999 -9999 -9999 -9999 -9999 -9999 -9999 -9999 -9999 -9999 -9999 -9999 -9999 -9999 -9999 -9999 -9999 -9999 -9999 -9999 -9999 -9999 -9999 -9999 -9999 -9999 -9999 -9999 -9999 -9999 -9999 -9999 -9999 -9999 -9999 -9999 -9999 -9999 -9999 -9999 -9999 -9999 -9999 -9999 -9999 -9999 -9999 -9999 -9999 -9999 -9999 -9999 -9999 -9999 -9999 -9999 -9999 -9999 -9999 -9999 -9999 -9999 -9999 -9999 -9999 -9999 -9999 -9999 -9999 -9999 -9999 -9999 -9999 -9999 -9999 -9999 -9999 -9999 -9999 -9999 -9999 -9999 -9999 -9999 -9999 -9999 -9999 -9999 -9999 -9999 -9999 -9999 -9999 -9999 -9999 -9999 -9999 -9999 -9999 -9999 -9999 -9999 -9999 -9999 -9999 -9999 -9999 -9999 -9999 -9999 -9999 -9999 -9999 -9999 -9999 -9999 -9999 -9999 -9999 -9999 -9999 -9999 -9999 -9999 -9999 -9999 -9999 -9999 -9999 -9999 -9999 -9999 -9999 -9999 -9999 -9999 -9999 -9999 -9999 -9999 -9999 -9999 -9999 -9999 -9999 -9999 -9999 -9999 -9999 -9999 -9999 -9999 -9999 -9999 -9999 -9999 -9999 -9999 -9999 -9999 -9999 -9999 -9999 -9999 -9999 -9999 -9999 -9999 -9999 -9999 -9999 -9999 -9999 -9999 -9999 -9999 -9999 -9999 -9999 -9999 -9999 -9999 -9999 -9999 -9999 -9999 -9999 -9999 -9999 -9999 -9999 -9999 -9999 -9999 -9999 -9999 -9999 -9999 -9999 -9999 -9999 -9999 -9999 -9999 -9999 -9999 -9999 -9999 -9999 -9999 -9999 -9999 -9999 -9999 -9999 -9999 -9999 -9999 -9999 -9999 -9999 -9999 -9999 -9999 -9999 -9999 -9999 -9999 -9999 -9999 -9999 -9999 -9999 -9999 -9999 -9999 -9999 -9999 -9999 -9999 -9999 -9999 -9999 -9999 -9999 -9999 -9999 -9999 -9999 -9999 -9999 -9999 -9999 -9999 -9999 -9999 -9999 -9999 -9999 -9999 -9999 -9999 -9999 -9999 -9999 -9999 -9999 -9999
-9999 -9999 -9999 -9999 -9999 -9999 -9999 -9999 -9999 -9999 -9999 -9999 -9999 -9999 -9999 -9999 -9999 -9999 -9999 -9999 -9999 -9999 -9999 -9999 -9999 -9999 -9999 -9999 -9999 -9999 -9999 -9999 -9999 -9999 -9999 -9999 -9999 -9999 -9999 -9999 -9999 -9999 -9999 -9999 -9999 -9999 -9999 -9999 -9999 -9999 -9999 -9999 -9999 -9999 -9999 -9999 -9999 -9999 -9999 -9999 -9999 -9999 -9999 -9999 -9999 -9999 -9999 -9999 -9999 4101 4086 3970 3914 3836 3864 3840 -9999 -9999 -9999 -9999 -9999 -9999 -9999 -9999 -9999 -9999 -9999 -9999 -9999 -9999 -9999 -9999 -9999 -9999 -9999 -9999 -9999 -9999 -9999 -9999 -9999 -9999 -9999 -9999 -9999 -9999 -9999 -9999 -9999 -9999 -9999 -9999 -9999 -9999 -9999 -9999 -9999 -9999 -9999 -9999 -9999 -9999 -9999 -9999 -9999 -9999 -9999 -9999 -9999 -9999 -9999 -9999 -9999 -9999 -9999 -9999 -9999 -9999 -9999 -9999 -9999 -9999 -9999 -9999 -9999 -9999 -9999 -9999 -9999 -9999 -9999 -9999 -9999 -9999 -9999 -9999 -9999 -9999 -9999 -9999 -9999 -9999 -9999 -9999 -9999 -9999 -9999 -9999 -9999 -9999 -9999 -9999 -9999 -9999 -9999 -9999 -9999 -9999 -9999 -9999 -9999 -9999 -9999 -9999 -9999 -9999 -9999 -9999 -9999 -9999 -9999 -9999 -9999 -9999 -9999 -9999 -9999 -9999 -9999 -9999 -9999 -9999 -9999 -9999 -9999 -9999 -9999 -9999 -9999 -9999 -9999 -9999 -9999 -9999 -9999 -9999 -9999 -9999 -9999 -9999 -9999 -9999 -9999 -9999 -9999 -9999 -9999 -9999 -9999 -9999 -9999 -9999 -9999 -9999 -9999 -9999 -9999 -9999 -9999 -9999 -9999 -9999 -9999 -9999 -9999 -9999 -9999 -9999 -9999 -9999 -9999 -9999 -9999 -9999 -9999 -9999 -9999 -9999 -9999 -9999 -9999 -9999 -9999 -9999 -9999 -9999 -9999 -9999 -9999 -9999 -9999 -9999 -9999 -9999 -9999 -9999 -9999 -9999 -9999 -9999 -9999 -9999 -9999 -9999 -9999 -9999 -9999 -9999 -9999 -9999 -9999 -9999 -9999 -9999 -9999 -9999 -9999 -9999 -9999 -9999 -9999 -9999 -9999 -9999 -9999 -9999 -9999 -9999 -9999 -9999 -9999 -9999 -9999 -9999 -9999 -9999 -9999 -9999 -9999 -9999 -9999 -9999 -9999 -9999 -9999 -9999 -9999 -9999 -9999 -9999 -9999 -9999 -9999 -9999 -9999 -9999 -9999 -9999 -9999 -9999 -9999 -9999 -9999 -9999 -9999 -9999 -9999 -9999 -9999 -9999 -9999 -9999 -9999 -9999 -9999 -9999 -9999 -9999 -9999 -9999 -9999 -9999 -9999 -9999 -9999 -9999 -9999 -9999 -9999 -9999 -9999 -9999 -9999 -9999 -9999 -9999 -9999 -9999 -9999 -9999 -9999 -9999 -9999 -9999 -9999 -9999 -9999 -9999 -9999 -9999 -9999 -9999 -9999 -9999 -9999 -9999 -9999 -9999 -9999 -9999 -9999 -9999 -9999 -9999 -9999 -9999 -9999 -9999 -9999 -9999 -9999 -9999 -9999 -9999 -9999 -9999 -9999 -9999 -9999 -9999 -9999 -9999 -9999 -9999 -9999 -9999 -9999 -9999 -9999 -9999 -9999 -9999 -9999 -9999 -9999 -9999 -9999 -9999 -9999 -9999 -9999 -9999 -9999 -9999 -9999 -9999 -9999 -9999 -9999 -9999 -9999 -9999 -9999 -9999 -9999 -9999 -9999 -9999 -9999 -9999 -9999 -9999 -9999 -9999 -9999 -9999 -9999 -9999 -9999 -9999 -9999 -9999 -9999 -9999 -9999 -9999 -9999 -9999 -9999 -9999 -9999 -9999 -9999 -9999 -9999 -9999 -9999 -9999 -9999 -9999 -9999 -9999 -9999
-9999 -9999 -9999 -9999 -9999 -9999 -9999 -9999 -9999 -9999 -9999 -9999 -9999 -9999 -9999 -9999 -9999 -9999 -9999 -9999 -9999 -9999 -9999 -9999 -9999 -9999 -9999 -9999 -9999 -9999 -9999 -9999 -9999 -9999 -9999 -9999 -9999 -9999 -9999 -9999 -9999 -9999 -9999 -9999 -9999 -9999 -9999 -9999 -9999 -9999 -9999 -9999 -9999 -9999 -9999 -9999 -9999 -9999 -9999 -9999 -9999 -9999 -9999 -9999 -9999 -9999 -9999 -9999 -9999 -9999 -9999 -9999 3978 3971 -9999 -9999 -9999 -9999 -9999 -9999 -9999 -9999 -9999 -9999 -9999 -9999 -9999 -9999 -9999 -9999 -9999 -9999 -9999 -9999 -9999 -9999 -9999 -9999 -9999 -9999 -9999 -9999 -9999 -9999 -9999 -9999 -9999 -9999 -9999 -9999 -9999 -9999 -9999 -9999 -9999 -9999 -9999 -9999 -9999 -9999 -9999 -9999 -9999 -9999 -9999 -9999 -9999 -9999 -9999 -9999 -9999 -9999 -9999 -9999 -9999 -9999 -9999 -9999 -9999 -9999 -9999 -9999 -9999 -9999 -9999 -9999 -9999 -9999 -9999 -9999 -9999 -9999 -9999 -9999 -9999 -9999 -9999 -9999 -9999 -9999 -9999 -9999 -9999 -9999 -9999 -9999 -9999 -9999 -9999 -9999 -9999 -9999 -9999 -9999 -9999 -9999 -9999 -9999 -9999 -9999 -9999 -9999 -9999 -9999 -9999 -9999 -9999 -9999 -9999 -9999 -9999 -9999 -9999 -9999 -9999 -9999 -9999 -9999 -9999 -9999 -9999 -9999 -9999 -9999 -9999 -9999 -9999 -9999 -9999 -9999 -9999 -9999 -9999 -9999 -9999 -9999 -9999 -9999 -9999 -9999 -9999 -9999 -9999 -9999 -9999 -9999 -9999 -9999 -9999 -9999 -9999 -9999 -9999 -9999 -9999 -9999 -9999 -9999 -9999 -9999 -9999 -9999 -9999 -9999 -9999 -9999 -9999 -9999 -9999 -9999 -9999 -9999 -9999 -9999 -9999 -9999 -9999 -9999 -9999 -9999 -9999 -9999 -9999 -9999 -9999 -9999 -9999 -9999 -9999 -9999 -9999 -9999 -9999 -9999 -9999 -9999 -9999 -9999 -9999 -9999 -9999 -9999 -9999 -9999 -9999 -9999 -9999 -9999 -9999 -9999 -9999 -9999 -9999 -9999 -9999 -9999 -9999 -9999 -9999 -9999 -9999 -9999 -9999 -9999 -9999 -9999 -9999 -9999 -9999 -9999 -9999 -9999 -9999 -9999 -9999 -9999 -9999 -9999 -9999 -9999 -9999 -9999 -9999 -9999 -9999 -9999 -9999 -9999 -9999 -9999 -9999 -9999 -9999 -9999 -9999 -9999 -9999 -9999 -9999 -9999 -9999 -9999 -9999 -9999 -9999 -9999 -9999 -9999 -9999 -9999 -9999 -9999 -9999 -9999 -9999 -9999 -9999 -9999 -9999 -9999 -9999 -9999 -9999 -9999 -9999 -9999 -9999 -9999 -9999 -9999 -9999 -9999 -9999 -9999 -9999 -9999 -9999 -9999 -9999 -9999 -9999 -9999 -9999 -9999 -9999 -9999 -9999 -9999 -9999 -9999 -9999 -9999 -9999 -9999 -9999 -9999 -9999 -9999 -9999 -9999 -9999 -9999 -9999 -9999 -9999 -9999 -9999 -9999 -9999 -9999 -9999 -9999 -9999 -9999 -9999 -9999 -9999 -9999 -9999 -9999 -9999 -9999 -9999 -9999 -9999 -9999 -9999 -9999 -9999 -9999 -9999 -9999 -9999 -9999 -9999 -9999 -9999 -9999 -9999 -9999 -9999 -9999 -9999 -9999 -9999 -9999 -9999 -9999 -9999 -9999 -9999 -9999 -9999 -9999 -9999 -9999 -9999 -9999 -9999 -9999 -9999 -9999 -9999 -9999 -9999 -9999 -9999 -9999 -9999 -9999 -9999 -9999 -9999 -9999 -9999 -9999 -9999 -9999 -9999 -9999 -9999 -9999 -9999 -9999 -9999 -9999 -9999 -9999 -9999 -9999 -9999 -9999 -9999
